(frame)
(Machine)
(  vendor: Stepcraft)
(  model: 600)
(  description: stepcraft uccnc)
(T1  D=1. CR=0. - ZMIN=-6.7 - flat end mill)
G90
G0 G53 Z0.

(2D Pocket2)
T1 M6 (flat end mill D=1.)
S15000 M3
G64
G54
G43 H1
G0 X92.603 Y71.667
Z15.
Z5.
G1 Z2.6 F500
G3 X92.621 Y71.689 Z2.53 I-0.357 J0.313 F333.3
X92.659 Y71.746 Z2.5 I-0.375 J0.292
X92.481 Y72.394 Z2.474 I-0.413 J0.235
X91.833 Y72.216 Z2.448 I-0.235 J-0.413
X92.011 Y71.568 Z2.422 I0.413 J-0.235
X92.659 Y71.746 Z2.396 I0.235 J0.413
X92.481 Y72.394 Z2.37 I-0.413 J0.235
X91.833 Y72.216 Z2.344 I-0.235 J-0.413
X92.011 Y71.568 Z2.318 I0.413 J-0.235
X92.659 Y71.746 Z2.292 I0.235 J0.413
X92.481 Y72.394 Z2.266 I-0.413 J0.235
X91.833 Y72.216 Z2.239 I-0.235 J-0.413
X92.011 Y71.568 Z2.213 I0.413 J-0.235
X92.659 Y71.746 Z2.187 I0.235 J0.413
X92.481 Y72.394 Z2.161 I-0.413 J0.235
X91.833 Y72.216 Z2.135 I-0.235 J-0.413
X92.011 Y71.568 Z2.109 I0.413 J-0.235
X92.659 Y71.746 Z2.083 I0.235 J0.413
X92.481 Y72.394 Z2.057 I-0.413 J0.235
X91.833 Y72.216 Z2.031 I-0.235 J-0.413
X92.011 Y71.568 Z2.005 I0.413 J-0.235
X92.659 Y71.746 Z1.979 I0.235 J0.413
X92.481 Y72.394 Z1.953 I-0.413 J0.235
X91.833 Y72.216 Z1.927 I-0.235 J-0.413
X92.011 Y71.568 Z1.901 I0.413 J-0.235
X92.659 Y71.746 Z1.875 I0.235 J0.413
X92.481 Y72.394 Z1.849 I-0.413 J0.235
X91.833 Y72.216 Z1.823 I-0.235 J-0.413
X92.011 Y71.568 Z1.797 I0.413 J-0.235
X92.659 Y71.746 Z1.77 I0.235 J0.413
X92.481 Y72.394 Z1.744 I-0.413 J0.235
X91.833 Y72.216 Z1.718 I-0.235 J-0.413
X92.011 Y71.568 Z1.692 I0.413 J-0.235
X92.659 Y71.746 Z1.666 I0.235 J0.413
X92.481 Y72.394 Z1.64 I-0.413 J0.235
X91.833 Y72.216 Z1.614 I-0.235 J-0.413
X92.011 Y71.568 Z1.588 I0.413 J-0.235
X92.659 Y71.746 Z1.562 I0.235 J0.413
X92.481 Y72.394 Z1.536 I-0.413 J0.235
X91.833 Y72.216 Z1.51 I-0.235 J-0.413
X92.011 Y71.568 Z1.484 I0.413 J-0.235
X92.659 Y71.746 Z1.458 I0.235 J0.413
X92.481 Y72.394 Z1.432 I-0.413 J0.235
X91.833 Y72.216 Z1.406 I-0.235 J-0.413
X92.011 Y71.568 Z1.38 I0.413 J-0.235
X92.659 Y71.746 Z1.354 I0.235 J0.413
X92.481 Y72.394 Z1.328 I-0.413 J0.235
X91.833 Y72.216 Z1.301 I-0.235 J-0.413
X92.011 Y71.568 Z1.275 I0.413 J-0.235
X92.659 Y71.746 Z1.249 I0.235 J0.413
X92.481 Y72.394 Z1.223 I-0.413 J0.235
X91.833 Y72.216 Z1.197 I-0.235 J-0.413
X92.011 Y71.568 Z1.171 I0.413 J-0.235
X92.659 Y71.746 Z1.145 I0.235 J0.413
X92.481 Y72.394 Z1.119 I-0.413 J0.235
X91.833 Y72.216 Z1.093 I-0.235 J-0.413
X92.011 Y71.568 Z1.067 I0.413 J-0.235
X92.659 Y71.746 Z1.041 I0.235 J0.413
X92.481 Y72.394 Z1.015 I-0.413 J0.235
X91.833 Y72.216 Z0.989 I-0.235 J-0.413
X92.011 Y71.568 Z0.963 I0.413 J-0.235
X92.659 Y71.746 Z0.937 I0.235 J0.413
X92.481 Y72.394 Z0.911 I-0.413 J0.235
X91.833 Y72.216 Z0.885 I-0.235 J-0.413
X92.011 Y71.568 Z0.859 I0.413 J-0.235
X92.659 Y71.746 Z0.832 I0.235 J0.413
X92.481 Y72.394 Z0.806 I-0.413 J0.235
X91.833 Y72.216 Z0.78 I-0.235 J-0.413
X92.011 Y71.568 Z0.754 I0.413 J-0.235
X92.659 Y71.746 Z0.728 I0.235 J0.413
X92.481 Y72.394 Z0.702 I-0.413 J0.235
X91.833 Y72.216 Z0.676 I-0.235 J-0.413
X92.011 Y71.568 Z0.65 I0.413 J-0.235
X92.659 Y71.746 Z0.624 I0.235 J0.413
X92.481 Y72.394 Z0.598 I-0.413 J0.235
X91.833 Y72.216 Z0.572 I-0.235 J-0.413
X92.011 Y71.568 Z0.546 I0.413 J-0.235
X92.659 Y71.746 Z0.52 I0.235 J0.413
X92.481 Y72.394 Z0.494 I-0.413 J0.235
X91.833 Y72.216 Z0.468 I-0.235 J-0.413
X92.011 Y71.568 Z0.442 I0.413 J-0.235
X92.659 Y71.746 Z0.416 I0.235 J0.413
X92.481 Y72.394 Z0.39 I-0.413 J0.235
X91.833 Y72.216 Z0.363 I-0.235 J-0.413
X92.011 Y71.568 Z0.337 I0.413 J-0.235
X92.659 Y71.746 Z0.311 I0.235 J0.413
X92.481 Y72.394 Z0.285 I-0.413 J0.235
X91.833 Y72.216 Z0.259 I-0.235 J-0.413
X92.011 Y71.568 Z0.233 I0.413 J-0.235
X92.659 Y71.746 Z0.207 I0.235 J0.413
X92.481 Y72.394 Z0.181 I-0.413 J0.235
X91.833 Y72.216 Z0.155 I-0.235 J-0.413
X92.011 Y71.568 Z0.129 I0.413 J-0.235
X92.659 Y71.746 Z0.103 I0.235 J0.413
X92.481 Y72.394 Z0.077 I-0.413 J0.235
X91.833 Y72.216 Z0.051 I-0.235 J-0.413
X92.011 Y71.568 Z0.025 I0.413 J-0.235
X92.659 Y71.746 Z-0.001 I0.235 J0.413
X92.481 Y72.394 Z-0.027 I-0.413 J0.235
X91.833 Y72.216 Z-0.053 I-0.235 J-0.413
X92.011 Y71.568 Z-0.079 I0.413 J-0.235
X92.659 Y71.746 Z-0.106 I0.235 J0.413
X92.481 Y72.394 Z-0.132 I-0.413 J0.235
X91.833 Y72.216 Z-0.158 I-0.235 J-0.413
X92.011 Y71.568 Z-0.184 I0.413 J-0.235
X92.659 Y71.746 Z-0.21 I0.235 J0.413
X92.481 Y72.394 Z-0.236 I-0.413 J0.235
X91.833 Y72.216 Z-0.262 I-0.235 J-0.413
X92.011 Y71.568 Z-0.288 I0.413 J-0.235
X92.659 Y71.746 Z-0.314 I0.235 J0.413
X92.481 Y72.394 Z-0.34 I-0.413 J0.235
X91.833 Y72.216 Z-0.366 I-0.235 J-0.413
X92.011 Y71.568 Z-0.392 I0.413 J-0.235
X92.659 Y71.746 Z-0.418 I0.235 J0.413
X92.481 Y72.394 Z-0.444 I-0.413 J0.235
X91.833 Y72.216 Z-0.47 I-0.235 J-0.413
X92.011 Y71.568 Z-0.496 I0.413 J-0.235
X92.659 Y71.746 Z-0.522 I0.235 J0.413
X92.481 Y72.394 Z-0.548 I-0.413 J0.235
X91.833 Y72.216 Z-0.575 I-0.235 J-0.413
X92.011 Y71.568 Z-0.601 I0.413 J-0.235
X92.659 Y71.746 Z-0.627 I0.235 J0.413
X92.481 Y72.394 Z-0.653 I-0.413 J0.235
X91.833 Y72.216 Z-0.679 I-0.235 J-0.413
X92.011 Y71.568 Z-0.705 I0.413 J-0.235
X92.659 Y71.746 Z-0.731 I0.235 J0.413
X92.481 Y72.394 Z-0.757 I-0.413 J0.235
X91.833 Y72.216 Z-0.783 I-0.235 J-0.413
X92.011 Y71.568 Z-0.809 I0.413 J-0.235
X92.659 Y71.746 Z-0.835 I0.235 J0.413
X92.481 Y72.394 Z-0.861 I-0.413 J0.235
X91.833 Y72.216 Z-0.887 I-0.235 J-0.413
X92.011 Y71.568 Z-0.913 I0.413 J-0.235
X92.659 Y71.746 Z-0.939 I0.235 J0.413
X92.481 Y72.394 Z-0.965 I-0.413 J0.235
X91.833 Y72.216 Z-0.991 I-0.235 J-0.413
X91.771 Y71.981 Z-1. I0.413 J-0.235
X91.942 Y71.809 I0.172 J0. F500
X92.114 Y71.981 I0. J0.172
G1 Y73.284
G3 X91.984 Y73.414 I-0.13 J0.
G1 X91.901
G3 X91.771 Y73.284 I0. J-0.13
G1 Y71.981
G2 X91.67 Y71.793 I-0.225 J0.
G3 X91.633 Y71.616 I0.071 J-0.107
X91.668 Y71.58 I0.107 J0.071
X92.343 Y71.706 I0.275 J0.4
X92.428 Y71.981 I-0.4 J0.275
G2 X92.45 Y72.717 I12.064 J0.
G3 X92.473 Y73.454 I-12.041 J0.736
X92.154 Y73.773 I-0.319 J0.
G1 X91.731
G3 X91.412 Y73.454 I0. J-0.319
X91.434 Y72.717 I12.064 J0.
G2 X91.457 Y71.981 I-12.041 J-0.736
G3 X91.668 Y71.58 I0.486 J0.
G2 X91.898 Y71.126 I-0.3 J-0.438
G3 X92.201 Y70.804 I0.313 J-0.01
X92.303 Y70.818 I0.01 J0.313
X93.16 Y71.981 I-0.361 J1.163
G1 X93.205 Y74.186
G3 X92.886 Y74.505 I-0.319 J0.
G1 X90.999
G3 X90.68 Y74.186 I0. J-0.319
X90.702 Y73.083 I27.026 J0.
G2 X90.725 Y71.981 I-27.003 J-1.103
G3 X91.942 Y70.763 I1.218 J0.
X92.303 Y70.818 I0. J1.218
G2 X92.891 Y70.68 I0.176 J-0.569
G3 X93.2 Y70.567 I0.284 J0.298
X93.493 Y70.718 I-0.026 J0.41
X93.942 Y71.981 I-1.551 J1.263
G1 Y75.242
X89.942
Y71.981
G3 X91.942 Y69.981 I2. J0.
X93.493 Y70.718 I0. J2.
X93.504 Y70.757 I-0.039 J0.032
X93.482 Y70.791 I-0.049 J-0.008
G1 X92.387 Y71.506
X91.316 Y72.26
G3 X91.279 Y72.269 I-0.029 J-0.041
X91.246 Y72.248 I0.009 J-0.049
X91.372 Y71.588 Z-1.026 I0.393 J-0.267 F333.3
X92.032 Y71.714 Z-1.052 I0.267 J0.393
X91.906 Y72.374 Z-1.078 I-0.393 J0.267
X91.246 Y72.248 Z-1.104 I-0.267 J-0.393
X91.372 Y71.588 Z-1.13 I0.393 J-0.267
X92.032 Y71.714 Z-1.156 I0.267 J0.393
X91.906 Y72.374 Z-1.182 I-0.393 J0.267
X91.246 Y72.248 Z-1.208 I-0.267 J-0.393
X91.372 Y71.588 Z-1.234 I0.393 J-0.267
X92.032 Y71.714 Z-1.261 I0.267 J0.393
X91.906 Y72.374 Z-1.287 I-0.393 J0.267
X91.246 Y72.248 Z-1.313 I-0.267 J-0.393
X91.372 Y71.588 Z-1.339 I0.393 J-0.267
X92.032 Y71.714 Z-1.365 I0.267 J0.393
X91.906 Y72.374 Z-1.391 I-0.393 J0.267
X91.246 Y72.248 Z-1.417 I-0.267 J-0.393
X91.372 Y71.588 Z-1.443 I0.393 J-0.267
X92.032 Y71.714 Z-1.469 I0.267 J0.393
X91.906 Y72.374 Z-1.495 I-0.393 J0.267
X91.246 Y72.248 Z-1.521 I-0.267 J-0.393
X91.372 Y71.588 Z-1.547 I0.393 J-0.267
X92.032 Y71.714 Z-1.573 I0.267 J0.393
X91.906 Y72.374 Z-1.599 I-0.393 J0.267
X91.246 Y72.248 Z-1.625 I-0.267 J-0.393
X91.372 Y71.588 Z-1.651 I0.393 J-0.267
X92.032 Y71.714 Z-1.677 I0.267 J0.393
X91.906 Y72.374 Z-1.703 I-0.393 J0.267
X91.246 Y72.248 Z-1.73 I-0.267 J-0.393
X91.372 Y71.588 Z-1.756 I0.393 J-0.267
X92.032 Y71.714 Z-1.782 I0.267 J0.393
X91.906 Y72.374 Z-1.808 I-0.393 J0.267
X91.246 Y72.248 Z-1.834 I-0.267 J-0.393
X91.372 Y71.588 Z-1.86 I0.393 J-0.267
X92.032 Y71.714 Z-1.886 I0.267 J0.393
X91.906 Y72.374 Z-1.912 I-0.393 J0.267
X91.246 Y72.248 Z-1.938 I-0.267 J-0.393
X91.372 Y71.588 Z-1.964 I0.393 J-0.267
X92.032 Y71.714 Z-1.99 I0.267 J0.393
X92.114 Y71.981 Z-2. I-0.393 J0.267
G1 Y73.284 F500
G3 X91.984 Y73.414 I-0.13 J0.
G1 X91.901
G3 X91.771 Y73.284 I0. J-0.13
G1 Y71.981
G3 X91.942 Y71.809 I0.172 J0.
X92.114 Y71.981 I0. J0.172
G2 X92.273 Y72.218 I0.256 J0.
G3 X92.437 Y72.451 I-0.1 J0.244
G2 X92.45 Y72.717 I12.055 J-0.471
G3 X92.473 Y73.454 I-12.041 J0.736
X92.154 Y73.773 I-0.319 J0.
G1 X91.731
G3 X91.412 Y73.454 I0. J-0.319
X91.434 Y72.717 I12.064 J0.
G2 X91.457 Y71.981 I-12.041 J-0.736
G3 X91.942 Y71.495 I0.486 J0.
X92.428 Y71.981 I0. J0.486
G2 X92.437 Y72.451 I12.064 J0.
X92.817 Y72.985 I0.597 J-0.023
G3 X93.192 Y73.521 I-0.214 J0.549
G1 X93.205 Y74.186
G3 X92.886 Y74.505 I-0.319 J0.
G1 X90.999
G3 X90.68 Y74.186 I0. J-0.319
X90.702 Y73.083 I27.026 J0.
G2 X90.725 Y71.981 I-27.003 J-1.103
G3 X91.942 Y70.763 I1.218 J0.
X93.16 Y71.981 I0. J1.218
G1 X93.192 Y73.521
G2 X93.57 Y74.075 I0.613 J-0.013
G3 X93.942 Y74.633 I-0.231 J0.557
G1 Y75.242
X89.942
Y71.981
G3 X91.942 Y69.981 I2. J0.
X93.942 Y71.981 I0. J2.
G1 Y74.633
G3 X93.892 Y74.683 I-0.05 J0.
X93.865 Y74.674 I0. J-0.05
G1 X93.512 Y74.442
X91.547 Y72.283
X91.246 Y72.248
G3 X91.372 Y71.588 Z-2.026 I0.393 J-0.267 F333.3
X92.032 Y71.714 Z-2.052 I0.267 J0.393
X91.906 Y72.374 Z-2.078 I-0.393 J0.267
X91.246 Y72.248 Z-2.104 I-0.267 J-0.393
X91.372 Y71.588 Z-2.13 I0.393 J-0.267
X92.032 Y71.714 Z-2.156 I0.267 J0.393
X91.906 Y72.374 Z-2.182 I-0.393 J0.267
X91.246 Y72.248 Z-2.208 I-0.267 J-0.393
X91.372 Y71.588 Z-2.234 I0.393 J-0.267
X92.032 Y71.714 Z-2.261 I0.267 J0.393
X91.906 Y72.374 Z-2.287 I-0.393 J0.267
X91.246 Y72.248 Z-2.313 I-0.267 J-0.393
X91.372 Y71.588 Z-2.339 I0.393 J-0.267
X92.032 Y71.714 Z-2.365 I0.267 J0.393
X91.906 Y72.374 Z-2.391 I-0.393 J0.267
X91.246 Y72.248 Z-2.417 I-0.267 J-0.393
X91.372 Y71.588 Z-2.443 I0.393 J-0.267
X92.032 Y71.714 Z-2.469 I0.267 J0.393
X91.906 Y72.374 Z-2.495 I-0.393 J0.267
X91.246 Y72.248 Z-2.521 I-0.267 J-0.393
X91.372 Y71.588 Z-2.547 I0.393 J-0.267
X92.032 Y71.714 Z-2.573 I0.267 J0.393
X91.906 Y72.374 Z-2.599 I-0.393 J0.267
X91.246 Y72.248 Z-2.625 I-0.267 J-0.393
X91.372 Y71.588 Z-2.651 I0.393 J-0.267
X92.032 Y71.714 Z-2.677 I0.267 J0.393
X91.906 Y72.374 Z-2.703 I-0.393 J0.267
X91.246 Y72.248 Z-2.73 I-0.267 J-0.393
X91.372 Y71.588 Z-2.756 I0.393 J-0.267
X92.032 Y71.714 Z-2.782 I0.267 J0.393
X91.906 Y72.374 Z-2.808 I-0.393 J0.267
X91.246 Y72.248 Z-2.834 I-0.267 J-0.393
X91.372 Y71.588 Z-2.86 I0.393 J-0.267
X92.032 Y71.714 Z-2.886 I0.267 J0.393
X91.906 Y72.374 Z-2.912 I-0.393 J0.267
X91.246 Y72.248 Z-2.938 I-0.267 J-0.393
X91.372 Y71.588 Z-2.964 I0.393 J-0.267
X92.032 Y71.714 Z-2.99 I0.267 J0.393
X92.114 Y71.981 Z-3. I-0.393 J0.267
G1 Y73.284 F500
G3 X91.984 Y73.414 I-0.13 J0.
G1 X91.901
G3 X91.771 Y73.284 I0. J-0.13
G1 Y71.981
G3 X91.942 Y71.809 I0.172 J0.
X92.114 Y71.981 I0. J0.172
G2 X92.273 Y72.218 I0.256 J0.
G3 X92.437 Y72.451 I-0.1 J0.244
G2 X92.45 Y72.717 I12.055 J-0.471
G3 X92.473 Y73.454 I-12.041 J0.736
X92.154 Y73.773 I-0.319 J0.
G1 X91.731
G3 X91.412 Y73.454 I0. J-0.319
X91.434 Y72.717 I12.064 J0.
G2 X91.457 Y71.981 I-12.041 J-0.736
G3 X91.942 Y71.495 I0.486 J0.
X92.428 Y71.981 I0. J0.486
G2 X92.437 Y72.451 I12.064 J0.
X92.817 Y72.985 I0.597 J-0.023
G3 X93.192 Y73.521 I-0.214 J0.549
G1 X93.205 Y74.186
G3 X92.886 Y74.505 I-0.319 J0.
G1 X90.999
G3 X90.68 Y74.186 I0. J-0.319
X90.702 Y73.083 I27.026 J0.
G2 X90.725 Y71.981 I-27.003 J-1.103
G3 X91.942 Y70.763 I1.218 J0.
X93.16 Y71.981 I0. J1.218
G1 X93.192 Y73.521
G2 X93.57 Y74.075 I0.613 J-0.013
G3 X93.942 Y74.633 I-0.231 J0.557
G1 Y75.242
X89.942
Y71.981
G3 X91.942 Y69.981 I2. J0.
X93.942 Y71.981 I0. J2.
G1 Y74.633
G3 X93.892 Y74.683 I-0.05 J0.
X93.865 Y74.674 I0. J-0.05
G1 X93.512 Y74.442
X91.547 Y72.283
X91.246 Y72.248
G3 X91.372 Y71.588 Z-3.026 I0.393 J-0.267 F333.3
X92.032 Y71.714 Z-3.052 I0.267 J0.393
X91.906 Y72.374 Z-3.078 I-0.393 J0.267
X91.246 Y72.248 Z-3.104 I-0.267 J-0.393
X91.372 Y71.588 Z-3.13 I0.393 J-0.267
X92.032 Y71.714 Z-3.156 I0.267 J0.393
X91.906 Y72.374 Z-3.182 I-0.393 J0.267
X91.246 Y72.248 Z-3.208 I-0.267 J-0.393
X91.372 Y71.588 Z-3.234 I0.393 J-0.267
X92.032 Y71.714 Z-3.261 I0.267 J0.393
X91.906 Y72.374 Z-3.287 I-0.393 J0.267
X91.246 Y72.248 Z-3.313 I-0.267 J-0.393
X91.372 Y71.588 Z-3.339 I0.393 J-0.267
X92.032 Y71.714 Z-3.365 I0.267 J0.393
X91.906 Y72.374 Z-3.391 I-0.393 J0.267
X91.246 Y72.248 Z-3.417 I-0.267 J-0.393
X91.372 Y71.588 Z-3.443 I0.393 J-0.267
X92.032 Y71.714 Z-3.469 I0.267 J0.393
X91.906 Y72.374 Z-3.495 I-0.393 J0.267
X91.246 Y72.248 Z-3.521 I-0.267 J-0.393
X91.372 Y71.588 Z-3.547 I0.393 J-0.267
X92.032 Y71.714 Z-3.573 I0.267 J0.393
X91.906 Y72.374 Z-3.599 I-0.393 J0.267
X91.246 Y72.248 Z-3.625 I-0.267 J-0.393
X91.372 Y71.588 Z-3.651 I0.393 J-0.267
X92.032 Y71.714 Z-3.677 I0.267 J0.393
X91.906 Y72.374 Z-3.703 I-0.393 J0.267
X91.246 Y72.248 Z-3.73 I-0.267 J-0.393
X91.372 Y71.588 Z-3.756 I0.393 J-0.267
X92.032 Y71.714 Z-3.782 I0.267 J0.393
X91.906 Y72.374 Z-3.808 I-0.393 J0.267
X91.246 Y72.248 Z-3.834 I-0.267 J-0.393
X91.372 Y71.588 Z-3.86 I0.393 J-0.267
X92.032 Y71.714 Z-3.886 I0.267 J0.393
X91.906 Y72.374 Z-3.912 I-0.393 J0.267
X91.246 Y72.248 Z-3.938 I-0.267 J-0.393
X91.372 Y71.588 Z-3.964 I0.393 J-0.267
X92.032 Y71.714 Z-3.99 I0.267 J0.393
X92.114 Y71.981 Z-4. I-0.393 J0.267
G1 Y73.284 F500
G3 X91.984 Y73.414 I-0.13 J0.
G1 X91.901
G3 X91.771 Y73.284 I0. J-0.13
G1 Y71.981
G3 X91.942 Y71.809 I0.172 J0.
X92.114 Y71.981 I0. J0.172
G2 X92.273 Y72.218 I0.256 J0.
G3 X92.437 Y72.451 I-0.1 J0.244
G2 X92.45 Y72.717 I12.055 J-0.471
G3 X92.473 Y73.454 I-12.041 J0.736
X92.154 Y73.773 I-0.319 J0.
G1 X91.731
G3 X91.412 Y73.454 I0. J-0.319
X91.434 Y72.717 I12.064 J0.
G2 X91.457 Y71.981 I-12.041 J-0.736
G3 X91.942 Y71.495 I0.486 J0.
X92.428 Y71.981 I0. J0.486
G2 X92.437 Y72.451 I12.064 J0.
X92.817 Y72.985 I0.597 J-0.023
G3 X93.192 Y73.521 I-0.214 J0.549
G1 X93.205 Y74.186
G3 X92.886 Y74.505 I-0.319 J0.
G1 X90.999
G3 X90.68 Y74.186 I0. J-0.319
X90.702 Y73.083 I27.026 J0.
G2 X90.725 Y71.981 I-27.003 J-1.103
G3 X91.942 Y70.763 I1.218 J0.
X93.16 Y71.981 I0. J1.218
G1 X93.192 Y73.521
G2 X93.57 Y74.075 I0.613 J-0.013
G3 X93.942 Y74.633 I-0.231 J0.557
G1 Y75.242
X89.942
Y71.981
G3 X91.942 Y69.981 I2. J0.
X93.942 Y71.981 I0. J2.
G1 Y74.633
G3 X93.892 Y74.683 I-0.05 J0.
X93.865 Y74.674 I0. J-0.05
G1 X93.515 Y74.44
X91.714 Y72.399
G2 X91.649 Y72.391 I-0.037 J0.033
G1 X91.54 Y72.445
G3 X91.175 Y71.881 Z-4.026 I0.099 J-0.465 F333.3
X91.738 Y71.516 Z-4.052 I0.465 J0.099
X92.104 Y72.08 Z-4.078 I-0.099 J0.464
X91.54 Y72.445 Z-4.104 I-0.464 J-0.099
X91.175 Y71.881 Z-4.13 I0.099 J-0.464
X91.738 Y71.516 Z-4.156 I0.464 J0.099
X92.104 Y72.08 Z-4.182 I-0.099 J0.464
X91.54 Y72.445 Z-4.208 I-0.464 J-0.099
X91.175 Y71.881 Z-4.234 I0.099 J-0.464
X91.738 Y71.516 Z-4.261 I0.464 J0.099
X92.104 Y72.08 Z-4.287 I-0.099 J0.464
X91.54 Y72.445 Z-4.313 I-0.464 J-0.099
X91.175 Y71.881 Z-4.339 I0.099 J-0.464
X91.738 Y71.516 Z-4.365 I0.464 J0.099
X92.104 Y72.08 Z-4.391 I-0.099 J0.464
X91.54 Y72.445 Z-4.417 I-0.464 J-0.099
X91.175 Y71.881 Z-4.443 I0.099 J-0.464
X91.738 Y71.516 Z-4.469 I0.464 J0.099
X92.104 Y72.08 Z-4.495 I-0.099 J0.464
X91.54 Y72.445 Z-4.521 I-0.464 J-0.099
X91.175 Y71.881 Z-4.547 I0.099 J-0.464
X91.738 Y71.516 Z-4.573 I0.464 J0.099
X92.104 Y72.08 Z-4.599 I-0.099 J0.464
X91.54 Y72.445 Z-4.625 I-0.464 J-0.099
X91.175 Y71.881 Z-4.651 I0.099 J-0.464
X91.738 Y71.516 Z-4.677 I0.464 J0.099
X92.114 Y71.981 Z-4.7 I-0.099 J0.464
G1 Y73.284 F500
G3 X91.984 Y73.414 I-0.13 J0.
G1 X91.901
G3 X91.771 Y73.284 I0. J-0.13
G1 Y71.981
G3 X91.942 Y71.809 I0.172 J0.
X92.114 Y71.981 I0. J0.172
G2 X92.273 Y72.218 I0.256 J0.
G3 X92.437 Y72.451 I-0.1 J0.244
G2 X92.45 Y72.717 I12.055 J-0.471
G3 X92.473 Y73.454 I-12.041 J0.736
X92.154 Y73.773 I-0.319 J0.
G1 X91.731
G3 X91.412 Y73.454 I0. J-0.319
X91.434 Y72.717 I12.064 J0.
G2 X91.457 Y71.981 I-12.041 J-0.736
G3 X91.942 Y71.495 I0.486 J0.
X92.428 Y71.981 I0. J0.486
G2 X92.437 Y72.451 I12.064 J0.
X92.817 Y72.985 I0.597 J-0.023
G3 X93.192 Y73.521 I-0.214 J0.549
G1 X93.205 Y74.186
G3 X92.886 Y74.505 I-0.319 J0.
G1 X90.999
G3 X90.68 Y74.186 I0. J-0.319
X90.702 Y73.083 I27.026 J0.
G2 X90.725 Y71.981 I-27.003 J-1.103
G3 X91.942 Y70.763 I1.218 J0.
X93.16 Y71.981 I0. J1.218
G1 X93.192 Y73.521
G2 X93.57 Y74.075 I0.613 J-0.013
G3 X93.942 Y74.633 I-0.231 J0.557
G1 Y75.242
X89.942
Y71.981
G3 X91.942 Y69.981 I2. J0.
X93.942 Y71.981 I0. J2.
G1 Y74.633
G3 X93.918 Y74.697 Z-4.671 I-0.1 J0.
X93.896 Y74.717 Z-4.6 I-0.076 J-0.065
G0 Z15.
X94.158 Y89.784
Z5.
G1 Z2.6 F500
G3 X94.14 Y89.763 Z2.53 I0.357 J-0.313 F333.3
X94.102 Y89.706 Z2.5 I0.375 J-0.292
X94.28 Y89.058 Z2.474 I0.413 J-0.235
X94.927 Y89.236 Z2.448 I0.235 J0.413
X94.749 Y89.884 Z2.422 I-0.413 J0.235
X94.102 Y89.706 Z2.396 I-0.235 J-0.413
X94.28 Y89.058 Z2.37 I0.413 J-0.235
X94.927 Y89.236 Z2.344 I0.235 J0.413
X94.749 Y89.884 Z2.318 I-0.413 J0.235
X94.102 Y89.706 Z2.292 I-0.235 J-0.413
X94.28 Y89.058 Z2.266 I0.413 J-0.235
X94.927 Y89.236 Z2.239 I0.235 J0.413
X94.749 Y89.884 Z2.213 I-0.413 J0.235
X94.102 Y89.706 Z2.187 I-0.235 J-0.413
X94.28 Y89.058 Z2.161 I0.413 J-0.235
X94.927 Y89.236 Z2.135 I0.235 J0.413
X94.749 Y89.884 Z2.109 I-0.413 J0.235
X94.102 Y89.706 Z2.083 I-0.235 J-0.413
X94.28 Y89.058 Z2.057 I0.413 J-0.235
X94.927 Y89.236 Z2.031 I0.235 J0.413
X94.749 Y89.884 Z2.005 I-0.413 J0.235
X94.102 Y89.706 Z1.979 I-0.235 J-0.413
X94.28 Y89.058 Z1.953 I0.413 J-0.235
X94.927 Y89.236 Z1.927 I0.235 J0.413
X94.749 Y89.884 Z1.901 I-0.413 J0.235
X94.102 Y89.706 Z1.875 I-0.235 J-0.413
X94.28 Y89.058 Z1.849 I0.413 J-0.235
X94.927 Y89.236 Z1.823 I0.235 J0.413
X94.749 Y89.884 Z1.797 I-0.413 J0.235
X94.102 Y89.706 Z1.77 I-0.235 J-0.413
X94.28 Y89.058 Z1.744 I0.413 J-0.235
X94.927 Y89.236 Z1.718 I0.235 J0.413
X94.749 Y89.884 Z1.692 I-0.413 J0.235
X94.102 Y89.706 Z1.666 I-0.235 J-0.413
X94.28 Y89.058 Z1.64 I0.413 J-0.235
X94.927 Y89.236 Z1.614 I0.235 J0.413
X94.749 Y89.884 Z1.588 I-0.413 J0.235
X94.102 Y89.706 Z1.562 I-0.235 J-0.413
X94.28 Y89.058 Z1.536 I0.413 J-0.235
X94.927 Y89.236 Z1.51 I0.235 J0.413
X94.749 Y89.884 Z1.484 I-0.413 J0.235
X94.102 Y89.706 Z1.458 I-0.235 J-0.413
X94.28 Y89.058 Z1.432 I0.413 J-0.235
X94.927 Y89.236 Z1.406 I0.235 J0.413
X94.749 Y89.884 Z1.38 I-0.413 J0.235
X94.102 Y89.706 Z1.354 I-0.235 J-0.413
X94.28 Y89.058 Z1.328 I0.413 J-0.235
X94.927 Y89.236 Z1.301 I0.235 J0.413
X94.749 Y89.884 Z1.275 I-0.413 J0.235
X94.102 Y89.706 Z1.249 I-0.235 J-0.413
X94.28 Y89.058 Z1.223 I0.413 J-0.235
X94.927 Y89.236 Z1.197 I0.235 J0.413
X94.749 Y89.884 Z1.171 I-0.413 J0.235
X94.102 Y89.706 Z1.145 I-0.235 J-0.413
X94.28 Y89.058 Z1.119 I0.413 J-0.235
X94.927 Y89.236 Z1.093 I0.235 J0.413
X94.749 Y89.884 Z1.067 I-0.413 J0.235
X94.102 Y89.706 Z1.041 I-0.235 J-0.413
X94.28 Y89.058 Z1.015 I0.413 J-0.235
X94.927 Y89.236 Z0.989 I0.235 J0.413
X94.749 Y89.884 Z0.963 I-0.413 J0.235
X94.102 Y89.706 Z0.937 I-0.235 J-0.413
X94.28 Y89.058 Z0.911 I0.413 J-0.235
X94.927 Y89.236 Z0.885 I0.235 J0.413
X94.749 Y89.884 Z0.859 I-0.413 J0.235
X94.102 Y89.706 Z0.832 I-0.235 J-0.413
X94.28 Y89.058 Z0.806 I0.413 J-0.235
X94.927 Y89.236 Z0.78 I0.235 J0.413
X94.749 Y89.884 Z0.754 I-0.413 J0.235
X94.102 Y89.706 Z0.728 I-0.235 J-0.413
X94.28 Y89.058 Z0.702 I0.413 J-0.235
X94.927 Y89.236 Z0.676 I0.235 J0.413
X94.749 Y89.884 Z0.65 I-0.413 J0.235
X94.102 Y89.706 Z0.624 I-0.235 J-0.413
X94.28 Y89.058 Z0.598 I0.413 J-0.235
X94.927 Y89.236 Z0.572 I0.235 J0.413
X94.749 Y89.884 Z0.546 I-0.413 J0.235
X94.102 Y89.706 Z0.52 I-0.235 J-0.413
X94.28 Y89.058 Z0.494 I0.413 J-0.235
X94.927 Y89.236 Z0.468 I0.235 J0.413
X94.749 Y89.884 Z0.442 I-0.413 J0.235
X94.102 Y89.706 Z0.416 I-0.235 J-0.413
X94.28 Y89.058 Z0.39 I0.413 J-0.235
X94.927 Y89.236 Z0.363 I0.235 J0.413
X94.749 Y89.884 Z0.337 I-0.413 J0.235
X94.102 Y89.706 Z0.311 I-0.235 J-0.413
X94.28 Y89.058 Z0.285 I0.413 J-0.235
X94.927 Y89.236 Z0.259 I0.235 J0.413
X94.749 Y89.884 Z0.233 I-0.413 J0.235
X94.102 Y89.706 Z0.207 I-0.235 J-0.413
X94.28 Y89.058 Z0.181 I0.413 J-0.235
X94.927 Y89.236 Z0.155 I0.235 J0.413
X94.749 Y89.884 Z0.129 I-0.413 J0.235
X94.102 Y89.706 Z0.103 I-0.235 J-0.413
X94.28 Y89.058 Z0.077 I0.413 J-0.235
X94.927 Y89.236 Z0.051 I0.235 J0.413
X94.749 Y89.884 Z0.025 I-0.413 J0.235
X94.102 Y89.706 Z-0.001 I-0.235 J-0.413
X94.28 Y89.058 Z-0.027 I0.413 J-0.235
X94.927 Y89.236 Z-0.053 I0.235 J0.413
X94.749 Y89.884 Z-0.079 I-0.413 J0.235
X94.102 Y89.706 Z-0.106 I-0.235 J-0.413
X94.28 Y89.058 Z-0.132 I0.413 J-0.235
X94.927 Y89.236 Z-0.158 I0.235 J0.413
X94.749 Y89.884 Z-0.184 I-0.413 J0.235
X94.102 Y89.706 Z-0.21 I-0.235 J-0.413
X94.28 Y89.058 Z-0.236 I0.413 J-0.235
X94.927 Y89.236 Z-0.262 I0.235 J0.413
X94.749 Y89.884 Z-0.288 I-0.413 J0.235
X94.102 Y89.706 Z-0.314 I-0.235 J-0.413
X94.28 Y89.058 Z-0.34 I0.413 J-0.235
X94.927 Y89.236 Z-0.366 I0.235 J0.413
X94.749 Y89.884 Z-0.392 I-0.413 J0.235
X94.102 Y89.706 Z-0.418 I-0.235 J-0.413
X94.28 Y89.058 Z-0.444 I0.413 J-0.235
X94.927 Y89.236 Z-0.47 I0.235 J0.413
X94.749 Y89.884 Z-0.496 I-0.413 J0.235
X94.102 Y89.706 Z-0.522 I-0.235 J-0.413
X94.28 Y89.058 Z-0.548 I0.413 J-0.235
X94.927 Y89.236 Z-0.575 I0.235 J0.413
X94.749 Y89.884 Z-0.601 I-0.413 J0.235
X94.102 Y89.706 Z-0.627 I-0.235 J-0.413
X94.28 Y89.058 Z-0.653 I0.413 J-0.235
X94.927 Y89.236 Z-0.679 I0.235 J0.413
X94.749 Y89.884 Z-0.705 I-0.413 J0.235
X94.102 Y89.706 Z-0.731 I-0.235 J-0.413
X94.28 Y89.058 Z-0.757 I0.413 J-0.235
X94.927 Y89.236 Z-0.783 I0.235 J0.413
X94.749 Y89.884 Z-0.809 I-0.413 J0.235
X94.102 Y89.706 Z-0.835 I-0.235 J-0.413
X94.28 Y89.058 Z-0.861 I0.413 J-0.235
X94.927 Y89.236 Z-0.887 I0.235 J0.413
X94.749 Y89.884 Z-0.913 I-0.413 J0.235
X94.102 Y89.706 Z-0.939 I-0.235 J-0.413
X94.28 Y89.058 Z-0.965 I0.413 J-0.235
X94.927 Y89.236 Z-0.991 I0.235 J0.413
X94.989 Y89.471 Z-1. I-0.413 J0.235
G1 Y107.621 F500
G3 X94.916 Y107.859 I-0.422 J0.
G2 X94.276 Y108.92 I9.151 J6.243
G3 X94.146 Y108.96 I-0.085 J-0.045
X94.095 Y108.875 I0.045 J-0.085
G1 Y89.463
G3 X94.168 Y89.225 I0.422 J0.
G2 X94.376 Y88.909 I-9.151 J-6.243
G3 X94.647 Y88.848 I0.166 J0.105
X94.708 Y88.909 I-0.105 J0.166
G2 X94.916 Y89.225 I9.359 J-5.927
G3 X94.989 Y89.463 I-0.349 J0.238
G1 Y89.471
G2 X95.27 Y89.892 I0.456 J0.
G3 X95.551 Y90.313 I-0.175 J0.421
G1 Y107.614
G3 X95.376 Y108.181 I-1.008 J0.
G2 X94.275 Y110.265 I8.691 J5.921
G3 X94.09 Y110.347 I-0.133 J-0.052
X94.009 Y110.265 I0.052 J-0.133
G2 X93.595 Y109.342 I-9.792 J3.837
G3 X93.534 Y109.087 I0.503 J-0.256
G1 Y89.47
G3 X93.709 Y88.903 I1.007 J0.
G2 X94.394 Y87.745 I-8.691 J-5.921
G3 X94.618 Y87.672 I0.149 J0.075
X94.691 Y87.745 I-0.075 J0.149
G2 X95.376 Y88.903 I9.376 J-4.762
G3 X95.551 Y89.47 I-0.833 J0.567
G1 Y90.313
G2 X95.826 Y90.725 I0.447 J0.
G3 X96.101 Y91.138 I-0.172 J0.413
G1 Y107.688
G3 X95.867 Y108.437 I-1.318 J0.
G2 X94.247 Y112.4 I8.2 J5.665
G3 X94.124 Y112.487 I-0.105 J-0.018
X94.037 Y112.4 I0.018 J-0.105
G2 X93.092 Y109.567 I-9.82 J1.702
G3 X92.984 Y109.117 I0.879 J-0.449
G1 Y89.396
G3 X93.217 Y88.647 I1.318 J0.
G2 X94.416 Y86.296 I-8.2 J-5.665
G3 X94.587 Y86.215 I0.126 J0.044
X94.668 Y86.296 I-0.044 J0.126
G2 X95.867 Y88.647 I9.399 J-3.314
G3 X96.101 Y89.396 I-1.084 J0.749
G1 Y91.138
G2 X96.329 Y91.48 I0.371 J0.
G3 X96.557 Y91.823 I-0.143 J0.342
G1 Y107.636
G3 X96.218 Y108.733 I-1.942 J0.
G2 X94.96 Y111.288 I8.286 J5.669
X94.512 Y114.102 I8.627 J2.814
X94.535 Y115.008 I18.236 J0.
G3 X94.557 Y115.913 I-18.213 J0.906
X94.238 Y116.232 I-0.319 J0.
G1 X94.042
G3 X93.727 Y115.917 I0. J-0.315
X93.75 Y115.01 I18.313 J0.
G2 X93.772 Y114.102 I-18.29 J-0.908
X93.483 Y111.864 I-8.812 J0.
X92.676 Y109.756 I-10.042 J2.638
G3 X92.527 Y109.141 I1.196 J-0.615
G1 Y89.448
G3 X92.866 Y88.352 I1.942 J0.
G2 X94.171 Y85.561 I-7.849 J-5.369
G3 X94.647 Y85.294 I0.371 J0.105
X94.914 Y85.561 I-0.105 J0.371
G2 X96.218 Y88.352 I9.153 J-2.578
G3 X96.557 Y89.448 I-1.603 J1.096
G1 Y91.823
G2 X96.922 Y92.369 I0.592 J0.
G3 X97.286 Y92.915 I-0.228 J0.546
G1 Y107.915
G3 X96.947 Y108.962 I-1.789 J0.
G2 X95.689 Y111.398 I7.515 J5.426
X95.241 Y114.102 I7.936 J2.704
X95.252 Y115.377 I72.793 J0.
X95.303 Y116.65 I28.336 J-0.496
G3 X95.224 Y116.869 I-0.292 J0.018
X95.011 Y116.961 I-0.213 J-0.2
G1 X93.273
G3 X93.06 Y116.869 I0. J-0.292
X92.981 Y116.65 I0.213 J-0.2
X93.003 Y116.376 I8.811 J0.551
G2 X93.016 Y116.102 I-2.923 J-0.274
G1 X93.044 Y114.102
G2 X92.768 Y112.008 I-8.106 J0.
X92.002 Y110.039 I-9.309 J2.49
G3 X91.799 Y109.209 I1.591 J-0.83
G1 Y89.17
G3 X92.137 Y88.122 I1.789 J0.
G2 X93.598 Y84.851 I-7.12 J-5.14
G3 X94.004 Y84.524 I0.406 J0.088
G1 X95.081
G3 X95.487 Y84.851 I0. J0.416
G2 X96.947 Y88.122 I8.58 J-1.868
G3 X97.286 Y89.17 I-1.451 J1.047
G1 Y92.915
G2 X97.642 Y93.45 I0.58 J0.
G3 X97.999 Y93.985 I-0.223 J0.535
G1 Y108.2
G3 X97.661 Y109.197 I-1.64 J0.
G2 X96.403 Y111.509 I6.761 J5.177
X95.954 Y114.102 I7.258 J2.593
X95.962 Y115.739 I164.734 J0.
X96.099 Y117.371 I11.074 J-0.11
G3 X95.882 Y117.671 I-0.259 J0.041
X95.841 Y117.674 I-0.041 J-0.259
G1 X92.444
G3 X92.182 Y117.412 I0. J-0.262
X92.185 Y117.371 I0.262 J0.
G2 X92.34 Y113.794 I-15.474 J-2.464
X91.36 Y110.35 I-8.718 J0.621
G3 X91.085 Y109.237 I2.12 J-1.114
G1 Y88.884
G3 X91.423 Y87.887 I1.64 J0.
G2 X93.003 Y84.133 I-6.406 J-4.905
G3 X93.375 Y83.81 I0.373 J0.054
G1 X95.709
G3 X96.082 Y84.133 I0. J0.376
G2 X97.661 Y87.887 I7.985 J-1.151
G3 X97.999 Y88.884 I-1.302 J0.997
G1 Y93.985
G2 X98.347 Y94.506 I0.565 J0.
G3 X98.694 Y95.027 I-0.217 J0.521
G1 Y108.492
G3 X98.357 Y109.438 I-1.494 J0.
G2 X97.1 Y111.622 I6.025 J4.922
X96.649 Y114.102 I6.598 J2.48
X96.671 Y116.099 I89.92 J0.
X96.963 Y118.074 I8.052 J-0.179
G3 X96.801 Y118.36 I-0.224 J0.062
X96.738 Y118.369 I-0.062 J-0.224
G1 X91.931
G3 X91.447 Y118.035 I0. J-0.517
G1 X91.426 Y117.979
G3 X91.408 Y117.733 I0.394 J-0.153
G2 X91.623 Y115.924 I-8.503 J-1.929
X91.635 Y114.102 I-132.943 J-1.822
X91.383 Y112.272 I-6.758 J0.
X90.685 Y110.561 I-7.863 J2.212
G3 X90.39 Y109.411 I2.101 J-1.15
G1 Y88.592
G3 X90.727 Y87.647 I1.494 J0.
G2 X92.377 Y83.433 I-5.71 J-4.664
G3 X92.714 Y83.115 I0.337 J0.021
G1 X96.37
G3 X96.708 Y83.433 I0. J0.338
G2 X98.357 Y87.647 I7.359 J-0.45
G3 X98.694 Y88.592 I-1.157 J0.945
G1 Y95.027
G2 X99.03 Y95.531 I0.546 J0.
G3 X99.366 Y96.036 I-0.21 J0.504
G1 Y108.79
G3 X99.03 Y109.682 I-1.353 J0.
G2 X97.773 Y111.737 I5.314 J4.662
X97.321 Y114.102 I5.959 J2.365
X97.38 Y116.46 I47.275 J0.
X97.914 Y118.757 I6.625 J-0.331
G3 X97.808 Y119.024 I-0.187 J0.081
X97.728 Y119.041 I-0.081 J-0.187
G1 X91.419
G3 X90.97 Y118.711 I0. J-0.471
G2 X90.791 Y118.2 I-7.338 J2.29
G3 X90.747 Y117.607 I0.938 J-0.367
G2 X90.955 Y115.86 I-7.929 J-1.827
X90.963 Y114.102 I-176.96 J-1.758
X90.716 Y112.378 I-6.133 J0.
X90.034 Y110.775 I-7.142 J2.092
G3 X89.718 Y109.586 I2.079 J-1.189
G1 Y88.294
G3 X90.054 Y87.402 I1.353 J0.
G2 X91.725 Y82.982 I-5.058 J-4.438
X91.722 Y82.873 I-1.758 J0.
G3 X91.718 Y82.763 I1.755 J-0.11
X92.038 Y82.443 I0.319 J0.
G1 X97.047
G3 X97.366 Y82.763 I0. J0.319
X97.363 Y82.873 I-1.758 J0.
G2 X97.359 Y82.982 I1.755 J0.11
X99.03 Y87.402 I6.68 J0.
G3 X99.366 Y88.294 I-1.017 J0.892
G1 Y96.036
G2 X99.732 Y96.585 I0.595 J0.
G3 X100.098 Y97.134 I-0.229 J0.549
G1 Y109.135
G3 X99.764 Y109.966 I-1.2 J0.
G2 X98.508 Y111.868 I4.539 J4.362
X98.053 Y114.102 I5.262 J2.234
X98.112 Y116.428 I46.017 J0.
X98.685 Y118.683 I5.897 J-0.298
G3 X98.734 Y119.205 I-0.68 J0.326
G2 X98.674 Y119.447 I6.46 J1.731
G3 X98.264 Y119.773 I-0.409 J-0.093
G1 X90.822
G3 X90.411 Y119.445 I0. J-0.422
G2 X90.103 Y118.451 I-6.675 J1.524
G3 X90.03 Y117.459 I1.552 J-0.613
G2 X90.227 Y115.786 I-7.33 J-1.711
X90.231 Y114.102 I-329.706 J-1.684
X89.973 Y112.44 I-5.49 J0.
X89.264 Y110.914 I-6.286 J1.997
G3 X88.986 Y109.956 I1.518 J-0.959
G1 Y87.95
G3 X89.321 Y87.118 I1.2 J0.
G2 X90.569 Y85.215 I-4.456 J-4.283
X91.016 Y82.982 I-5.352 J-2.232
X91.001 Y82.506 I-7.622 J0.
G3 X90.986 Y82.031 I7.607 J-0.476
X91.306 Y81.711 I0.319 J0.
G1 X97.779
G3 X98.098 Y82.031 I0. J0.319
X98.083 Y82.506 I-7.622 J0.
G2 X98.068 Y82.982 I7.607 J0.476
X98.515 Y85.215 I5.799 J0.
X99.764 Y87.118 I5.705 J-2.379
G3 X100.098 Y87.95 I-0.865 J0.831
G1 Y97.134
G2 X100.464 Y97.683 I0.595 J0.
G3 X100.83 Y98.232 I-0.229 J0.549
G1 Y109.505
G3 X100.497 Y110.271 I-1.046 J0.
G2 X99.243 Y112.008 I3.763 J4.039
X98.785 Y114.102 I4.565 J2.094
X98.832 Y116.314 I52.018 J0.
X99.389 Y118.456 I5.257 J-0.224
G3 X99.469 Y119.294 I-1.034 J0.52
G2 X99.283 Y120.186 I6.035 J1.719
G3 X98.918 Y120.505 I-0.366 J-0.049
G1 X90.167
G3 X89.801 Y120.186 I0. J-0.369
G2 X89.305 Y118.443 I-6.249 J0.838
G3 X89.244 Y117.571 I1.148 J-0.519
G2 X89.499 Y115.788 I-6.102 J-1.783
G1 Y114.102
G2 X89.248 Y112.569 I-4.809 J0.
X88.56 Y111.176 I-5.502 J1.85
G3 X88.254 Y110.173 I1.489 J-1.003
G1 Y87.579
G3 X88.587 Y86.814 I1.046 J0.
G2 X89.842 Y85.076 I-3.763 J-4.039
X90.299 Y82.982 I-4.565 J-2.094
X90.276 Y82.14 I-15.767 J0.
G3 X90.254 Y81.298 I15.744 J-0.842
X90.573 Y80.979 I0.319 J0.
G1 X98.511
G3 X98.83 Y81.298 I0. J0.319
X98.808 Y82.14 I-15.767 J0.
G2 X98.785 Y82.982 I15.744 J0.842
X99.243 Y85.076 I5.022 J0.
X100.497 Y86.814 I5.018 J-2.302
G3 X100.83 Y87.579 I-0.713 J0.765
G1 Y98.232
G2 X101.195 Y98.779 I0.592 J0.
G3 X101.559 Y99.326 I-0.228 J0.547
G1 Y109.907
G3 X101.229 Y110.6 I-0.893 J0.
G2 X99.976 Y112.157 I2.99 J3.69
X99.514 Y114.102 I3.87 J1.945
X99.566 Y116.314 I47.95 J0.
X100.208 Y118.431 I4.494 J-0.208
G3 X100.28 Y119.15 I-0.721 J0.435
G2 X99.959 Y120.919 I5.217 J1.861
G3 X99.639 Y121.234 I-0.32 J-0.005
G1 X89.446
G3 X89.126 Y120.919 I0. J-0.32
G2 X88.488 Y118.431 I-5.529 J0.091
G3 X88.439 Y117.681 I0.81 J-0.429
G2 X88.765 Y115.906 I-4.818 J-1.802
X88.77 Y114.102 I-341.547 J-1.804
X88.51 Y112.655 I-4.159 J0.
X87.801 Y111.367 I-4.665 J1.731
G3 X87.525 Y110.551 I1.069 J-0.816
G1 Y87.178
G3 X87.856 Y86.484 I0.893 J0.
G2 X89.109 Y84.927 I-2.99 J-3.69
X89.57 Y82.982 I-3.87 J-1.945
G1 X89.538 Y80.982
G2 X89.527 Y80.768 I-1.956 J0.
G3 X89.505 Y80.554 I14.48 J-1.597
X89.576 Y80.341 I0.277 J-0.026
X89.781 Y80.25 I0.206 J0.187
G1 X99.303
G3 X99.509 Y80.341 I0. J0.278
X99.58 Y80.554 I-0.206 J0.187
X99.558 Y80.768 I-14.502 J-1.383
G2 X99.546 Y80.982 I1.944 J0.214
G1 X99.514 Y82.982
G2 X99.976 Y84.927 I4.331 J0.
X101.229 Y86.484 I4.244 J-2.133
G3 X101.559 Y87.178 I-0.562 J0.694
G1 Y99.326
G2 X101.909 Y99.85 I0.568 J0.
G3 X102.259 Y100.375 I-0.219 J0.525
G1 Y110.332
G3 X101.932 Y110.949 I-0.746 J0.
G2 X100.681 Y112.312 I2.248 J3.32
X100.214 Y114.102 I3.201 J1.79
G1 Y116.102
G2 X100.434 Y117.317 I3.461 J0.
X101.03 Y118.399 I4.018 J-1.507
G3 X101.096 Y119. I-0.47 J0.356
G2 X100.76 Y119.978 I4.854 J2.216
X100.639 Y121.005 I4.306 J1.027
X100.649 Y121.31 I4.883 J0.
G3 X100.658 Y121.615 I-4.873 J0.305
X100.339 Y121.934 I-0.319 J0.
G1 X88.742
G3 X88.427 Y121.619 I0. J-0.315
X88.436 Y121.312 I4.915 J0.
G2 X88.446 Y121.005 I-4.905 J-0.307
X88.243 Y119.654 I-4.594 J0.
X87.668 Y118.413 I-4.854 J1.494
G3 X87.633 Y117.784 I0.541 J-0.345
G2 X88.063 Y115.968 I-3.75 J-1.847
X88.07 Y114.102 I-254.751 J-1.866
X87.819 Y112.799 I-3.509 J0.
X87.139 Y111.659 I-3.918 J1.567
G3 X86.825 Y110.796 I1.032 J-0.863
G1 Y86.753
G3 X87.153 Y86.135 I0.746 J0.
G2 X88.404 Y84.772 I-2.248 J-3.32
X88.87 Y82.982 I-3.201 J-1.79
G3 X88.88 Y81.402 I128.536 J0.
G2 X88.65 Y79.839 I-5.002 J-0.061
G3 X88.795 Y79.561 I0.212 J-0.067
X88.862 Y79.55 I0.067 J0.212
G1 X100.223
G3 X100.445 Y79.773 I0. J0.222
X100.435 Y79.839 I-0.222 J0.
G2 X100.204 Y81.402 I4.772 J1.502
G3 X100.214 Y82.982 I-128.527 J1.58
G2 X100.681 Y84.772 I3.668 J0.
X101.932 Y86.135 I3.499 J-1.957
G3 X102.259 Y86.753 I-0.418 J0.617
G1 Y100.375
G2 X102.587 Y100.867 I0.533 J0.
G3 X102.915 Y101.359 I-0.205 J0.492
G1 Y110.78
G3 X102.592 Y111.316 I-0.607 J0.
G2 X101.344 Y112.47 I1.552 J2.93
X100.87 Y114.102 I2.572 J1.632
G1 Y116.102
G2 X101.139 Y117.328 I2.931 J0.
X101.862 Y118.355 I3.147 J-1.45
G3 X101.923 Y118.84 I-0.275 J0.281
G2 X101.449 Y119.878 I4.068 J2.483
X101.274 Y121.005 I3.542 J1.127
X101.294 Y121.638 I10.133 J0.
G3 X101.314 Y122.27 I-10.113 J0.633
X100.994 Y122.59 I-0.319 J0.
G1 X88.086
G3 X87.771 Y122.274 I0. J-0.315
X87.791 Y121.64 I10.165 J0.
G2 X87.811 Y121.005 I-10.145 J-0.635
X87.552 Y119.614 I-3.867 J0.
X86.843 Y118.389 I-4.24 J1.635
G3 X86.822 Y117.877 I0.333 J-0.27
G2 X87.403 Y116.034 I-2.764 J-1.884
X87.415 Y114.102 I-158.365 J-1.932
X87.156 Y112.9 I-2.92 J0.
X86.46 Y111.887 I-3.172 J1.432
G3 X86.17 Y111.179 I0.717 J-0.708
G1 Y86.305
G3 X86.493 Y85.768 I0.607 J0.
G2 X87.741 Y84.614 I-1.552 J-2.93
X88.215 Y82.982 I-2.572 J-1.632
X88.199 Y81.022 I-121.54 J0.
X87.589 Y79.159 I-3.313 J0.053
G3 X87.628 Y78.926 I0.136 J-0.097
X87.725 Y78.895 I0.097 J0.136
G1 X101.359
G3 X101.527 Y79.062 I0. J0.167
X101.496 Y79.159 I-0.167 J0.
G2 X100.886 Y81.022 I2.702 J1.917
X100.87 Y82.982 I121.524 J1.96
X101.344 Y84.614 I3.046 J0.
X102.592 Y85.768 I2.8 J-1.776
G3 X102.915 Y86.305 I-0.284 J0.537
G1 Y101.359
G2 X103.207 Y101.798 I0.475 J0.
G3 X103.5 Y102.236 I-0.183 J0.439
G1 Y111.238
G3 X103.183 Y111.692 I-0.484 J0.
G2 X101.94 Y112.625 I0.929 J2.532
X101.455 Y114.102 I2.007 J1.477
G1 Y116.102
G2 X101.803 Y117.36 I2.444 J0.
X102.721 Y118.288 I2.362 J-1.418
G3 X102.802 Y118.627 I-0.129 J0.21
X102.778 Y118.66 I-0.21 J-0.129
G2 X102.103 Y119.749 I2.967 J2.592
X101.854 Y121.005 I3.042 J1.256
X101.876 Y121.93 I19.037 J0.
G3 X101.899 Y122.856 I-19.015 J0.925
X101.58 Y123.175 I-0.319 J0.
G1 X87.501
G3 X87.186 Y122.86 I0. J-0.315
X87.208 Y121.932 I19.119 J0.
G2 X87.231 Y121.005 I-19.097 J-0.927
X86.899 Y119.547 I-3.365 J0.
X86.002 Y118.351 I-3.476 J1.671
G3 X85.912 Y118.154 I0.182 J-0.202
X85.996 Y117.953 I0.271 J-0.004
G2 X86.806 Y116.113 I-1.828 J-1.903
X86.829 Y114.102 I-85.052 J-2.011
X86.564 Y113.006 I-2.392 J0.
X85.857 Y112.127 I-2.511 J1.294
G3 X85.584 Y111.546 I0.482 J-0.58
G1 Y85.846
G3 X85.902 Y85.392 I0.484 J0.
G2 X87.145 Y84.459 I-0.929 J-2.532
X87.629 Y82.982 I-2.007 J-1.477
G1 Y80.982
G2 X87.1 Y79.443 I-2.502 J0.
X85.756 Y78.524 I-2.116 J1.652
G3 X85.682 Y78.387 I0.031 J-0.105
X85.787 Y78.309 I0.105 J0.031
G1 X103.297
G3 X103.407 Y78.419 I0. J0.109
X103.329 Y78.524 I-0.109 J0.
G2 X101.985 Y79.443 I0.772 J2.571
X101.455 Y80.982 I1.972 J1.539
G1 Y82.982
G2 X101.94 Y84.459 I2.491 J0.
X103.183 Y85.392 I2.172 J-1.598
G3 X103.5 Y85.846 I-0.167 J0.454
G1 Y102.236
G2 X103.826 Y102.726 I0.53 J0.
G3 X104.152 Y103.215 I-0.204 J0.489
G1 Y111.858
G3 X103.847 Y112.2 I-0.344 J0.
G2 X102.615 Y112.82 I0.23 J1.993
X102.107 Y114.102 I1.366 J1.282
G1 Y116.102
G2 X102.644 Y117.417 I1.878 J0.
X103.933 Y118.012 I1.429 J-1.401
G3 X104.152 Y118.247 I-0.016 J0.235
G1 Y118.262
G3 X104.033 Y118.467 I-0.235 J0.
G2 X102.927 Y119.53 I1.533 J2.702
X102.506 Y121.005 I2.375 J1.475
G1 X102.551 Y123.508
G3 X102.232 Y123.827 I-0.319 J0.
G1 X86.849
G3 X86.533 Y123.512 I0. J-0.315
G1 X86.578 Y121.005
G2 X86.183 Y119.571 I-2.796 J0.
X85.135 Y118.516 I-2.65 J1.582
G3 X84.932 Y118.155 I0.219 J-0.361
G1 Y118.144
G3 X85.149 Y117.775 I0.422 J0.
G2 X86.163 Y116.078 I-0.961 J-1.725
X86.177 Y114.102 I-135.736 J-1.976
X85.907 Y113.154 I-1.797 J0.
X85.205 Y112.462 I-1.786 J1.109
G3 X84.932 Y111.978 I0.291 J-0.484
G1 Y85.227
G3 X85.237 Y84.884 I0.344 J0.
G2 X86.469 Y84.265 I-0.23 J-1.993
X86.977 Y82.982 I-1.366 J-1.282
G1 Y80.982
G2 X86.462 Y79.692 I-1.875 J0.
X85.215 Y79.078 I-1.454 J1.38
G3 X84.932 Y78.764 I0.033 J-0.314
G1 Y77.976
G3 X85.251 Y77.657 I0.319 J0.
G1 X103.833
G3 X104.152 Y77.976 I0. J0.319
G1 Y78.738
G3 X103.847 Y79.08 I-0.344 J0.
G2 X102.615 Y79.7 I0.23 J1.993
X102.107 Y80.982 I1.366 J1.282
G1 Y82.982
G2 X102.615 Y84.265 I1.873 J0.
X103.847 Y84.884 I1.462 J-1.373
G3 X104.152 Y85.227 I-0.039 J0.342
G1 Y103.215
G2 X104.518 Y103.764 I0.594 J0.
G3 X104.884 Y104.312 I-0.229 J0.548
G1 Y112.599
G3 X104.564 Y112.919 I-0.319 J0.
X104.316 Y112.911 I0. J-3.982
G2 X104.067 Y112.903 I-0.249 J3.974
X103.204 Y113.248 I0. J1.25
X102.839 Y114.102 I0.813 J0.854
G1 Y116.102
G2 X103.204 Y116.956 I1.179 J0.
X104.067 Y117.301 I0.863 J-0.905
X104.316 Y117.293 I0. J-3.982
G3 X104.564 Y117.285 I0.249 J3.974
X104.884 Y117.605 I0. J0.319
G1 Y118.528
G3 X104.571 Y119.014 I-0.534 J0.
G2 X103.611 Y119.813 I0.974 J2.144
X103.238 Y121.005 I1.714 J1.192
G1 X103.275 Y124.005
G2 X103.283 Y124.135 I1.054 J0.
G3 X103.298 Y124.263 I-15.037 J1.862
X103.233 Y124.47 I-0.263 J0.03
X103.035 Y124.559 I-0.198 J-0.176
G1 X86.05
G3 X85.852 Y124.47 I0. J-0.265
X85.787 Y124.263 I0.198 J-0.176
X85.802 Y124.135 I15.052 J1.733
G2 X85.81 Y124.005 I-1.046 J-0.13
G1 X85.847 Y121.005
G2 X85.473 Y119.813 I-2.087 J0.
X84.514 Y119.013 I-1.934 J1.346
G3 X84.201 Y118.528 I0.221 J-0.486
G1 Y117.63
G3 X84.498 Y117.252 I0.389 J0.
G2 X85.171 Y116.841 I-0.307 J-1.259
X85.446 Y116.102 I-0.854 J-0.739
G1 Y114.102
G2 X85.156 Y113.345 I-1.134 J0.
X84.453 Y112.942 I-0.96 J0.86
G3 X84.201 Y112.633 I0.063 J-0.309
G1 Y84.485
G3 X84.52 Y84.166 I0.319 J0.
X84.769 Y84.174 I0. J3.982
G2 X85.017 Y84.181 I0.249 J-3.974
X85.88 Y83.836 I0. J-1.25
X86.246 Y82.982 I-0.813 J-0.854
G1 Y80.982
G2 X85.88 Y80.128 I-1.18 J0.
X85.017 Y79.783 I-0.863 J0.905
X84.767 Y79.791 I0. J4.014
G3 X84.516 Y79.799 I-0.251 J-4.006
X84.201 Y79.484 I0. J-0.315
G1 Y77.245
G3 X84.52 Y76.926 I0.319 J0.
G1 X104.564
G3 X104.884 Y77.245 I0. J0.319
G1 Y79.48
G3 X104.564 Y79.799 I-0.319 J0.
X104.316 Y79.791 I0. J-3.982
G2 X104.067 Y79.783 I-0.249 J3.974
X103.204 Y80.129 I0. J1.25
X102.839 Y80.982 I0.813 J0.854
G1 Y82.982
G2 X103.204 Y83.836 I1.179 J0.
X104.067 Y84.181 I0.863 J-0.905
X104.316 Y84.174 I0. J-3.982
G3 X104.564 Y84.166 I0.249 J3.974
X104.884 Y84.485 I0. J0.319
G1 Y104.312
G2 X105.225 Y104.825 I0.555 J0.
G3 X105.567 Y105.337 I-0.214 J0.513
G1 Y113.395
G2 X105.707 Y113.742 I0.5 J0.
X105.36 Y113.602 I-0.347 J0.36
G1 X104.067
G2 X103.567 Y114.102 I0. J0.5
G1 Y116.102
G2 X104.067 Y116.602 I0.5 J0.
G1 X105.067
G3 X105.567 Y117.102 I0. J0.5
G1 Y119.005
G2 X105.653 Y119.505 I1.5 J0.
G1 X105.466
G2 X103.966 Y121.005 I0. J1.5
G1 Y124.005
G2 X104.618 Y125.242 I1.5 J0.
G1 X84.467
G2 X85.119 Y124.005 I-0.848 J-1.237
G1 Y121.005
G2 X83.619 Y119.505 I-1.5 J0.
G1 X83.432
G2 X83.517 Y119.005 I-1.414 J-0.5
G1 Y117.102
G3 X84.017 Y116.602 I0.5 J0.
G1 X84.217
G2 X84.717 Y116.102 I0. J-0.5
G1 Y114.102
G2 X84.217 Y113.602 I-0.5 J0.
G1 X83.725
G2 X83.375 Y113.744 I0. J0.5
X83.517 Y113.395 I-0.358 J-0.349
G1 Y83.689
G2 X83.372 Y83.338 I-0.5 J0.
X83.725 Y83.482 I0.352 J-0.355
G1 X85.017
G2 X85.517 Y82.982 I0. J-0.5
G1 Y80.982
G2 X85.017 Y80.482 I-0.5 J0.
G1 X84.017
G3 X83.517 Y79.982 I0. J-0.5
G1 Y76.742
G3 X84.017 Y76.242 I0.5 J0.
G1 X105.067
G3 X105.567 Y76.742 I0. J0.5
G1 Y79.982
G3 X105.067 Y80.482 I-0.5 J0.
G1 X104.067
G2 X103.567 Y80.982 I0. J0.5
G1 Y82.982
G2 X104.067 Y83.482 I0.5 J0.
G1 X105.36
G2 X105.709 Y83.34 I0. J-0.5
X105.567 Y83.689 I0.358 J0.349
G1 Y105.337
G3 X105.517 Y105.387 I-0.05 J0.
X105.489 Y105.378 I0. J-0.05
G1 X99.109 Y101.051
X94.371 Y89.811
X94.122 Y89.738
G3 X94.248 Y89.078 Z-1.026 I0.393 J-0.267 F333.3
X94.907 Y89.204 Z-1.052 I0.267 J0.393
X94.781 Y89.864 Z-1.078 I-0.393 J0.267
X94.122 Y89.738 Z-1.104 I-0.267 J-0.393
X94.248 Y89.078 Z-1.13 I0.393 J-0.267
X94.907 Y89.204 Z-1.156 I0.267 J0.393
X94.781 Y89.864 Z-1.182 I-0.393 J0.267
X94.122 Y89.738 Z-1.208 I-0.267 J-0.393
X94.248 Y89.078 Z-1.234 I0.393 J-0.267
X94.907 Y89.204 Z-1.261 I0.267 J0.393
X94.781 Y89.864 Z-1.287 I-0.393 J0.267
X94.122 Y89.738 Z-1.313 I-0.267 J-0.393
X94.248 Y89.078 Z-1.339 I0.393 J-0.267
X94.907 Y89.204 Z-1.365 I0.267 J0.393
X94.781 Y89.864 Z-1.391 I-0.393 J0.267
X94.122 Y89.738 Z-1.417 I-0.267 J-0.393
X94.248 Y89.078 Z-1.443 I0.393 J-0.267
X94.907 Y89.204 Z-1.469 I0.267 J0.393
X94.781 Y89.864 Z-1.495 I-0.393 J0.267
X94.122 Y89.738 Z-1.521 I-0.267 J-0.393
X94.248 Y89.078 Z-1.547 I0.393 J-0.267
X94.907 Y89.204 Z-1.573 I0.267 J0.393
X94.781 Y89.864 Z-1.599 I-0.393 J0.267
X94.122 Y89.738 Z-1.625 I-0.267 J-0.393
X94.248 Y89.078 Z-1.651 I0.393 J-0.267
X94.907 Y89.204 Z-1.677 I0.267 J0.393
X94.781 Y89.864 Z-1.703 I-0.393 J0.267
X94.122 Y89.738 Z-1.73 I-0.267 J-0.393
X94.248 Y89.078 Z-1.756 I0.393 J-0.267
X94.907 Y89.204 Z-1.782 I0.267 J0.393
X94.781 Y89.864 Z-1.808 I-0.393 J0.267
X94.122 Y89.738 Z-1.834 I-0.267 J-0.393
X94.248 Y89.078 Z-1.86 I0.393 J-0.267
X94.907 Y89.204 Z-1.886 I0.267 J0.393
X94.781 Y89.864 Z-1.912 I-0.393 J0.267
X94.122 Y89.738 Z-1.938 I-0.267 J-0.393
X94.248 Y89.078 Z-1.964 I0.393 J-0.267
X94.907 Y89.204 Z-1.99 I0.267 J0.393
X94.989 Y89.471 Z-2. I-0.393 J0.267
G1 Y107.621 F500
G3 X94.916 Y107.859 I-0.422 J0.
G2 X94.276 Y108.92 I9.151 J6.243
G3 X94.146 Y108.96 I-0.085 J-0.045
X94.095 Y108.875 I0.045 J-0.085
G1 Y89.463
G3 X94.168 Y89.225 I0.422 J0.
G2 X94.376 Y88.909 I-9.151 J-6.243
G3 X94.647 Y88.848 I0.166 J0.105
X94.708 Y88.909 I-0.105 J0.166
G2 X94.916 Y89.225 I9.359 J-5.927
G3 X94.989 Y89.463 I-0.349 J0.238
G1 Y89.471
G2 X95.27 Y89.892 I0.456 J0.
G3 X95.551 Y90.313 I-0.175 J0.421
G1 Y107.614
G3 X95.376 Y108.181 I-1.008 J0.
G2 X94.275 Y110.265 I8.691 J5.921
G3 X94.09 Y110.347 I-0.133 J-0.052
X94.009 Y110.265 I0.052 J-0.133
G2 X93.595 Y109.342 I-9.792 J3.837
G3 X93.534 Y109.087 I0.503 J-0.256
G1 Y89.47
G3 X93.709 Y88.903 I1.007 J0.
G2 X94.394 Y87.745 I-8.691 J-5.921
G3 X94.618 Y87.672 I0.149 J0.075
X94.691 Y87.745 I-0.075 J0.149
G2 X95.376 Y88.903 I9.376 J-4.762
G3 X95.551 Y89.47 I-0.833 J0.567
G1 Y90.313
G2 X95.826 Y90.725 I0.447 J0.
G3 X96.101 Y91.138 I-0.172 J0.413
G1 Y107.688
G3 X95.867 Y108.437 I-1.318 J0.
G2 X94.247 Y112.4 I8.2 J5.665
G3 X94.124 Y112.487 I-0.105 J-0.018
X94.037 Y112.4 I0.018 J-0.105
G2 X93.092 Y109.567 I-9.82 J1.702
G3 X92.984 Y109.117 I0.879 J-0.449
G1 Y89.396
G3 X93.217 Y88.647 I1.318 J0.
G2 X94.416 Y86.296 I-8.2 J-5.665
G3 X94.587 Y86.215 I0.126 J0.044
X94.668 Y86.296 I-0.044 J0.126
G2 X95.867 Y88.647 I9.399 J-3.314
G3 X96.101 Y89.396 I-1.084 J0.749
G1 Y91.138
G2 X96.329 Y91.48 I0.371 J0.
G3 X96.557 Y91.823 I-0.143 J0.342
G1 Y107.636
G3 X96.218 Y108.733 I-1.942 J0.
G2 X94.96 Y111.288 I8.286 J5.669
X94.512 Y114.102 I8.627 J2.814
X94.535 Y115.008 I18.236 J0.
G3 X94.557 Y115.913 I-18.213 J0.906
X94.238 Y116.232 I-0.319 J0.
G1 X94.042
G3 X93.727 Y115.917 I0. J-0.315
X93.75 Y115.01 I18.313 J0.
G2 X93.772 Y114.102 I-18.29 J-0.908
X93.483 Y111.864 I-8.812 J0.
X92.676 Y109.756 I-10.042 J2.638
G3 X92.527 Y109.141 I1.196 J-0.615
G1 Y89.448
G3 X92.866 Y88.352 I1.942 J0.
G2 X94.171 Y85.561 I-7.849 J-5.369
G3 X94.647 Y85.294 I0.371 J0.105
X94.914 Y85.561 I-0.105 J0.371
G2 X96.218 Y88.352 I9.153 J-2.578
G3 X96.557 Y89.448 I-1.603 J1.096
G1 Y91.823
G2 X96.922 Y92.369 I0.592 J0.
G3 X97.286 Y92.915 I-0.228 J0.546
G1 Y107.915
G3 X96.947 Y108.962 I-1.789 J0.
G2 X95.689 Y111.398 I7.515 J5.426
X95.241 Y114.102 I7.936 J2.704
X95.252 Y115.377 I72.793 J0.
X95.303 Y116.65 I28.336 J-0.496
G3 X95.224 Y116.869 I-0.292 J0.018
X95.011 Y116.961 I-0.213 J-0.2
G1 X93.273
G3 X93.06 Y116.869 I0. J-0.292
X92.981 Y116.65 I0.213 J-0.2
X93.003 Y116.376 I8.811 J0.551
G2 X93.016 Y116.102 I-2.923 J-0.274
G1 X93.044 Y114.102
G2 X92.768 Y112.008 I-8.106 J0.
X92.002 Y110.039 I-9.309 J2.49
G3 X91.799 Y109.209 I1.591 J-0.83
G1 Y89.17
G3 X92.137 Y88.122 I1.789 J0.
G2 X93.598 Y84.851 I-7.12 J-5.14
G3 X94.004 Y84.524 I0.406 J0.088
G1 X95.081
G3 X95.487 Y84.851 I0. J0.416
G2 X96.947 Y88.122 I8.58 J-1.868
G3 X97.286 Y89.17 I-1.451 J1.047
G1 Y92.915
G2 X97.642 Y93.45 I0.58 J0.
G3 X97.999 Y93.985 I-0.223 J0.535
G1 Y108.2
G3 X97.661 Y109.197 I-1.64 J0.
G2 X96.403 Y111.509 I6.761 J5.177
X95.954 Y114.102 I7.258 J2.593
X95.962 Y115.739 I164.734 J0.
X96.099 Y117.371 I11.074 J-0.11
G3 X95.882 Y117.671 I-0.259 J0.041
X95.841 Y117.674 I-0.041 J-0.259
G1 X92.444
G3 X92.182 Y117.412 I0. J-0.262
X92.185 Y117.371 I0.262 J0.
G2 X92.34 Y113.794 I-15.474 J-2.464
X91.36 Y110.35 I-8.718 J0.621
G3 X91.085 Y109.237 I2.12 J-1.114
G1 Y88.884
G3 X91.423 Y87.887 I1.64 J0.
G2 X93.003 Y84.133 I-6.406 J-4.905
G3 X93.375 Y83.81 I0.373 J0.054
G1 X95.709
G3 X96.082 Y84.133 I0. J0.376
G2 X97.661 Y87.887 I7.985 J-1.151
G3 X97.999 Y88.884 I-1.302 J0.997
G1 Y93.985
G2 X98.347 Y94.506 I0.565 J0.
G3 X98.694 Y95.027 I-0.217 J0.521
G1 Y108.492
G3 X98.357 Y109.438 I-1.494 J0.
G2 X97.1 Y111.622 I6.025 J4.922
X96.649 Y114.102 I6.598 J2.48
X96.671 Y116.099 I89.92 J0.
X96.963 Y118.074 I8.052 J-0.179
G3 X96.801 Y118.36 I-0.224 J0.062
X96.738 Y118.369 I-0.062 J-0.224
G1 X91.931
G3 X91.447 Y118.035 I0. J-0.517
G1 X91.426 Y117.979
G3 X91.408 Y117.733 I0.394 J-0.153
G2 X91.623 Y115.924 I-8.503 J-1.929
X91.635 Y114.102 I-132.943 J-1.822
X91.383 Y112.272 I-6.758 J0.
X90.685 Y110.561 I-7.863 J2.212
G3 X90.39 Y109.411 I2.101 J-1.15
G1 Y88.592
G3 X90.727 Y87.647 I1.494 J0.
G2 X92.377 Y83.433 I-5.71 J-4.664
G3 X92.714 Y83.115 I0.337 J0.021
G1 X96.37
G3 X96.708 Y83.433 I0. J0.338
G2 X98.357 Y87.647 I7.359 J-0.45
G3 X98.694 Y88.592 I-1.157 J0.945
G1 Y95.027
G2 X99.03 Y95.531 I0.546 J0.
G3 X99.366 Y96.036 I-0.21 J0.504
G1 Y108.79
G3 X99.03 Y109.682 I-1.353 J0.
G2 X97.773 Y111.737 I5.314 J4.662
X97.321 Y114.102 I5.959 J2.365
X97.38 Y116.46 I47.275 J0.
X97.914 Y118.757 I6.625 J-0.331
G3 X97.808 Y119.024 I-0.187 J0.081
X97.728 Y119.041 I-0.081 J-0.187
G1 X91.419
G3 X90.97 Y118.711 I0. J-0.471
G2 X90.791 Y118.2 I-7.338 J2.29
G3 X90.747 Y117.607 I0.938 J-0.367
G2 X90.955 Y115.86 I-7.929 J-1.827
X90.963 Y114.102 I-176.96 J-1.758
X90.716 Y112.378 I-6.133 J0.
X90.034 Y110.775 I-7.142 J2.092
G3 X89.718 Y109.586 I2.079 J-1.189
G1 Y88.294
G3 X90.054 Y87.402 I1.353 J0.
G2 X91.725 Y82.982 I-5.058 J-4.438
X91.722 Y82.873 I-1.758 J0.
G3 X91.718 Y82.763 I1.755 J-0.11
X92.038 Y82.443 I0.319 J0.
G1 X97.047
G3 X97.366 Y82.763 I0. J0.319
X97.363 Y82.873 I-1.758 J0.
G2 X97.359 Y82.982 I1.755 J0.11
X99.03 Y87.402 I6.68 J0.
G3 X99.366 Y88.294 I-1.017 J0.892
G1 Y96.036
G2 X99.732 Y96.585 I0.595 J0.
G3 X100.098 Y97.134 I-0.229 J0.549
G1 Y109.135
G3 X99.764 Y109.966 I-1.2 J0.
G2 X98.508 Y111.868 I4.539 J4.362
X98.053 Y114.102 I5.262 J2.234
X98.112 Y116.428 I46.017 J0.
X98.685 Y118.683 I5.897 J-0.298
G3 X98.734 Y119.205 I-0.68 J0.326
G2 X98.674 Y119.447 I6.46 J1.731
G3 X98.264 Y119.773 I-0.409 J-0.093
G1 X90.822
G3 X90.411 Y119.445 I0. J-0.422
G2 X90.103 Y118.451 I-6.675 J1.524
G3 X90.03 Y117.459 I1.552 J-0.613
G2 X90.227 Y115.786 I-7.33 J-1.711
X90.231 Y114.102 I-329.706 J-1.684
X89.973 Y112.44 I-5.49 J0.
X89.264 Y110.914 I-6.286 J1.997
G3 X88.986 Y109.956 I1.518 J-0.959
G1 Y87.95
G3 X89.321 Y87.118 I1.2 J0.
G2 X90.569 Y85.215 I-4.456 J-4.283
X91.016 Y82.982 I-5.352 J-2.232
X91.001 Y82.506 I-7.622 J0.
G3 X90.986 Y82.031 I7.607 J-0.476
X91.306 Y81.711 I0.319 J0.
G1 X97.779
G3 X98.098 Y82.031 I0. J0.319
X98.083 Y82.506 I-7.622 J0.
G2 X98.068 Y82.982 I7.607 J0.476
X98.515 Y85.215 I5.799 J0.
X99.764 Y87.118 I5.705 J-2.379
G3 X100.098 Y87.95 I-0.865 J0.831
G1 Y97.134
G2 X100.464 Y97.683 I0.595 J0.
G3 X100.83 Y98.232 I-0.229 J0.549
G1 Y109.505
G3 X100.497 Y110.271 I-1.046 J0.
G2 X99.243 Y112.008 I3.763 J4.039
X98.785 Y114.102 I4.565 J2.094
X98.832 Y116.314 I52.018 J0.
X99.389 Y118.456 I5.257 J-0.224
G3 X99.469 Y119.294 I-1.034 J0.52
G2 X99.283 Y120.186 I6.035 J1.719
G3 X98.918 Y120.505 I-0.366 J-0.049
G1 X90.167
G3 X89.801 Y120.186 I0. J-0.369
G2 X89.305 Y118.443 I-6.249 J0.838
G3 X89.244 Y117.571 I1.148 J-0.519
G2 X89.499 Y115.788 I-6.102 J-1.783
G1 Y114.102
G2 X89.248 Y112.569 I-4.809 J0.
X88.56 Y111.176 I-5.502 J1.85
G3 X88.254 Y110.173 I1.489 J-1.003
G1 Y87.579
G3 X88.587 Y86.814 I1.046 J0.
G2 X89.842 Y85.076 I-3.763 J-4.039
X90.299 Y82.982 I-4.565 J-2.094
X90.276 Y82.14 I-15.767 J0.
G3 X90.254 Y81.298 I15.744 J-0.842
X90.573 Y80.979 I0.319 J0.
G1 X98.511
G3 X98.83 Y81.298 I0. J0.319
X98.808 Y82.14 I-15.767 J0.
G2 X98.785 Y82.982 I15.744 J0.842
X99.243 Y85.076 I5.022 J0.
X100.497 Y86.814 I5.018 J-2.302
G3 X100.83 Y87.579 I-0.713 J0.765
G1 Y98.232
G2 X101.195 Y98.779 I0.592 J0.
G3 X101.559 Y99.326 I-0.228 J0.547
G1 Y109.907
G3 X101.229 Y110.6 I-0.893 J0.
G2 X99.976 Y112.157 I2.99 J3.69
X99.514 Y114.102 I3.87 J1.945
X99.566 Y116.314 I47.95 J0.
X100.208 Y118.431 I4.494 J-0.208
G3 X100.28 Y119.15 I-0.721 J0.435
G2 X99.959 Y120.919 I5.217 J1.861
G3 X99.639 Y121.234 I-0.32 J-0.005
G1 X89.446
G3 X89.126 Y120.919 I0. J-0.32
G2 X88.488 Y118.431 I-5.529 J0.091
G3 X88.439 Y117.681 I0.81 J-0.429
G2 X88.765 Y115.906 I-4.818 J-1.802
X88.77 Y114.102 I-341.547 J-1.804
X88.51 Y112.655 I-4.159 J0.
X87.801 Y111.367 I-4.665 J1.731
G3 X87.525 Y110.551 I1.069 J-0.816
G1 Y87.178
G3 X87.856 Y86.484 I0.893 J0.
G2 X89.109 Y84.927 I-2.99 J-3.69
X89.57 Y82.982 I-3.87 J-1.945
G1 X89.538 Y80.982
G2 X89.527 Y80.768 I-1.956 J0.
G3 X89.505 Y80.554 I14.48 J-1.597
X89.576 Y80.341 I0.277 J-0.026
X89.781 Y80.25 I0.206 J0.187
G1 X99.303
G3 X99.509 Y80.341 I0. J0.278
X99.58 Y80.554 I-0.206 J0.187
X99.558 Y80.768 I-14.502 J-1.383
G2 X99.546 Y80.982 I1.944 J0.214
G1 X99.514 Y82.982
G2 X99.976 Y84.927 I4.331 J0.
X101.229 Y86.484 I4.244 J-2.133
G3 X101.559 Y87.178 I-0.562 J0.694
G1 Y99.326
G2 X101.909 Y99.85 I0.568 J0.
G3 X102.259 Y100.375 I-0.219 J0.525
G1 Y110.332
G3 X101.932 Y110.949 I-0.746 J0.
G2 X100.681 Y112.312 I2.248 J3.32
X100.214 Y114.102 I3.201 J1.79
G1 Y116.102
G2 X100.434 Y117.317 I3.461 J0.
X101.03 Y118.399 I4.018 J-1.507
G3 X101.096 Y119. I-0.47 J0.356
G2 X100.76 Y119.978 I4.854 J2.216
X100.639 Y121.005 I4.306 J1.027
X100.649 Y121.31 I4.883 J0.
G3 X100.658 Y121.615 I-4.873 J0.305
X100.339 Y121.934 I-0.319 J0.
G1 X88.742
G3 X88.427 Y121.619 I0. J-0.315
X88.436 Y121.312 I4.915 J0.
G2 X88.446 Y121.005 I-4.905 J-0.307
X88.243 Y119.654 I-4.594 J0.
X87.668 Y118.413 I-4.854 J1.494
G3 X87.633 Y117.784 I0.541 J-0.345
G2 X88.063 Y115.968 I-3.75 J-1.847
X88.07 Y114.102 I-254.751 J-1.866
X87.819 Y112.799 I-3.509 J0.
X87.139 Y111.659 I-3.918 J1.567
G3 X86.825 Y110.796 I1.032 J-0.863
G1 Y86.753
G3 X87.153 Y86.135 I0.746 J0.
G2 X88.404 Y84.772 I-2.248 J-3.32
X88.87 Y82.982 I-3.201 J-1.79
G3 X88.88 Y81.402 I128.536 J0.
G2 X88.65 Y79.839 I-5.002 J-0.061
G3 X88.795 Y79.561 I0.212 J-0.067
X88.862 Y79.55 I0.067 J0.212
G1 X100.223
G3 X100.445 Y79.773 I0. J0.222
X100.435 Y79.839 I-0.222 J0.
G2 X100.204 Y81.402 I4.772 J1.502
G3 X100.214 Y82.982 I-128.527 J1.58
G2 X100.681 Y84.772 I3.668 J0.
X101.932 Y86.135 I3.499 J-1.957
G3 X102.259 Y86.753 I-0.418 J0.617
G1 Y100.375
G2 X102.587 Y100.867 I0.533 J0.
G3 X102.915 Y101.359 I-0.205 J0.492
G1 Y110.78
G3 X102.592 Y111.316 I-0.607 J0.
G2 X101.344 Y112.47 I1.552 J2.93
X100.87 Y114.102 I2.572 J1.632
G1 Y116.102
G2 X101.139 Y117.328 I2.931 J0.
X101.862 Y118.355 I3.147 J-1.45
G3 X101.923 Y118.84 I-0.275 J0.281
G2 X101.449 Y119.878 I4.068 J2.483
X101.274 Y121.005 I3.542 J1.127
X101.294 Y121.638 I10.133 J0.
G3 X101.314 Y122.27 I-10.113 J0.633
X100.994 Y122.59 I-0.319 J0.
G1 X88.086
G3 X87.771 Y122.274 I0. J-0.315
X87.791 Y121.64 I10.165 J0.
G2 X87.811 Y121.005 I-10.145 J-0.635
X87.552 Y119.614 I-3.867 J0.
X86.843 Y118.389 I-4.24 J1.635
G3 X86.822 Y117.877 I0.333 J-0.27
G2 X87.403 Y116.034 I-2.764 J-1.884
X87.415 Y114.102 I-158.365 J-1.932
X87.156 Y112.9 I-2.92 J0.
X86.46 Y111.887 I-3.172 J1.432
G3 X86.17 Y111.179 I0.717 J-0.708
G1 Y86.305
G3 X86.493 Y85.768 I0.607 J0.
G2 X87.741 Y84.614 I-1.552 J-2.93
X88.215 Y82.982 I-2.572 J-1.632
X88.199 Y81.022 I-121.54 J0.
X87.589 Y79.159 I-3.313 J0.053
G3 X87.628 Y78.926 I0.136 J-0.097
X87.725 Y78.895 I0.097 J0.136
G1 X101.359
G3 X101.527 Y79.062 I0. J0.167
X101.496 Y79.159 I-0.167 J0.
G2 X100.886 Y81.022 I2.702 J1.917
X100.87 Y82.982 I121.524 J1.96
X101.344 Y84.614 I3.046 J0.
X102.592 Y85.768 I2.8 J-1.776
G3 X102.915 Y86.305 I-0.284 J0.537
G1 Y101.359
G2 X103.207 Y101.798 I0.475 J0.
G3 X103.5 Y102.236 I-0.183 J0.439
G1 Y111.238
G3 X103.183 Y111.692 I-0.484 J0.
G2 X101.94 Y112.625 I0.929 J2.532
X101.455 Y114.102 I2.007 J1.477
G1 Y116.102
G2 X101.803 Y117.36 I2.444 J0.
X102.721 Y118.288 I2.362 J-1.418
G3 X102.802 Y118.627 I-0.129 J0.21
X102.778 Y118.66 I-0.21 J-0.129
G2 X102.103 Y119.749 I2.967 J2.592
X101.854 Y121.005 I3.042 J1.256
X101.876 Y121.93 I19.037 J0.
G3 X101.899 Y122.856 I-19.015 J0.925
X101.58 Y123.175 I-0.319 J0.
G1 X87.501
G3 X87.186 Y122.86 I0. J-0.315
X87.208 Y121.932 I19.119 J0.
G2 X87.231 Y121.005 I-19.097 J-0.927
X86.899 Y119.547 I-3.365 J0.
X86.002 Y118.351 I-3.476 J1.671
G3 X85.912 Y118.154 I0.182 J-0.202
X85.996 Y117.953 I0.271 J-0.004
G2 X86.806 Y116.113 I-1.828 J-1.903
X86.829 Y114.102 I-85.052 J-2.011
X86.564 Y113.006 I-2.392 J0.
X85.857 Y112.127 I-2.511 J1.294
G3 X85.584 Y111.546 I0.482 J-0.58
G1 Y85.846
G3 X85.902 Y85.392 I0.484 J0.
G2 X87.145 Y84.459 I-0.929 J-2.532
X87.629 Y82.982 I-2.007 J-1.477
G1 Y80.982
G2 X87.1 Y79.443 I-2.502 J0.
X85.756 Y78.524 I-2.116 J1.652
G3 X85.682 Y78.387 I0.031 J-0.105
X85.787 Y78.309 I0.105 J0.031
G1 X103.297
G3 X103.407 Y78.419 I0. J0.109
X103.329 Y78.524 I-0.109 J0.
G2 X101.985 Y79.443 I0.772 J2.571
X101.455 Y80.982 I1.972 J1.539
G1 Y82.982
G2 X101.94 Y84.459 I2.491 J0.
X103.183 Y85.392 I2.172 J-1.598
G3 X103.5 Y85.846 I-0.167 J0.454
G1 Y102.236
G2 X103.826 Y102.726 I0.53 J0.
G3 X104.152 Y103.215 I-0.204 J0.489
G1 Y111.858
G3 X103.847 Y112.2 I-0.344 J0.
G2 X102.615 Y112.82 I0.23 J1.993
X102.107 Y114.102 I1.366 J1.282
G1 Y116.102
G2 X102.644 Y117.417 I1.878 J0.
X103.933 Y118.012 I1.429 J-1.401
G3 X104.152 Y118.247 I-0.016 J0.235
G1 Y118.262
G3 X104.033 Y118.467 I-0.235 J0.
G2 X102.927 Y119.53 I1.533 J2.702
X102.506 Y121.005 I2.375 J1.475
G1 X102.551 Y123.508
G3 X102.232 Y123.827 I-0.319 J0.
G1 X86.849
G3 X86.533 Y123.512 I0. J-0.315
G1 X86.578 Y121.005
G2 X86.183 Y119.571 I-2.796 J0.
X85.135 Y118.516 I-2.65 J1.582
G3 X84.932 Y118.155 I0.219 J-0.361
G1 Y118.144
G3 X85.149 Y117.775 I0.422 J0.
G2 X86.163 Y116.078 I-0.961 J-1.725
X86.177 Y114.102 I-135.736 J-1.976
X85.907 Y113.154 I-1.797 J0.
X85.205 Y112.462 I-1.786 J1.109
G3 X84.932 Y111.978 I0.291 J-0.484
G1 Y85.227
G3 X85.237 Y84.884 I0.344 J0.
G2 X86.469 Y84.265 I-0.23 J-1.993
X86.977 Y82.982 I-1.366 J-1.282
G1 Y80.982
G2 X86.462 Y79.692 I-1.875 J0.
X85.215 Y79.078 I-1.454 J1.38
G3 X84.932 Y78.764 I0.033 J-0.314
G1 Y77.976
G3 X85.251 Y77.657 I0.319 J0.
G1 X103.833
G3 X104.152 Y77.976 I0. J0.319
G1 Y78.738
G3 X103.847 Y79.08 I-0.344 J0.
G2 X102.615 Y79.7 I0.23 J1.993
X102.107 Y80.982 I1.366 J1.282
G1 Y82.982
G2 X102.615 Y84.265 I1.873 J0.
X103.847 Y84.884 I1.462 J-1.373
G3 X104.152 Y85.227 I-0.039 J0.342
G1 Y103.215
G2 X104.518 Y103.764 I0.594 J0.
G3 X104.884 Y104.312 I-0.229 J0.548
G1 Y112.599
G3 X104.564 Y112.919 I-0.319 J0.
X104.316 Y112.911 I0. J-3.982
G2 X104.067 Y112.903 I-0.249 J3.974
X103.204 Y113.248 I0. J1.25
X102.839 Y114.102 I0.813 J0.854
G1 Y116.102
G2 X103.204 Y116.956 I1.179 J0.
X104.067 Y117.301 I0.863 J-0.905
X104.316 Y117.293 I0. J-3.982
G3 X104.564 Y117.285 I0.249 J3.974
X104.884 Y117.605 I0. J0.319
G1 Y118.528
G3 X104.571 Y119.014 I-0.534 J0.
G2 X103.611 Y119.813 I0.974 J2.144
X103.238 Y121.005 I1.714 J1.192
G1 X103.275 Y124.005
G2 X103.283 Y124.135 I1.054 J0.
G3 X103.298 Y124.263 I-15.037 J1.862
X103.233 Y124.47 I-0.263 J0.03
X103.035 Y124.559 I-0.198 J-0.176
G1 X86.05
G3 X85.852 Y124.47 I0. J-0.265
X85.787 Y124.263 I0.198 J-0.176
X85.802 Y124.135 I15.052 J1.733
G2 X85.81 Y124.005 I-1.046 J-0.13
G1 X85.847 Y121.005
G2 X85.473 Y119.813 I-2.087 J0.
X84.514 Y119.013 I-1.934 J1.346
G3 X84.201 Y118.528 I0.221 J-0.486
G1 Y117.63
G3 X84.498 Y117.252 I0.389 J0.
G2 X85.171 Y116.841 I-0.307 J-1.259
X85.446 Y116.102 I-0.854 J-0.739
G1 Y114.102
G2 X85.156 Y113.345 I-1.134 J0.
X84.453 Y112.942 I-0.96 J0.86
G3 X84.201 Y112.633 I0.063 J-0.309
G1 Y84.485
G3 X84.52 Y84.166 I0.319 J0.
X84.769 Y84.174 I0. J3.982
G2 X85.017 Y84.181 I0.249 J-3.974
X85.88 Y83.836 I0. J-1.25
X86.246 Y82.982 I-0.813 J-0.854
G1 Y80.982
G2 X85.88 Y80.128 I-1.18 J0.
X85.017 Y79.783 I-0.863 J0.905
X84.767 Y79.791 I0. J4.014
G3 X84.516 Y79.799 I-0.251 J-4.006
X84.201 Y79.484 I0. J-0.315
G1 Y77.245
G3 X84.52 Y76.926 I0.319 J0.
G1 X104.564
G3 X104.884 Y77.245 I0. J0.319
G1 Y79.48
G3 X104.564 Y79.799 I-0.319 J0.
X104.316 Y79.791 I0. J-3.982
G2 X104.067 Y79.783 I-0.249 J3.974
X103.204 Y80.129 I0. J1.25
X102.839 Y80.982 I0.813 J0.854
G1 Y82.982
G2 X103.204 Y83.836 I1.179 J0.
X104.067 Y84.181 I0.863 J-0.905
X104.316 Y84.174 I0. J-3.982
G3 X104.564 Y84.166 I0.249 J3.974
X104.884 Y84.485 I0. J0.319
G1 Y104.312
G2 X105.225 Y104.825 I0.555 J0.
G3 X105.567 Y105.337 I-0.214 J0.513
G1 Y113.395
G2 X105.707 Y113.742 I0.5 J0.
X105.36 Y113.602 I-0.347 J0.36
G1 X104.067
G2 X103.567 Y114.102 I0. J0.5
G1 Y116.102
G2 X104.067 Y116.602 I0.5 J0.
G1 X105.067
G3 X105.567 Y117.102 I0. J0.5
G1 Y119.005
G2 X105.653 Y119.505 I1.5 J0.
G1 X105.466
G2 X103.966 Y121.005 I0. J1.5
G1 Y124.005
G2 X104.618 Y125.242 I1.5 J0.
G1 X84.467
G2 X85.119 Y124.005 I-0.848 J-1.237
G1 Y121.005
G2 X83.619 Y119.505 I-1.5 J0.
G1 X83.432
G2 X83.517 Y119.005 I-1.414 J-0.5
G1 Y117.102
G3 X84.017 Y116.602 I0.5 J0.
G1 X84.217
G2 X84.717 Y116.102 I0. J-0.5
G1 Y114.102
G2 X84.217 Y113.602 I-0.5 J0.
G1 X83.725
G2 X83.375 Y113.744 I0. J0.5
X83.517 Y113.395 I-0.358 J-0.349
G1 Y83.689
G2 X83.372 Y83.338 I-0.5 J0.
X83.725 Y83.482 I0.352 J-0.355
G1 X85.017
G2 X85.517 Y82.982 I0. J-0.5
G1 Y80.982
G2 X85.017 Y80.482 I-0.5 J0.
G1 X84.017
G3 X83.517 Y79.982 I0. J-0.5
G1 Y76.742
G3 X84.017 Y76.242 I0.5 J0.
G1 X105.067
G3 X105.567 Y76.742 I0. J0.5
G1 Y79.982
G3 X105.067 Y80.482 I-0.5 J0.
G1 X104.067
G2 X103.567 Y80.982 I0. J0.5
G1 Y82.982
G2 X104.067 Y83.482 I0.5 J0.
G1 X105.36
G2 X105.709 Y83.34 I0. J-0.5
X105.567 Y83.689 I0.358 J0.349
G1 Y105.337
G3 X105.517 Y105.387 I-0.05 J0.
X105.489 Y105.378 I0. J-0.05
G1 X99.109 Y101.051
X94.371 Y89.811
X94.122 Y89.738
G3 X94.248 Y89.078 Z-2.026 I0.393 J-0.267 F333.3
X94.907 Y89.204 Z-2.052 I0.267 J0.393
X94.781 Y89.864 Z-2.078 I-0.393 J0.267
X94.122 Y89.738 Z-2.104 I-0.267 J-0.393
X94.248 Y89.078 Z-2.13 I0.393 J-0.267
X94.907 Y89.204 Z-2.156 I0.267 J0.393
X94.781 Y89.864 Z-2.182 I-0.393 J0.267
X94.122 Y89.738 Z-2.208 I-0.267 J-0.393
X94.248 Y89.078 Z-2.234 I0.393 J-0.267
X94.907 Y89.204 Z-2.261 I0.267 J0.393
X94.781 Y89.864 Z-2.287 I-0.393 J0.267
X94.122 Y89.738 Z-2.313 I-0.267 J-0.393
X94.248 Y89.078 Z-2.339 I0.393 J-0.267
X94.907 Y89.204 Z-2.365 I0.267 J0.393
X94.781 Y89.864 Z-2.391 I-0.393 J0.267
X94.122 Y89.738 Z-2.417 I-0.267 J-0.393
X94.248 Y89.078 Z-2.443 I0.393 J-0.267
X94.907 Y89.204 Z-2.469 I0.267 J0.393
X94.781 Y89.864 Z-2.495 I-0.393 J0.267
X94.122 Y89.738 Z-2.521 I-0.267 J-0.393
X94.248 Y89.078 Z-2.547 I0.393 J-0.267
X94.907 Y89.204 Z-2.573 I0.267 J0.393
X94.781 Y89.864 Z-2.599 I-0.393 J0.267
X94.122 Y89.738 Z-2.625 I-0.267 J-0.393
X94.248 Y89.078 Z-2.651 I0.393 J-0.267
X94.907 Y89.204 Z-2.677 I0.267 J0.393
X94.781 Y89.864 Z-2.703 I-0.393 J0.267
X94.122 Y89.738 Z-2.73 I-0.267 J-0.393
X94.248 Y89.078 Z-2.756 I0.393 J-0.267
X94.907 Y89.204 Z-2.782 I0.267 J0.393
X94.781 Y89.864 Z-2.808 I-0.393 J0.267
X94.122 Y89.738 Z-2.834 I-0.267 J-0.393
X94.248 Y89.078 Z-2.86 I0.393 J-0.267
X94.907 Y89.204 Z-2.886 I0.267 J0.393
X94.781 Y89.864 Z-2.912 I-0.393 J0.267
X94.122 Y89.738 Z-2.938 I-0.267 J-0.393
X94.248 Y89.078 Z-2.964 I0.393 J-0.267
X94.907 Y89.204 Z-2.99 I0.267 J0.393
X94.989 Y89.471 Z-3. I-0.393 J0.267
G1 Y107.621 F500
G3 X94.916 Y107.859 I-0.422 J0.
G2 X94.276 Y108.92 I9.151 J6.243
G3 X94.146 Y108.96 I-0.085 J-0.045
X94.095 Y108.875 I0.045 J-0.085
G1 Y89.463
G3 X94.168 Y89.225 I0.422 J0.
G2 X94.376 Y88.909 I-9.151 J-6.243
G3 X94.647 Y88.848 I0.166 J0.105
X94.708 Y88.909 I-0.105 J0.166
G2 X94.916 Y89.225 I9.359 J-5.927
G3 X94.989 Y89.463 I-0.349 J0.238
G1 Y89.471
G2 X95.27 Y89.892 I0.456 J0.
G3 X95.551 Y90.313 I-0.175 J0.421
G1 Y107.614
G3 X95.376 Y108.181 I-1.008 J0.
G2 X94.275 Y110.265 I8.691 J5.921
G3 X94.09 Y110.347 I-0.133 J-0.052
X94.009 Y110.265 I0.052 J-0.133
G2 X93.595 Y109.342 I-9.792 J3.837
G3 X93.534 Y109.087 I0.503 J-0.256
G1 Y89.47
G3 X93.709 Y88.903 I1.007 J0.
G2 X94.394 Y87.745 I-8.691 J-5.921
G3 X94.618 Y87.672 I0.149 J0.075
X94.691 Y87.745 I-0.075 J0.149
G2 X95.376 Y88.903 I9.376 J-4.762
G3 X95.551 Y89.47 I-0.833 J0.567
G1 Y90.313
G2 X95.826 Y90.725 I0.447 J0.
G3 X96.101 Y91.138 I-0.172 J0.413
G1 Y107.688
G3 X95.867 Y108.437 I-1.318 J0.
G2 X94.247 Y112.4 I8.2 J5.665
G3 X94.124 Y112.487 I-0.105 J-0.018
X94.037 Y112.4 I0.018 J-0.105
G2 X93.092 Y109.567 I-9.82 J1.702
G3 X92.984 Y109.117 I0.879 J-0.449
G1 Y89.396
G3 X93.217 Y88.647 I1.318 J0.
G2 X94.416 Y86.296 I-8.2 J-5.665
G3 X94.587 Y86.215 I0.126 J0.044
X94.668 Y86.296 I-0.044 J0.126
G2 X95.867 Y88.647 I9.399 J-3.314
G3 X96.101 Y89.396 I-1.084 J0.749
G1 Y91.138
G2 X96.329 Y91.48 I0.371 J0.
G3 X96.557 Y91.823 I-0.143 J0.342
G1 Y107.636
G3 X96.218 Y108.733 I-1.942 J0.
G2 X94.96 Y111.288 I8.286 J5.669
X94.512 Y114.102 I8.627 J2.814
X94.535 Y115.008 I18.236 J0.
G3 X94.557 Y115.913 I-18.213 J0.906
X94.238 Y116.232 I-0.319 J0.
G1 X94.042
G3 X93.727 Y115.917 I0. J-0.315
X93.75 Y115.01 I18.313 J0.
G2 X93.772 Y114.102 I-18.29 J-0.908
X93.483 Y111.864 I-8.812 J0.
X92.676 Y109.756 I-10.042 J2.638
G3 X92.527 Y109.141 I1.196 J-0.615
G1 Y89.448
G3 X92.866 Y88.352 I1.942 J0.
G2 X94.171 Y85.561 I-7.849 J-5.369
G3 X94.647 Y85.294 I0.371 J0.105
X94.914 Y85.561 I-0.105 J0.371
G2 X96.218 Y88.352 I9.153 J-2.578
G3 X96.557 Y89.448 I-1.603 J1.096
G1 Y91.823
G2 X96.922 Y92.369 I0.592 J0.
G3 X97.286 Y92.915 I-0.228 J0.546
G1 Y107.915
G3 X96.947 Y108.962 I-1.789 J0.
G2 X95.689 Y111.398 I7.515 J5.426
X95.241 Y114.102 I7.936 J2.704
X95.252 Y115.377 I72.793 J0.
X95.303 Y116.65 I28.336 J-0.496
G3 X95.224 Y116.869 I-0.292 J0.018
X95.011 Y116.961 I-0.213 J-0.2
G1 X93.273
G3 X93.06 Y116.869 I0. J-0.292
X92.981 Y116.65 I0.213 J-0.2
X93.003 Y116.376 I8.811 J0.551
G2 X93.016 Y116.102 I-2.923 J-0.274
G1 X93.044 Y114.102
G2 X92.768 Y112.008 I-8.106 J0.
X92.002 Y110.039 I-9.309 J2.49
G3 X91.799 Y109.209 I1.591 J-0.83
G1 Y89.17
G3 X92.137 Y88.122 I1.789 J0.
G2 X93.598 Y84.851 I-7.12 J-5.14
G3 X94.004 Y84.524 I0.406 J0.088
G1 X95.081
G3 X95.487 Y84.851 I0. J0.416
G2 X96.947 Y88.122 I8.58 J-1.868
G3 X97.286 Y89.17 I-1.451 J1.047
G1 Y92.915
G2 X97.642 Y93.45 I0.58 J0.
G3 X97.999 Y93.985 I-0.223 J0.535
G1 Y108.2
G3 X97.661 Y109.197 I-1.64 J0.
G2 X96.403 Y111.509 I6.761 J5.177
X95.954 Y114.102 I7.258 J2.593
X95.962 Y115.739 I164.734 J0.
X96.099 Y117.371 I11.074 J-0.11
G3 X95.882 Y117.671 I-0.259 J0.041
X95.841 Y117.674 I-0.041 J-0.259
G1 X92.444
G3 X92.182 Y117.412 I0. J-0.262
X92.185 Y117.371 I0.262 J0.
G2 X92.34 Y113.794 I-15.474 J-2.464
X91.36 Y110.35 I-8.718 J0.621
G3 X91.085 Y109.237 I2.12 J-1.114
G1 Y88.884
G3 X91.423 Y87.887 I1.64 J0.
G2 X93.003 Y84.133 I-6.406 J-4.905
G3 X93.375 Y83.81 I0.373 J0.054
G1 X95.709
G3 X96.082 Y84.133 I0. J0.376
G2 X97.661 Y87.887 I7.985 J-1.151
G3 X97.999 Y88.884 I-1.302 J0.997
G1 Y93.985
G2 X98.347 Y94.506 I0.565 J0.
G3 X98.694 Y95.027 I-0.217 J0.521
G1 Y108.492
G3 X98.357 Y109.438 I-1.494 J0.
G2 X97.1 Y111.622 I6.025 J4.922
X96.649 Y114.102 I6.598 J2.48
X96.671 Y116.099 I89.92 J0.
X96.963 Y118.074 I8.052 J-0.179
G3 X96.801 Y118.36 I-0.224 J0.062
X96.738 Y118.369 I-0.062 J-0.224
G1 X91.931
G3 X91.447 Y118.035 I0. J-0.517
G1 X91.426 Y117.979
G3 X91.408 Y117.733 I0.394 J-0.153
G2 X91.623 Y115.924 I-8.503 J-1.929
X91.635 Y114.102 I-132.943 J-1.822
X91.383 Y112.272 I-6.758 J0.
X90.685 Y110.561 I-7.863 J2.212
G3 X90.39 Y109.411 I2.101 J-1.15
G1 Y88.592
G3 X90.727 Y87.647 I1.494 J0.
G2 X92.377 Y83.433 I-5.71 J-4.664
G3 X92.714 Y83.115 I0.337 J0.021
G1 X96.37
G3 X96.708 Y83.433 I0. J0.338
G2 X98.357 Y87.647 I7.359 J-0.45
G3 X98.694 Y88.592 I-1.157 J0.945
G1 Y95.027
G2 X99.03 Y95.531 I0.546 J0.
G3 X99.366 Y96.036 I-0.21 J0.504
G1 Y108.79
G3 X99.03 Y109.682 I-1.353 J0.
G2 X97.773 Y111.737 I5.314 J4.662
X97.321 Y114.102 I5.959 J2.365
X97.38 Y116.46 I47.275 J0.
X97.914 Y118.757 I6.625 J-0.331
G3 X97.808 Y119.024 I-0.187 J0.081
X97.728 Y119.041 I-0.081 J-0.187
G1 X91.419
G3 X90.97 Y118.711 I0. J-0.471
G2 X90.791 Y118.2 I-7.338 J2.29
G3 X90.747 Y117.607 I0.938 J-0.367
G2 X90.955 Y115.86 I-7.929 J-1.827
X90.963 Y114.102 I-176.96 J-1.758
X90.716 Y112.378 I-6.133 J0.
X90.034 Y110.775 I-7.142 J2.092
G3 X89.718 Y109.586 I2.079 J-1.189
G1 Y88.294
G3 X90.054 Y87.402 I1.353 J0.
G2 X91.725 Y82.982 I-5.058 J-4.438
X91.722 Y82.873 I-1.758 J0.
G3 X91.718 Y82.763 I1.755 J-0.11
X92.038 Y82.443 I0.319 J0.
G1 X97.047
G3 X97.366 Y82.763 I0. J0.319
X97.363 Y82.873 I-1.758 J0.
G2 X97.359 Y82.982 I1.755 J0.11
X99.03 Y87.402 I6.68 J0.
G3 X99.366 Y88.294 I-1.017 J0.892
G1 Y96.036
G2 X99.732 Y96.585 I0.595 J0.
G3 X100.098 Y97.134 I-0.229 J0.549
G1 Y109.135
G3 X99.764 Y109.966 I-1.2 J0.
G2 X98.508 Y111.868 I4.539 J4.362
X98.053 Y114.102 I5.262 J2.234
X98.112 Y116.428 I46.017 J0.
X98.685 Y118.683 I5.897 J-0.298
G3 X98.734 Y119.205 I-0.68 J0.326
G2 X98.674 Y119.447 I6.46 J1.731
G3 X98.264 Y119.773 I-0.409 J-0.093
G1 X90.822
G3 X90.411 Y119.445 I0. J-0.422
G2 X90.103 Y118.451 I-6.675 J1.524
G3 X90.03 Y117.459 I1.552 J-0.613
G2 X90.227 Y115.786 I-7.33 J-1.711
X90.231 Y114.102 I-329.706 J-1.684
X89.973 Y112.44 I-5.49 J0.
X89.264 Y110.914 I-6.286 J1.997
G3 X88.986 Y109.956 I1.518 J-0.959
G1 Y87.95
G3 X89.321 Y87.118 I1.2 J0.
G2 X90.569 Y85.215 I-4.456 J-4.283
X91.016 Y82.982 I-5.352 J-2.232
X91.001 Y82.506 I-7.622 J0.
G3 X90.986 Y82.031 I7.607 J-0.476
X91.306 Y81.711 I0.319 J0.
G1 X97.779
G3 X98.098 Y82.031 I0. J0.319
X98.083 Y82.506 I-7.622 J0.
G2 X98.068 Y82.982 I7.607 J0.476
X98.515 Y85.215 I5.799 J0.
X99.764 Y87.118 I5.705 J-2.379
G3 X100.098 Y87.95 I-0.865 J0.831
G1 Y97.134
G2 X100.464 Y97.683 I0.595 J0.
G3 X100.83 Y98.232 I-0.229 J0.549
G1 Y109.505
G3 X100.497 Y110.271 I-1.046 J0.
G2 X99.243 Y112.008 I3.763 J4.039
X98.785 Y114.102 I4.565 J2.094
X98.832 Y116.314 I52.018 J0.
X99.389 Y118.456 I5.257 J-0.224
G3 X99.469 Y119.294 I-1.034 J0.52
G2 X99.283 Y120.186 I6.035 J1.719
G3 X98.918 Y120.505 I-0.366 J-0.049
G1 X90.167
G3 X89.801 Y120.186 I0. J-0.369
G2 X89.305 Y118.443 I-6.249 J0.838
G3 X89.244 Y117.571 I1.148 J-0.519
G2 X89.499 Y115.788 I-6.102 J-1.783
G1 Y114.102
G2 X89.248 Y112.569 I-4.809 J0.
X88.56 Y111.176 I-5.502 J1.85
G3 X88.254 Y110.173 I1.489 J-1.003
G1 Y87.579
G3 X88.587 Y86.814 I1.046 J0.
G2 X89.842 Y85.076 I-3.763 J-4.039
X90.299 Y82.982 I-4.565 J-2.094
X90.276 Y82.14 I-15.767 J0.
G3 X90.254 Y81.298 I15.744 J-0.842
X90.573 Y80.979 I0.319 J0.
G1 X98.511
G3 X98.83 Y81.298 I0. J0.319
X98.808 Y82.14 I-15.767 J0.
G2 X98.785 Y82.982 I15.744 J0.842
X99.243 Y85.076 I5.022 J0.
X100.497 Y86.814 I5.018 J-2.302
G3 X100.83 Y87.579 I-0.713 J0.765
G1 Y98.232
G2 X101.195 Y98.779 I0.592 J0.
G3 X101.559 Y99.326 I-0.228 J0.547
G1 Y109.907
G3 X101.229 Y110.6 I-0.893 J0.
G2 X99.976 Y112.157 I2.99 J3.69
X99.514 Y114.102 I3.87 J1.945
X99.566 Y116.314 I47.95 J0.
X100.208 Y118.431 I4.494 J-0.208
G3 X100.28 Y119.15 I-0.721 J0.435
G2 X99.959 Y120.919 I5.217 J1.861
G3 X99.639 Y121.234 I-0.32 J-0.005
G1 X89.446
G3 X89.126 Y120.919 I0. J-0.32
G2 X88.488 Y118.431 I-5.529 J0.091
G3 X88.439 Y117.681 I0.81 J-0.429
G2 X88.765 Y115.906 I-4.818 J-1.802
X88.77 Y114.102 I-341.547 J-1.804
X88.51 Y112.655 I-4.159 J0.
X87.801 Y111.367 I-4.665 J1.731
G3 X87.525 Y110.551 I1.069 J-0.816
G1 Y87.178
G3 X87.856 Y86.484 I0.893 J0.
G2 X89.109 Y84.927 I-2.99 J-3.69
X89.57 Y82.982 I-3.87 J-1.945
G1 X89.538 Y80.982
G2 X89.527 Y80.768 I-1.956 J0.
G3 X89.505 Y80.554 I14.48 J-1.597
X89.576 Y80.341 I0.277 J-0.026
X89.781 Y80.25 I0.206 J0.187
G1 X99.303
G3 X99.509 Y80.341 I0. J0.278
X99.58 Y80.554 I-0.206 J0.187
X99.558 Y80.768 I-14.502 J-1.383
G2 X99.546 Y80.982 I1.944 J0.214
G1 X99.514 Y82.982
G2 X99.976 Y84.927 I4.331 J0.
X101.229 Y86.484 I4.244 J-2.133
G3 X101.559 Y87.178 I-0.562 J0.694
G1 Y99.326
G2 X101.909 Y99.85 I0.568 J0.
G3 X102.259 Y100.375 I-0.219 J0.525
G1 Y110.332
G3 X101.932 Y110.949 I-0.746 J0.
G2 X100.681 Y112.312 I2.248 J3.32
X100.214 Y114.102 I3.201 J1.79
G1 Y116.102
G2 X100.434 Y117.317 I3.461 J0.
X101.03 Y118.399 I4.018 J-1.507
G3 X101.096 Y119. I-0.47 J0.356
G2 X100.76 Y119.978 I4.854 J2.216
X100.639 Y121.005 I4.306 J1.027
X100.649 Y121.31 I4.883 J0.
G3 X100.658 Y121.615 I-4.873 J0.305
X100.339 Y121.934 I-0.319 J0.
G1 X88.742
G3 X88.427 Y121.619 I0. J-0.315
X88.436 Y121.312 I4.915 J0.
G2 X88.446 Y121.005 I-4.905 J-0.307
X88.243 Y119.654 I-4.594 J0.
X87.668 Y118.413 I-4.854 J1.494
G3 X87.633 Y117.784 I0.541 J-0.345
G2 X88.063 Y115.968 I-3.75 J-1.847
X88.07 Y114.102 I-254.751 J-1.866
X87.819 Y112.799 I-3.509 J0.
X87.139 Y111.659 I-3.918 J1.567
G3 X86.825 Y110.796 I1.032 J-0.863
G1 Y86.753
G3 X87.153 Y86.135 I0.746 J0.
G2 X88.404 Y84.772 I-2.248 J-3.32
X88.87 Y82.982 I-3.201 J-1.79
G3 X88.88 Y81.402 I128.536 J0.
G2 X88.65 Y79.839 I-5.002 J-0.061
G3 X88.795 Y79.561 I0.212 J-0.067
X88.862 Y79.55 I0.067 J0.212
G1 X100.223
G3 X100.445 Y79.773 I0. J0.222
X100.435 Y79.839 I-0.222 J0.
G2 X100.204 Y81.402 I4.772 J1.502
G3 X100.214 Y82.982 I-128.527 J1.58
G2 X100.681 Y84.772 I3.668 J0.
X101.932 Y86.135 I3.499 J-1.957
G3 X102.259 Y86.753 I-0.418 J0.617
G1 Y100.375
G2 X102.587 Y100.867 I0.533 J0.
G3 X102.915 Y101.359 I-0.205 J0.492
G1 Y110.78
G3 X102.592 Y111.316 I-0.607 J0.
G2 X101.344 Y112.47 I1.552 J2.93
X100.87 Y114.102 I2.572 J1.632
G1 Y116.102
G2 X101.139 Y117.328 I2.931 J0.
X101.862 Y118.355 I3.147 J-1.45
G3 X101.923 Y118.84 I-0.275 J0.281
G2 X101.449 Y119.878 I4.068 J2.483
X101.274 Y121.005 I3.542 J1.127
X101.294 Y121.638 I10.133 J0.
G3 X101.314 Y122.27 I-10.113 J0.633
X100.994 Y122.59 I-0.319 J0.
G1 X88.086
G3 X87.771 Y122.274 I0. J-0.315
X87.791 Y121.64 I10.165 J0.
G2 X87.811 Y121.005 I-10.145 J-0.635
X87.552 Y119.614 I-3.867 J0.
X86.843 Y118.389 I-4.24 J1.635
G3 X86.822 Y117.877 I0.333 J-0.27
G2 X87.403 Y116.034 I-2.764 J-1.884
X87.415 Y114.102 I-158.365 J-1.932
X87.156 Y112.9 I-2.92 J0.
X86.46 Y111.887 I-3.172 J1.432
G3 X86.17 Y111.179 I0.717 J-0.708
G1 Y86.305
G3 X86.493 Y85.768 I0.607 J0.
G2 X87.741 Y84.614 I-1.552 J-2.93
X88.215 Y82.982 I-2.572 J-1.632
X88.199 Y81.022 I-121.54 J0.
X87.589 Y79.159 I-3.313 J0.053
G3 X87.628 Y78.926 I0.136 J-0.097
X87.725 Y78.895 I0.097 J0.136
G1 X101.359
G3 X101.527 Y79.062 I0. J0.167
X101.496 Y79.159 I-0.167 J0.
G2 X100.886 Y81.022 I2.702 J1.917
X100.87 Y82.982 I121.524 J1.96
X101.344 Y84.614 I3.046 J0.
X102.592 Y85.768 I2.8 J-1.776
G3 X102.915 Y86.305 I-0.284 J0.537
G1 Y101.359
G2 X103.207 Y101.798 I0.475 J0.
G3 X103.5 Y102.236 I-0.183 J0.439
G1 Y111.238
G3 X103.183 Y111.692 I-0.484 J0.
G2 X101.94 Y112.625 I0.929 J2.532
X101.455 Y114.102 I2.007 J1.477
G1 Y116.102
G2 X101.803 Y117.36 I2.444 J0.
X102.721 Y118.288 I2.362 J-1.418
G3 X102.802 Y118.627 I-0.129 J0.21
X102.778 Y118.66 I-0.21 J-0.129
G2 X102.103 Y119.749 I2.967 J2.592
X101.854 Y121.005 I3.042 J1.256
X101.876 Y121.93 I19.037 J0.
G3 X101.899 Y122.856 I-19.015 J0.925
X101.58 Y123.175 I-0.319 J0.
G1 X87.501
G3 X87.186 Y122.86 I0. J-0.315
X87.208 Y121.932 I19.119 J0.
G2 X87.231 Y121.005 I-19.097 J-0.927
X86.899 Y119.547 I-3.365 J0.
X86.002 Y118.351 I-3.476 J1.671
G3 X85.912 Y118.154 I0.182 J-0.202
X85.996 Y117.953 I0.271 J-0.004
G2 X86.806 Y116.113 I-1.828 J-1.903
X86.829 Y114.102 I-85.052 J-2.011
X86.564 Y113.006 I-2.392 J0.
X85.857 Y112.127 I-2.511 J1.294
G3 X85.584 Y111.546 I0.482 J-0.58
G1 Y85.846
G3 X85.902 Y85.392 I0.484 J0.
G2 X87.145 Y84.459 I-0.929 J-2.532
X87.629 Y82.982 I-2.007 J-1.477
G1 Y80.982
G2 X87.1 Y79.443 I-2.502 J0.
X85.756 Y78.524 I-2.116 J1.652
G3 X85.682 Y78.387 I0.031 J-0.105
X85.787 Y78.309 I0.105 J0.031
G1 X103.297
G3 X103.407 Y78.419 I0. J0.109
X103.329 Y78.524 I-0.109 J0.
G2 X101.985 Y79.443 I0.772 J2.571
X101.455 Y80.982 I1.972 J1.539
G1 Y82.982
G2 X101.94 Y84.459 I2.491 J0.
X103.183 Y85.392 I2.172 J-1.598
G3 X103.5 Y85.846 I-0.167 J0.454
G1 Y102.236
G2 X103.826 Y102.726 I0.53 J0.
G3 X104.152 Y103.215 I-0.204 J0.489
G1 Y111.858
G3 X103.847 Y112.2 I-0.344 J0.
G2 X102.615 Y112.82 I0.23 J1.993
X102.107 Y114.102 I1.366 J1.282
G1 Y116.102
G2 X102.644 Y117.417 I1.878 J0.
X103.933 Y118.012 I1.429 J-1.401
G3 X104.152 Y118.247 I-0.016 J0.235
G1 Y118.262
G3 X104.033 Y118.467 I-0.235 J0.
G2 X102.927 Y119.53 I1.533 J2.702
X102.506 Y121.005 I2.375 J1.475
G1 X102.551 Y123.508
G3 X102.232 Y123.827 I-0.319 J0.
G1 X86.849
G3 X86.533 Y123.512 I0. J-0.315
G1 X86.578 Y121.005
G2 X86.183 Y119.571 I-2.796 J0.
X85.135 Y118.516 I-2.65 J1.582
G3 X84.932 Y118.155 I0.219 J-0.361
G1 Y118.144
G3 X85.149 Y117.775 I0.422 J0.
G2 X86.163 Y116.078 I-0.961 J-1.725
X86.177 Y114.102 I-135.736 J-1.976
X85.907 Y113.154 I-1.797 J0.
X85.205 Y112.462 I-1.786 J1.109
G3 X84.932 Y111.978 I0.291 J-0.484
G1 Y85.227
G3 X85.237 Y84.884 I0.344 J0.
G2 X86.469 Y84.265 I-0.23 J-1.993
X86.977 Y82.982 I-1.366 J-1.282
G1 Y80.982
G2 X86.462 Y79.692 I-1.875 J0.
X85.215 Y79.078 I-1.454 J1.38
G3 X84.932 Y78.764 I0.033 J-0.314
G1 Y77.976
G3 X85.251 Y77.657 I0.319 J0.
G1 X103.833
G3 X104.152 Y77.976 I0. J0.319
G1 Y78.738
G3 X103.847 Y79.08 I-0.344 J0.
G2 X102.615 Y79.7 I0.23 J1.993
X102.107 Y80.982 I1.366 J1.282
G1 Y82.982
G2 X102.615 Y84.265 I1.873 J0.
X103.847 Y84.884 I1.462 J-1.373
G3 X104.152 Y85.227 I-0.039 J0.342
G1 Y103.215
G2 X104.518 Y103.764 I0.594 J0.
G3 X104.884 Y104.312 I-0.229 J0.548
G1 Y112.599
G3 X104.564 Y112.919 I-0.319 J0.
X104.316 Y112.911 I0. J-3.982
G2 X104.067 Y112.903 I-0.249 J3.974
X103.204 Y113.248 I0. J1.25
X102.839 Y114.102 I0.813 J0.854
G1 Y116.102
G2 X103.204 Y116.956 I1.179 J0.
X104.067 Y117.301 I0.863 J-0.905
X104.316 Y117.293 I0. J-3.982
G3 X104.564 Y117.285 I0.249 J3.974
X104.884 Y117.605 I0. J0.319
G1 Y118.528
G3 X104.571 Y119.014 I-0.534 J0.
G2 X103.611 Y119.813 I0.974 J2.144
X103.238 Y121.005 I1.714 J1.192
G1 X103.275 Y124.005
G2 X103.283 Y124.135 I1.054 J0.
G3 X103.298 Y124.263 I-15.037 J1.862
X103.233 Y124.47 I-0.263 J0.03
X103.035 Y124.559 I-0.198 J-0.176
G1 X86.05
G3 X85.852 Y124.47 I0. J-0.265
X85.787 Y124.263 I0.198 J-0.176
X85.802 Y124.135 I15.052 J1.733
G2 X85.81 Y124.005 I-1.046 J-0.13
G1 X85.847 Y121.005
G2 X85.473 Y119.813 I-2.087 J0.
X84.514 Y119.013 I-1.934 J1.346
G3 X84.201 Y118.528 I0.221 J-0.486
G1 Y117.63
G3 X84.498 Y117.252 I0.389 J0.
G2 X85.171 Y116.841 I-0.307 J-1.259
X85.446 Y116.102 I-0.854 J-0.739
G1 Y114.102
G2 X85.156 Y113.345 I-1.134 J0.
X84.453 Y112.942 I-0.96 J0.86
G3 X84.201 Y112.633 I0.063 J-0.309
G1 Y84.485
G3 X84.52 Y84.166 I0.319 J0.
X84.769 Y84.174 I0. J3.982
G2 X85.017 Y84.181 I0.249 J-3.974
X85.88 Y83.836 I0. J-1.25
X86.246 Y82.982 I-0.813 J-0.854
G1 Y80.982
G2 X85.88 Y80.128 I-1.18 J0.
X85.017 Y79.783 I-0.863 J0.905
X84.767 Y79.791 I0. J4.014
G3 X84.516 Y79.799 I-0.251 J-4.006
X84.201 Y79.484 I0. J-0.315
G1 Y77.245
G3 X84.52 Y76.926 I0.319 J0.
G1 X104.564
G3 X104.884 Y77.245 I0. J0.319
G1 Y79.48
G3 X104.564 Y79.799 I-0.319 J0.
X104.316 Y79.791 I0. J-3.982
G2 X104.067 Y79.783 I-0.249 J3.974
X103.204 Y80.129 I0. J1.25
X102.839 Y80.982 I0.813 J0.854
G1 Y82.982
G2 X103.204 Y83.836 I1.179 J0.
X104.067 Y84.181 I0.863 J-0.905
X104.316 Y84.174 I0. J-3.982
G3 X104.564 Y84.166 I0.249 J3.974
X104.884 Y84.485 I0. J0.319
G1 Y104.312
G2 X105.225 Y104.825 I0.555 J0.
G3 X105.567 Y105.337 I-0.214 J0.513
G1 Y113.395
G2 X105.707 Y113.742 I0.5 J0.
X105.36 Y113.602 I-0.347 J0.36
G1 X104.067
G2 X103.567 Y114.102 I0. J0.5
G1 Y116.102
G2 X104.067 Y116.602 I0.5 J0.
G1 X105.067
G3 X105.567 Y117.102 I0. J0.5
G1 Y119.005
G2 X105.653 Y119.505 I1.5 J0.
G1 X105.466
G2 X103.966 Y121.005 I0. J1.5
G1 Y124.005
G2 X104.618 Y125.242 I1.5 J0.
G1 X84.467
G2 X85.119 Y124.005 I-0.848 J-1.237
G1 Y121.005
G2 X83.619 Y119.505 I-1.5 J0.
G1 X83.432
G2 X83.517 Y119.005 I-1.414 J-0.5
G1 Y117.102
G3 X84.017 Y116.602 I0.5 J0.
G1 X84.217
G2 X84.717 Y116.102 I0. J-0.5
G1 Y114.102
G2 X84.217 Y113.602 I-0.5 J0.
G1 X83.725
G2 X83.375 Y113.744 I0. J0.5
X83.517 Y113.395 I-0.358 J-0.349
G1 Y83.689
G2 X83.372 Y83.338 I-0.5 J0.
X83.725 Y83.482 I0.352 J-0.355
G1 X85.017
G2 X85.517 Y82.982 I0. J-0.5
G1 Y80.982
G2 X85.017 Y80.482 I-0.5 J0.
G1 X84.017
G3 X83.517 Y79.982 I0. J-0.5
G1 Y76.742
G3 X84.017 Y76.242 I0.5 J0.
G1 X105.067
G3 X105.567 Y76.742 I0. J0.5
G1 Y79.982
G3 X105.067 Y80.482 I-0.5 J0.
G1 X104.067
G2 X103.567 Y80.982 I0. J0.5
G1 Y82.982
G2 X104.067 Y83.482 I0.5 J0.
G1 X105.36
G2 X105.709 Y83.34 I0. J-0.5
X105.567 Y83.689 I0.358 J0.349
G1 Y105.337
G3 X105.517 Y105.387 I-0.05 J0.
X105.489 Y105.378 I0. J-0.05
G1 X99.109 Y101.051
X94.371 Y89.811
X94.122 Y89.738
G3 X94.248 Y89.078 Z-3.026 I0.393 J-0.267 F333.3
X94.907 Y89.204 Z-3.052 I0.267 J0.393
X94.781 Y89.864 Z-3.078 I-0.393 J0.267
X94.122 Y89.738 Z-3.104 I-0.267 J-0.393
X94.248 Y89.078 Z-3.13 I0.393 J-0.267
X94.907 Y89.204 Z-3.156 I0.267 J0.393
X94.781 Y89.864 Z-3.182 I-0.393 J0.267
X94.122 Y89.738 Z-3.208 I-0.267 J-0.393
X94.248 Y89.078 Z-3.234 I0.393 J-0.267
X94.907 Y89.204 Z-3.261 I0.267 J0.393
X94.781 Y89.864 Z-3.287 I-0.393 J0.267
X94.122 Y89.738 Z-3.313 I-0.267 J-0.393
X94.248 Y89.078 Z-3.339 I0.393 J-0.267
X94.907 Y89.204 Z-3.365 I0.267 J0.393
X94.781 Y89.864 Z-3.391 I-0.393 J0.267
X94.122 Y89.738 Z-3.417 I-0.267 J-0.393
X94.248 Y89.078 Z-3.443 I0.393 J-0.267
X94.907 Y89.204 Z-3.469 I0.267 J0.393
X94.781 Y89.864 Z-3.495 I-0.393 J0.267
X94.122 Y89.738 Z-3.521 I-0.267 J-0.393
X94.248 Y89.078 Z-3.547 I0.393 J-0.267
X94.907 Y89.204 Z-3.573 I0.267 J0.393
X94.781 Y89.864 Z-3.599 I-0.393 J0.267
X94.122 Y89.738 Z-3.625 I-0.267 J-0.393
X94.248 Y89.078 Z-3.651 I0.393 J-0.267
X94.907 Y89.204 Z-3.677 I0.267 J0.393
X94.781 Y89.864 Z-3.703 I-0.393 J0.267
X94.122 Y89.738 Z-3.73 I-0.267 J-0.393
X94.248 Y89.078 Z-3.756 I0.393 J-0.267
X94.907 Y89.204 Z-3.782 I0.267 J0.393
X94.781 Y89.864 Z-3.808 I-0.393 J0.267
X94.122 Y89.738 Z-3.834 I-0.267 J-0.393
X94.248 Y89.078 Z-3.86 I0.393 J-0.267
X94.907 Y89.204 Z-3.886 I0.267 J0.393
X94.781 Y89.864 Z-3.912 I-0.393 J0.267
X94.122 Y89.738 Z-3.938 I-0.267 J-0.393
X94.248 Y89.078 Z-3.964 I0.393 J-0.267
X94.907 Y89.204 Z-3.99 I0.267 J0.393
X94.989 Y89.471 Z-4. I-0.393 J0.267
G1 Y107.621 F500
G3 X94.916 Y107.859 I-0.422 J0.
G2 X94.276 Y108.92 I9.151 J6.243
G3 X94.146 Y108.96 I-0.085 J-0.045
X94.095 Y108.875 I0.045 J-0.085
G1 Y89.463
G3 X94.168 Y89.225 I0.422 J0.
G2 X94.376 Y88.909 I-9.151 J-6.243
G3 X94.647 Y88.848 I0.166 J0.105
X94.708 Y88.909 I-0.105 J0.166
G2 X94.916 Y89.225 I9.359 J-5.927
G3 X94.989 Y89.463 I-0.349 J0.238
G1 Y89.471
G2 X95.27 Y89.892 I0.456 J0.
G3 X95.551 Y90.313 I-0.175 J0.421
G1 Y107.614
G3 X95.376 Y108.181 I-1.008 J0.
G2 X94.275 Y110.265 I8.691 J5.921
G3 X94.09 Y110.347 I-0.133 J-0.052
X94.009 Y110.265 I0.052 J-0.133
G2 X93.595 Y109.342 I-9.792 J3.837
G3 X93.534 Y109.087 I0.503 J-0.256
G1 Y89.47
G3 X93.709 Y88.903 I1.007 J0.
G2 X94.394 Y87.745 I-8.691 J-5.921
G3 X94.618 Y87.672 I0.149 J0.075
X94.691 Y87.745 I-0.075 J0.149
G2 X95.376 Y88.903 I9.376 J-4.762
G3 X95.551 Y89.47 I-0.833 J0.567
G1 Y90.313
G2 X95.826 Y90.725 I0.447 J0.
G3 X96.101 Y91.138 I-0.172 J0.413
G1 Y107.688
G3 X95.867 Y108.437 I-1.318 J0.
G2 X94.247 Y112.4 I8.2 J5.665
G3 X94.124 Y112.487 I-0.105 J-0.018
X94.037 Y112.4 I0.018 J-0.105
G2 X93.092 Y109.567 I-9.82 J1.702
G3 X92.984 Y109.117 I0.879 J-0.449
G1 Y89.396
G3 X93.217 Y88.647 I1.318 J0.
G2 X94.416 Y86.296 I-8.2 J-5.665
G3 X94.587 Y86.215 I0.126 J0.044
X94.668 Y86.296 I-0.044 J0.126
G2 X95.867 Y88.647 I9.399 J-3.314
G3 X96.101 Y89.396 I-1.084 J0.749
G1 Y91.138
G2 X96.329 Y91.48 I0.371 J0.
G3 X96.557 Y91.823 I-0.143 J0.342
G1 Y107.636
G3 X96.218 Y108.733 I-1.942 J0.
G2 X94.96 Y111.288 I8.286 J5.669
X94.512 Y114.102 I8.627 J2.814
X94.535 Y115.008 I18.236 J0.
G3 X94.557 Y115.913 I-18.213 J0.906
X94.238 Y116.232 I-0.319 J0.
G1 X94.042
G3 X93.727 Y115.917 I0. J-0.315
X93.75 Y115.01 I18.313 J0.
G2 X93.772 Y114.102 I-18.29 J-0.908
X93.483 Y111.864 I-8.812 J0.
X92.676 Y109.756 I-10.042 J2.638
G3 X92.527 Y109.141 I1.196 J-0.615
G1 Y89.448
G3 X92.866 Y88.352 I1.942 J0.
G2 X94.171 Y85.561 I-7.849 J-5.369
G3 X94.647 Y85.294 I0.371 J0.105
X94.914 Y85.561 I-0.105 J0.371
G2 X96.218 Y88.352 I9.153 J-2.578
G3 X96.557 Y89.448 I-1.603 J1.096
G1 Y91.823
G2 X96.922 Y92.369 I0.592 J0.
G3 X97.286 Y92.915 I-0.228 J0.546
G1 Y107.915
G3 X96.947 Y108.962 I-1.789 J0.
G2 X95.689 Y111.398 I7.515 J5.426
X95.241 Y114.102 I7.936 J2.704
X95.252 Y115.377 I72.793 J0.
X95.303 Y116.65 I28.336 J-0.496
G3 X95.224 Y116.869 I-0.292 J0.018
X95.011 Y116.961 I-0.213 J-0.2
G1 X93.273
G3 X93.06 Y116.869 I0. J-0.292
X92.981 Y116.65 I0.213 J-0.2
X93.003 Y116.376 I8.811 J0.551
G2 X93.016 Y116.102 I-2.923 J-0.274
G1 X93.044 Y114.102
G2 X92.768 Y112.008 I-8.106 J0.
X92.002 Y110.039 I-9.309 J2.49
G3 X91.799 Y109.209 I1.591 J-0.83
G1 Y89.17
G3 X92.137 Y88.122 I1.789 J0.
G2 X93.598 Y84.851 I-7.12 J-5.14
G3 X94.004 Y84.524 I0.406 J0.088
G1 X95.081
G3 X95.487 Y84.851 I0. J0.416
G2 X96.947 Y88.122 I8.58 J-1.868
G3 X97.286 Y89.17 I-1.451 J1.047
G1 Y92.915
G2 X97.642 Y93.45 I0.58 J0.
G3 X97.999 Y93.985 I-0.223 J0.535
G1 Y108.2
G3 X97.661 Y109.197 I-1.64 J0.
G2 X96.403 Y111.509 I6.761 J5.177
X95.954 Y114.102 I7.258 J2.593
X95.962 Y115.739 I164.734 J0.
X96.099 Y117.371 I11.074 J-0.11
G3 X95.882 Y117.671 I-0.259 J0.041
X95.841 Y117.674 I-0.041 J-0.259
G1 X92.444
G3 X92.182 Y117.412 I0. J-0.262
X92.185 Y117.371 I0.262 J0.
G2 X92.34 Y113.794 I-15.474 J-2.464
X91.36 Y110.35 I-8.718 J0.621
G3 X91.085 Y109.237 I2.12 J-1.114
G1 Y88.884
G3 X91.423 Y87.887 I1.64 J0.
G2 X93.003 Y84.133 I-6.406 J-4.905
G3 X93.375 Y83.81 I0.373 J0.054
G1 X95.709
G3 X96.082 Y84.133 I0. J0.376
G2 X97.661 Y87.887 I7.985 J-1.151
G3 X97.999 Y88.884 I-1.302 J0.997
G1 Y93.985
G2 X98.347 Y94.506 I0.565 J0.
G3 X98.694 Y95.027 I-0.217 J0.521
G1 Y108.492
G3 X98.357 Y109.438 I-1.494 J0.
G2 X97.1 Y111.622 I6.025 J4.922
X96.649 Y114.102 I6.598 J2.48
X96.671 Y116.099 I89.92 J0.
X96.963 Y118.074 I8.052 J-0.179
G3 X96.801 Y118.36 I-0.224 J0.062
X96.738 Y118.369 I-0.062 J-0.224
G1 X91.931
G3 X91.447 Y118.035 I0. J-0.517
G1 X91.426 Y117.979
G3 X91.408 Y117.733 I0.394 J-0.153
G2 X91.623 Y115.924 I-8.503 J-1.929
X91.635 Y114.102 I-132.943 J-1.822
X91.383 Y112.272 I-6.758 J0.
X90.685 Y110.561 I-7.863 J2.212
G3 X90.39 Y109.411 I2.101 J-1.15
G1 Y88.592
G3 X90.727 Y87.647 I1.494 J0.
G2 X92.377 Y83.433 I-5.71 J-4.664
G3 X92.714 Y83.115 I0.337 J0.021
G1 X96.37
G3 X96.708 Y83.433 I0. J0.338
G2 X98.357 Y87.647 I7.359 J-0.45
G3 X98.694 Y88.592 I-1.157 J0.945
G1 Y95.027
G2 X99.03 Y95.531 I0.546 J0.
G3 X99.366 Y96.036 I-0.21 J0.504
G1 Y108.79
G3 X99.03 Y109.682 I-1.353 J0.
G2 X97.773 Y111.737 I5.314 J4.662
X97.321 Y114.102 I5.959 J2.365
X97.38 Y116.46 I47.275 J0.
X97.914 Y118.757 I6.625 J-0.331
G3 X97.808 Y119.024 I-0.187 J0.081
X97.728 Y119.041 I-0.081 J-0.187
G1 X91.419
G3 X90.97 Y118.711 I0. J-0.471
G2 X90.791 Y118.2 I-7.338 J2.29
G3 X90.747 Y117.607 I0.938 J-0.367
G2 X90.955 Y115.86 I-7.929 J-1.827
X90.963 Y114.102 I-176.96 J-1.758
X90.716 Y112.378 I-6.133 J0.
X90.034 Y110.775 I-7.142 J2.092
G3 X89.718 Y109.586 I2.079 J-1.189
G1 Y88.294
G3 X90.054 Y87.402 I1.353 J0.
G2 X91.725 Y82.982 I-5.058 J-4.438
X91.722 Y82.873 I-1.758 J0.
G3 X91.718 Y82.763 I1.755 J-0.11
X92.038 Y82.443 I0.319 J0.
G1 X97.047
G3 X97.366 Y82.763 I0. J0.319
X97.363 Y82.873 I-1.758 J0.
G2 X97.359 Y82.982 I1.755 J0.11
X99.03 Y87.402 I6.68 J0.
G3 X99.366 Y88.294 I-1.017 J0.892
G1 Y96.036
G2 X99.732 Y96.585 I0.595 J0.
G3 X100.098 Y97.134 I-0.229 J0.549
G1 Y109.135
G3 X99.764 Y109.966 I-1.2 J0.
G2 X98.508 Y111.868 I4.539 J4.362
X98.053 Y114.102 I5.262 J2.234
X98.112 Y116.428 I46.017 J0.
X98.685 Y118.683 I5.897 J-0.298
G3 X98.734 Y119.205 I-0.68 J0.326
G2 X98.674 Y119.447 I6.46 J1.731
G3 X98.264 Y119.773 I-0.409 J-0.093
G1 X90.822
G3 X90.411 Y119.445 I0. J-0.422
G2 X90.103 Y118.451 I-6.675 J1.524
G3 X90.03 Y117.459 I1.552 J-0.613
G2 X90.227 Y115.786 I-7.33 J-1.711
X90.231 Y114.102 I-329.706 J-1.684
X89.973 Y112.44 I-5.49 J0.
X89.264 Y110.914 I-6.286 J1.997
G3 X88.986 Y109.956 I1.518 J-0.959
G1 Y87.95
G3 X89.321 Y87.118 I1.2 J0.
G2 X90.569 Y85.215 I-4.456 J-4.283
X91.016 Y82.982 I-5.352 J-2.232
X91.001 Y82.506 I-7.622 J0.
G3 X90.986 Y82.031 I7.607 J-0.476
X91.306 Y81.711 I0.319 J0.
G1 X97.779
G3 X98.098 Y82.031 I0. J0.319
X98.083 Y82.506 I-7.622 J0.
G2 X98.068 Y82.982 I7.607 J0.476
X98.515 Y85.215 I5.799 J0.
X99.764 Y87.118 I5.705 J-2.379
G3 X100.098 Y87.95 I-0.865 J0.831
G1 Y97.134
G2 X100.464 Y97.683 I0.595 J0.
G3 X100.83 Y98.232 I-0.229 J0.549
G1 Y109.505
G3 X100.497 Y110.271 I-1.046 J0.
G2 X99.243 Y112.008 I3.763 J4.039
X98.785 Y114.102 I4.565 J2.094
X98.832 Y116.314 I52.018 J0.
X99.389 Y118.456 I5.257 J-0.224
G3 X99.469 Y119.294 I-1.034 J0.52
G2 X99.283 Y120.186 I6.035 J1.719
G3 X98.918 Y120.505 I-0.366 J-0.049
G1 X90.167
G3 X89.801 Y120.186 I0. J-0.369
G2 X89.305 Y118.443 I-6.249 J0.838
G3 X89.244 Y117.571 I1.148 J-0.519
G2 X89.499 Y115.788 I-6.102 J-1.783
G1 Y114.102
G2 X89.248 Y112.569 I-4.809 J0.
X88.56 Y111.176 I-5.502 J1.85
G3 X88.254 Y110.173 I1.489 J-1.003
G1 Y87.579
G3 X88.587 Y86.814 I1.046 J0.
G2 X89.842 Y85.076 I-3.763 J-4.039
X90.299 Y82.982 I-4.565 J-2.094
X90.276 Y82.14 I-15.767 J0.
G3 X90.254 Y81.298 I15.744 J-0.842
X90.573 Y80.979 I0.319 J0.
G1 X98.511
G3 X98.83 Y81.298 I0. J0.319
X98.808 Y82.14 I-15.767 J0.
G2 X98.785 Y82.982 I15.744 J0.842
X99.243 Y85.076 I5.022 J0.
X100.497 Y86.814 I5.018 J-2.302
G3 X100.83 Y87.579 I-0.713 J0.765
G1 Y98.232
G2 X101.195 Y98.779 I0.592 J0.
G3 X101.559 Y99.326 I-0.228 J0.547
G1 Y109.907
G3 X101.229 Y110.6 I-0.893 J0.
G2 X99.976 Y112.157 I2.99 J3.69
X99.514 Y114.102 I3.87 J1.945
X99.566 Y116.314 I47.95 J0.
X100.208 Y118.431 I4.494 J-0.208
G3 X100.28 Y119.15 I-0.721 J0.435
G2 X99.959 Y120.919 I5.217 J1.861
G3 X99.639 Y121.234 I-0.32 J-0.005
G1 X89.446
G3 X89.126 Y120.919 I0. J-0.32
G2 X88.488 Y118.431 I-5.529 J0.091
G3 X88.439 Y117.681 I0.81 J-0.429
G2 X88.765 Y115.906 I-4.818 J-1.802
X88.77 Y114.102 I-341.547 J-1.804
X88.51 Y112.655 I-4.159 J0.
X87.801 Y111.367 I-4.665 J1.731
G3 X87.525 Y110.551 I1.069 J-0.816
G1 Y87.178
G3 X87.856 Y86.484 I0.893 J0.
G2 X89.109 Y84.927 I-2.99 J-3.69
X89.57 Y82.982 I-3.87 J-1.945
G1 X89.538 Y80.982
G2 X89.527 Y80.768 I-1.956 J0.
G3 X89.505 Y80.554 I14.48 J-1.597
X89.576 Y80.341 I0.277 J-0.026
X89.781 Y80.25 I0.206 J0.187
G1 X99.303
G3 X99.509 Y80.341 I0. J0.278
X99.58 Y80.554 I-0.206 J0.187
X99.558 Y80.768 I-14.502 J-1.383
G2 X99.546 Y80.982 I1.944 J0.214
G1 X99.514 Y82.982
G2 X99.976 Y84.927 I4.331 J0.
X101.229 Y86.484 I4.244 J-2.133
G3 X101.559 Y87.178 I-0.562 J0.694
G1 Y99.326
G2 X101.909 Y99.85 I0.568 J0.
G3 X102.259 Y100.375 I-0.219 J0.525
G1 Y110.332
G3 X101.932 Y110.949 I-0.746 J0.
G2 X100.681 Y112.312 I2.248 J3.32
X100.214 Y114.102 I3.201 J1.79
G1 Y116.102
G2 X100.434 Y117.317 I3.461 J0.
X101.03 Y118.399 I4.018 J-1.507
G3 X101.096 Y119. I-0.47 J0.356
G2 X100.76 Y119.978 I4.854 J2.216
X100.639 Y121.005 I4.306 J1.027
X100.649 Y121.31 I4.883 J0.
G3 X100.658 Y121.615 I-4.873 J0.305
X100.339 Y121.934 I-0.319 J0.
G1 X88.742
G3 X88.427 Y121.619 I0. J-0.315
X88.436 Y121.312 I4.915 J0.
G2 X88.446 Y121.005 I-4.905 J-0.307
X88.243 Y119.654 I-4.594 J0.
X87.668 Y118.413 I-4.854 J1.494
G3 X87.633 Y117.784 I0.541 J-0.345
G2 X88.063 Y115.968 I-3.75 J-1.847
X88.07 Y114.102 I-254.751 J-1.866
X87.819 Y112.799 I-3.509 J0.
X87.139 Y111.659 I-3.918 J1.567
G3 X86.825 Y110.796 I1.032 J-0.863
G1 Y86.753
G3 X87.153 Y86.135 I0.746 J0.
G2 X88.404 Y84.772 I-2.248 J-3.32
X88.87 Y82.982 I-3.201 J-1.79
G3 X88.88 Y81.402 I128.536 J0.
G2 X88.65 Y79.839 I-5.002 J-0.061
G3 X88.795 Y79.561 I0.212 J-0.067
X88.862 Y79.55 I0.067 J0.212
G1 X100.223
G3 X100.445 Y79.773 I0. J0.222
X100.435 Y79.839 I-0.222 J0.
G2 X100.204 Y81.402 I4.772 J1.502
G3 X100.214 Y82.982 I-128.527 J1.58
G2 X100.681 Y84.772 I3.668 J0.
X101.932 Y86.135 I3.499 J-1.957
G3 X102.259 Y86.753 I-0.418 J0.617
G1 Y100.375
G2 X102.587 Y100.867 I0.533 J0.
G3 X102.915 Y101.359 I-0.205 J0.492
G1 Y110.78
G3 X102.592 Y111.316 I-0.607 J0.
G2 X101.344 Y112.47 I1.552 J2.93
X100.87 Y114.102 I2.572 J1.632
G1 Y116.102
G2 X101.139 Y117.328 I2.931 J0.
X101.862 Y118.355 I3.147 J-1.45
G3 X101.923 Y118.84 I-0.275 J0.281
G2 X101.449 Y119.878 I4.068 J2.483
X101.274 Y121.005 I3.542 J1.127
X101.294 Y121.638 I10.133 J0.
G3 X101.314 Y122.27 I-10.113 J0.633
X100.994 Y122.59 I-0.319 J0.
G1 X88.086
G3 X87.771 Y122.274 I0. J-0.315
X87.791 Y121.64 I10.165 J0.
G2 X87.811 Y121.005 I-10.145 J-0.635
X87.552 Y119.614 I-3.867 J0.
X86.843 Y118.389 I-4.24 J1.635
G3 X86.822 Y117.877 I0.333 J-0.27
G2 X87.403 Y116.034 I-2.764 J-1.884
X87.415 Y114.102 I-158.365 J-1.932
X87.156 Y112.9 I-2.92 J0.
X86.46 Y111.887 I-3.172 J1.432
G3 X86.17 Y111.179 I0.717 J-0.708
G1 Y86.305
G3 X86.493 Y85.768 I0.607 J0.
G2 X87.741 Y84.614 I-1.552 J-2.93
X88.215 Y82.982 I-2.572 J-1.632
X88.199 Y81.022 I-121.54 J0.
X87.589 Y79.159 I-3.313 J0.053
G3 X87.628 Y78.926 I0.136 J-0.097
X87.725 Y78.895 I0.097 J0.136
G1 X101.359
G3 X101.527 Y79.062 I0. J0.167
X101.496 Y79.159 I-0.167 J0.
G2 X100.886 Y81.022 I2.702 J1.917
X100.87 Y82.982 I121.524 J1.96
X101.344 Y84.614 I3.046 J0.
X102.592 Y85.768 I2.8 J-1.776
G3 X102.915 Y86.305 I-0.284 J0.537
G1 Y101.359
G2 X103.207 Y101.798 I0.475 J0.
G3 X103.5 Y102.236 I-0.183 J0.439
G1 Y111.238
G3 X103.183 Y111.692 I-0.484 J0.
G2 X101.94 Y112.625 I0.929 J2.532
X101.455 Y114.102 I2.007 J1.477
G1 Y116.102
G2 X101.803 Y117.36 I2.444 J0.
X102.721 Y118.288 I2.362 J-1.418
G3 X102.802 Y118.627 I-0.129 J0.21
X102.778 Y118.66 I-0.21 J-0.129
G2 X102.103 Y119.749 I2.967 J2.592
X101.854 Y121.005 I3.042 J1.256
X101.876 Y121.93 I19.037 J0.
G3 X101.899 Y122.856 I-19.015 J0.925
X101.58 Y123.175 I-0.319 J0.
G1 X87.501
G3 X87.186 Y122.86 I0. J-0.315
X87.208 Y121.932 I19.119 J0.
G2 X87.231 Y121.005 I-19.097 J-0.927
X86.899 Y119.547 I-3.365 J0.
X86.002 Y118.351 I-3.476 J1.671
G3 X85.912 Y118.154 I0.182 J-0.202
X85.996 Y117.953 I0.271 J-0.004
G2 X86.806 Y116.113 I-1.828 J-1.903
X86.829 Y114.102 I-85.052 J-2.011
X86.564 Y113.006 I-2.392 J0.
X85.857 Y112.127 I-2.511 J1.294
G3 X85.584 Y111.546 I0.482 J-0.58
G1 Y85.846
G3 X85.902 Y85.392 I0.484 J0.
G2 X87.145 Y84.459 I-0.929 J-2.532
X87.629 Y82.982 I-2.007 J-1.477
G1 Y80.982
G2 X87.1 Y79.443 I-2.502 J0.
X85.756 Y78.524 I-2.116 J1.652
G3 X85.682 Y78.387 I0.031 J-0.105
X85.787 Y78.309 I0.105 J0.031
G1 X103.297
G3 X103.407 Y78.419 I0. J0.109
X103.329 Y78.524 I-0.109 J0.
G2 X101.985 Y79.443 I0.772 J2.571
X101.455 Y80.982 I1.972 J1.539
G1 Y82.982
G2 X101.94 Y84.459 I2.491 J0.
X103.183 Y85.392 I2.172 J-1.598
G3 X103.5 Y85.846 I-0.167 J0.454
G1 Y102.236
G2 X103.826 Y102.726 I0.53 J0.
G3 X104.152 Y103.215 I-0.204 J0.489
G1 Y111.858
G3 X103.847 Y112.2 I-0.344 J0.
G2 X102.615 Y112.82 I0.23 J1.993
X102.107 Y114.102 I1.366 J1.282
G1 Y116.102
G2 X102.644 Y117.417 I1.878 J0.
X103.933 Y118.012 I1.429 J-1.401
G3 X104.152 Y118.247 I-0.016 J0.235
G1 Y118.262
G3 X104.033 Y118.467 I-0.235 J0.
G2 X102.927 Y119.53 I1.533 J2.702
X102.506 Y121.005 I2.375 J1.475
G1 X102.551 Y123.508
G3 X102.232 Y123.827 I-0.319 J0.
G1 X86.849
G3 X86.533 Y123.512 I0. J-0.315
G1 X86.578 Y121.005
G2 X86.183 Y119.571 I-2.796 J0.
X85.135 Y118.516 I-2.65 J1.582
G3 X84.932 Y118.155 I0.219 J-0.361
G1 Y118.144
G3 X85.149 Y117.775 I0.422 J0.
G2 X86.163 Y116.078 I-0.961 J-1.725
X86.177 Y114.102 I-135.736 J-1.976
X85.907 Y113.154 I-1.797 J0.
X85.205 Y112.462 I-1.786 J1.109
G3 X84.932 Y111.978 I0.291 J-0.484
G1 Y85.227
G3 X85.237 Y84.884 I0.344 J0.
G2 X86.469 Y84.265 I-0.23 J-1.993
X86.977 Y82.982 I-1.366 J-1.282
G1 Y80.982
G2 X86.462 Y79.692 I-1.875 J0.
X85.215 Y79.078 I-1.454 J1.38
G3 X84.932 Y78.764 I0.033 J-0.314
G1 Y77.976
G3 X85.251 Y77.657 I0.319 J0.
G1 X103.833
G3 X104.152 Y77.976 I0. J0.319
G1 Y78.738
G3 X103.847 Y79.08 I-0.344 J0.
G2 X102.615 Y79.7 I0.23 J1.993
X102.107 Y80.982 I1.366 J1.282
G1 Y82.982
G2 X102.615 Y84.265 I1.873 J0.
X103.847 Y84.884 I1.462 J-1.373
G3 X104.152 Y85.227 I-0.039 J0.342
G1 Y103.215
G2 X104.518 Y103.764 I0.594 J0.
G3 X104.884 Y104.312 I-0.229 J0.548
G1 Y112.599
G3 X104.564 Y112.919 I-0.319 J0.
X104.316 Y112.911 I0. J-3.982
G2 X104.067 Y112.903 I-0.249 J3.974
X103.204 Y113.248 I0. J1.25
X102.839 Y114.102 I0.813 J0.854
G1 Y116.102
G2 X103.204 Y116.956 I1.179 J0.
X104.067 Y117.301 I0.863 J-0.905
X104.316 Y117.293 I0. J-3.982
G3 X104.564 Y117.285 I0.249 J3.974
X104.884 Y117.605 I0. J0.319
G1 Y118.528
G3 X104.571 Y119.014 I-0.534 J0.
G2 X103.611 Y119.813 I0.974 J2.144
X103.238 Y121.005 I1.714 J1.192
G1 X103.275 Y124.005
G2 X103.283 Y124.135 I1.054 J0.
G3 X103.298 Y124.263 I-15.037 J1.862
X103.233 Y124.47 I-0.263 J0.03
X103.035 Y124.559 I-0.198 J-0.176
G1 X86.05
G3 X85.852 Y124.47 I0. J-0.265
X85.787 Y124.263 I0.198 J-0.176
X85.802 Y124.135 I15.052 J1.733
G2 X85.81 Y124.005 I-1.046 J-0.13
G1 X85.847 Y121.005
G2 X85.473 Y119.813 I-2.087 J0.
X84.514 Y119.013 I-1.934 J1.346
G3 X84.201 Y118.528 I0.221 J-0.486
G1 Y117.63
G3 X84.498 Y117.252 I0.389 J0.
G2 X85.171 Y116.841 I-0.307 J-1.259
X85.446 Y116.102 I-0.854 J-0.739
G1 Y114.102
G2 X85.156 Y113.345 I-1.134 J0.
X84.453 Y112.942 I-0.96 J0.86
G3 X84.201 Y112.633 I0.063 J-0.309
G1 Y84.485
G3 X84.52 Y84.166 I0.319 J0.
X84.769 Y84.174 I0. J3.982
G2 X85.017 Y84.181 I0.249 J-3.974
X85.88 Y83.836 I0. J-1.25
X86.246 Y82.982 I-0.813 J-0.854
G1 Y80.982
G2 X85.88 Y80.128 I-1.18 J0.
X85.017 Y79.783 I-0.863 J0.905
X84.767 Y79.791 I0. J4.014
G3 X84.516 Y79.799 I-0.251 J-4.006
X84.201 Y79.484 I0. J-0.315
G1 Y77.245
G3 X84.52 Y76.926 I0.319 J0.
G1 X104.564
G3 X104.884 Y77.245 I0. J0.319
G1 Y79.48
G3 X104.564 Y79.799 I-0.319 J0.
X104.316 Y79.791 I0. J-3.982
G2 X104.067 Y79.783 I-0.249 J3.974
X103.204 Y80.129 I0. J1.25
X102.839 Y80.982 I0.813 J0.854
G1 Y82.982
G2 X103.204 Y83.836 I1.179 J0.
X104.067 Y84.181 I0.863 J-0.905
X104.316 Y84.174 I0. J-3.982
G3 X104.564 Y84.166 I0.249 J3.974
X104.884 Y84.485 I0. J0.319
G1 Y104.312
G2 X105.225 Y104.825 I0.555 J0.
G3 X105.567 Y105.337 I-0.214 J0.513
G1 Y113.395
G2 X105.707 Y113.742 I0.5 J0.
X105.36 Y113.602 I-0.347 J0.36
G1 X104.067
G2 X103.567 Y114.102 I0. J0.5
G1 Y116.102
G2 X104.067 Y116.602 I0.5 J0.
G1 X105.067
G3 X105.567 Y117.102 I0. J0.5
G1 Y119.005
G2 X105.653 Y119.505 I1.5 J0.
G1 X105.466
G2 X103.966 Y121.005 I0. J1.5
G1 Y124.005
G2 X104.618 Y125.242 I1.5 J0.
G1 X84.467
G2 X85.119 Y124.005 I-0.848 J-1.237
G1 Y121.005
G2 X83.619 Y119.505 I-1.5 J0.
G1 X83.432
G2 X83.517 Y119.005 I-1.414 J-0.5
G1 Y117.102
G3 X84.017 Y116.602 I0.5 J0.
G1 X84.217
G2 X84.717 Y116.102 I0. J-0.5
G1 Y114.102
G2 X84.217 Y113.602 I-0.5 J0.
G1 X83.725
G2 X83.375 Y113.744 I0. J0.5
X83.517 Y113.395 I-0.358 J-0.349
G1 Y83.689
G2 X83.372 Y83.338 I-0.5 J0.
X83.725 Y83.482 I0.352 J-0.355
G1 X85.017
G2 X85.517 Y82.982 I0. J-0.5
G1 Y80.982
G2 X85.017 Y80.482 I-0.5 J0.
G1 X84.017
G3 X83.517 Y79.982 I0. J-0.5
G1 Y76.742
G3 X84.017 Y76.242 I0.5 J0.
G1 X105.067
G3 X105.567 Y76.742 I0. J0.5
G1 Y79.982
G3 X105.067 Y80.482 I-0.5 J0.
G1 X104.067
G2 X103.567 Y80.982 I0. J0.5
G1 Y82.982
G2 X104.067 Y83.482 I0.5 J0.
G1 X105.36
G2 X105.709 Y83.34 I0. J-0.5
X105.567 Y83.689 I0.358 J0.349
G1 Y105.337
G3 X105.517 Y105.387 I-0.05 J0.
X105.489 Y105.378 I0. J-0.05
G1 X99.109 Y101.051
X94.371 Y89.811
X94.122 Y89.738
G3 X94.248 Y89.078 Z-4.026 I0.393 J-0.267 F333.3
X94.907 Y89.204 Z-4.052 I0.267 J0.393
X94.781 Y89.864 Z-4.078 I-0.393 J0.267
X94.122 Y89.738 Z-4.104 I-0.267 J-0.393
X94.248 Y89.078 Z-4.13 I0.393 J-0.267
X94.907 Y89.204 Z-4.156 I0.267 J0.393
X94.781 Y89.864 Z-4.182 I-0.393 J0.267
X94.122 Y89.738 Z-4.208 I-0.267 J-0.393
X94.248 Y89.078 Z-4.234 I0.393 J-0.267
X94.907 Y89.204 Z-4.261 I0.267 J0.393
X94.781 Y89.864 Z-4.287 I-0.393 J0.267
X94.122 Y89.738 Z-4.313 I-0.267 J-0.393
X94.248 Y89.078 Z-4.339 I0.393 J-0.267
X94.907 Y89.204 Z-4.365 I0.267 J0.393
X94.781 Y89.864 Z-4.391 I-0.393 J0.267
X94.122 Y89.738 Z-4.417 I-0.267 J-0.393
X94.248 Y89.078 Z-4.443 I0.393 J-0.267
X94.907 Y89.204 Z-4.469 I0.267 J0.393
X94.781 Y89.864 Z-4.495 I-0.393 J0.267
X94.122 Y89.738 Z-4.521 I-0.267 J-0.393
X94.248 Y89.078 Z-4.547 I0.393 J-0.267
X94.907 Y89.204 Z-4.573 I0.267 J0.393
X94.781 Y89.864 Z-4.599 I-0.393 J0.267
X94.122 Y89.738 Z-4.625 I-0.267 J-0.393
X94.248 Y89.078 Z-4.651 I0.393 J-0.267
X94.907 Y89.204 Z-4.677 I0.267 J0.393
X94.781 Y89.864 Z-4.703 I-0.393 J0.267
X94.122 Y89.738 Z-4.73 I-0.267 J-0.393
X94.248 Y89.078 Z-4.756 I0.393 J-0.267
X94.907 Y89.204 Z-4.782 I0.267 J0.393
X94.781 Y89.864 Z-4.808 I-0.393 J0.267
X94.122 Y89.738 Z-4.834 I-0.267 J-0.393
X94.248 Y89.078 Z-4.86 I0.393 J-0.267
X94.907 Y89.204 Z-4.886 I0.267 J0.393
X94.781 Y89.864 Z-4.912 I-0.393 J0.267
X94.122 Y89.738 Z-4.938 I-0.267 J-0.393
X94.248 Y89.078 Z-4.964 I0.393 J-0.267
X94.907 Y89.204 Z-4.99 I0.267 J0.393
X94.989 Y89.471 Z-5. I-0.393 J0.267
G1 Y107.621 F500
G3 X94.916 Y107.859 I-0.422 J0.
G2 X94.276 Y108.92 I9.151 J6.243
G3 X94.146 Y108.96 I-0.085 J-0.045
X94.095 Y108.875 I0.045 J-0.085
G1 Y89.463
G3 X94.168 Y89.225 I0.422 J0.
G2 X94.376 Y88.909 I-9.151 J-6.243
G3 X94.647 Y88.848 I0.166 J0.105
X94.708 Y88.909 I-0.105 J0.166
G2 X94.916 Y89.225 I9.359 J-5.927
G3 X94.989 Y89.463 I-0.349 J0.238
G1 Y89.471
G2 X95.27 Y89.892 I0.456 J0.
G3 X95.551 Y90.313 I-0.175 J0.421
G1 Y107.614
G3 X95.376 Y108.181 I-1.008 J0.
G2 X94.275 Y110.265 I8.691 J5.921
G3 X94.09 Y110.347 I-0.133 J-0.052
X94.009 Y110.265 I0.052 J-0.133
G2 X93.595 Y109.342 I-9.792 J3.837
G3 X93.534 Y109.087 I0.503 J-0.256
G1 Y89.47
G3 X93.709 Y88.903 I1.007 J0.
G2 X94.394 Y87.745 I-8.691 J-5.921
G3 X94.618 Y87.672 I0.149 J0.075
X94.691 Y87.745 I-0.075 J0.149
G2 X95.376 Y88.903 I9.376 J-4.762
G3 X95.551 Y89.47 I-0.833 J0.567
G1 Y90.313
G2 X95.826 Y90.725 I0.447 J0.
G3 X96.101 Y91.138 I-0.172 J0.413
G1 Y107.688
G3 X95.867 Y108.437 I-1.318 J0.
G2 X94.247 Y112.4 I8.2 J5.665
G3 X94.124 Y112.487 I-0.105 J-0.018
X94.037 Y112.4 I0.018 J-0.105
G2 X93.092 Y109.567 I-9.82 J1.702
G3 X92.984 Y109.117 I0.879 J-0.449
G1 Y89.396
G3 X93.217 Y88.647 I1.318 J0.
G2 X94.416 Y86.296 I-8.2 J-5.665
G3 X94.587 Y86.215 I0.126 J0.044
X94.668 Y86.296 I-0.044 J0.126
G2 X95.867 Y88.647 I9.399 J-3.314
G3 X96.101 Y89.396 I-1.084 J0.749
G1 Y91.138
G2 X96.329 Y91.48 I0.371 J0.
G3 X96.557 Y91.823 I-0.143 J0.342
G1 Y107.636
G3 X96.218 Y108.733 I-1.942 J0.
G2 X94.96 Y111.288 I8.286 J5.669
X94.512 Y114.102 I8.627 J2.814
X94.535 Y115.008 I18.236 J0.
G3 X94.557 Y115.913 I-18.213 J0.906
X94.238 Y116.232 I-0.319 J0.
G1 X94.042
G3 X93.727 Y115.917 I0. J-0.315
X93.75 Y115.01 I18.313 J0.
G2 X93.772 Y114.102 I-18.29 J-0.908
X93.483 Y111.864 I-8.812 J0.
X92.676 Y109.756 I-10.042 J2.638
G3 X92.527 Y109.141 I1.196 J-0.615
G1 Y89.448
G3 X92.866 Y88.352 I1.942 J0.
G2 X94.171 Y85.561 I-7.849 J-5.369
G3 X94.647 Y85.294 I0.371 J0.105
X94.914 Y85.561 I-0.105 J0.371
G2 X96.218 Y88.352 I9.153 J-2.578
G3 X96.557 Y89.448 I-1.603 J1.096
G1 Y91.823
G2 X96.922 Y92.369 I0.592 J0.
G3 X97.286 Y92.915 I-0.228 J0.546
G1 Y107.915
G3 X96.947 Y108.962 I-1.789 J0.
G2 X95.689 Y111.398 I7.515 J5.426
X95.241 Y114.102 I7.936 J2.704
X95.252 Y115.377 I72.793 J0.
X95.303 Y116.65 I28.336 J-0.496
G3 X95.224 Y116.869 I-0.292 J0.018
X95.011 Y116.961 I-0.213 J-0.2
G1 X93.273
G3 X93.06 Y116.869 I0. J-0.292
X92.981 Y116.65 I0.213 J-0.2
X93.003 Y116.376 I8.811 J0.551
G2 X93.016 Y116.102 I-2.923 J-0.274
G1 X93.044 Y114.102
G2 X92.768 Y112.008 I-8.106 J0.
X92.002 Y110.039 I-9.309 J2.49
G3 X91.799 Y109.209 I1.591 J-0.83
G1 Y89.17
G3 X92.137 Y88.122 I1.789 J0.
G2 X93.598 Y84.851 I-7.12 J-5.14
G3 X94.004 Y84.524 I0.406 J0.088
G1 X95.081
G3 X95.487 Y84.851 I0. J0.416
G2 X96.947 Y88.122 I8.58 J-1.868
G3 X97.286 Y89.17 I-1.451 J1.047
G1 Y92.915
G2 X97.642 Y93.45 I0.58 J0.
G3 X97.999 Y93.985 I-0.223 J0.535
G1 Y108.2
G3 X97.661 Y109.197 I-1.64 J0.
G2 X96.403 Y111.509 I6.761 J5.177
X95.954 Y114.102 I7.258 J2.593
X95.962 Y115.739 I164.734 J0.
X96.099 Y117.371 I11.074 J-0.11
G3 X95.882 Y117.671 I-0.259 J0.041
X95.841 Y117.674 I-0.041 J-0.259
G1 X92.444
G3 X92.182 Y117.412 I0. J-0.262
X92.185 Y117.371 I0.262 J0.
G2 X92.34 Y113.794 I-15.474 J-2.464
X91.36 Y110.35 I-8.718 J0.621
G3 X91.085 Y109.237 I2.12 J-1.114
G1 Y88.884
G3 X91.423 Y87.887 I1.64 J0.
G2 X93.003 Y84.133 I-6.406 J-4.905
G3 X93.375 Y83.81 I0.373 J0.054
G1 X95.709
G3 X96.082 Y84.133 I0. J0.376
G2 X97.661 Y87.887 I7.985 J-1.151
G3 X97.999 Y88.884 I-1.302 J0.997
G1 Y93.985
G2 X98.347 Y94.506 I0.565 J0.
G3 X98.694 Y95.027 I-0.217 J0.521
G1 Y108.492
G3 X98.357 Y109.438 I-1.494 J0.
G2 X97.1 Y111.622 I6.025 J4.922
X96.649 Y114.102 I6.598 J2.48
X96.671 Y116.099 I89.92 J0.
X96.963 Y118.074 I8.052 J-0.179
G3 X96.801 Y118.36 I-0.224 J0.062
X96.738 Y118.369 I-0.062 J-0.224
G1 X91.931
G3 X91.447 Y118.035 I0. J-0.517
G1 X91.426 Y117.979
G3 X91.408 Y117.733 I0.394 J-0.153
G2 X91.623 Y115.924 I-8.503 J-1.929
X91.635 Y114.102 I-132.943 J-1.822
X91.383 Y112.272 I-6.758 J0.
X90.685 Y110.561 I-7.863 J2.212
G3 X90.39 Y109.411 I2.101 J-1.15
G1 Y88.592
G3 X90.727 Y87.647 I1.494 J0.
G2 X92.377 Y83.433 I-5.71 J-4.664
G3 X92.714 Y83.115 I0.337 J0.021
G1 X96.37
G3 X96.708 Y83.433 I0. J0.338
G2 X98.357 Y87.647 I7.359 J-0.45
G3 X98.694 Y88.592 I-1.157 J0.945
G1 Y95.027
G2 X99.03 Y95.531 I0.546 J0.
G3 X99.366 Y96.036 I-0.21 J0.504
G1 Y108.79
G3 X99.03 Y109.682 I-1.353 J0.
G2 X97.773 Y111.737 I5.314 J4.662
X97.321 Y114.102 I5.959 J2.365
X97.38 Y116.46 I47.275 J0.
X97.914 Y118.757 I6.625 J-0.331
G3 X97.808 Y119.024 I-0.187 J0.081
X97.728 Y119.041 I-0.081 J-0.187
