(frame)
(Machine)
(  vendor: Stepcraft)
(  model: 600)
(  description: stepcraft uccnc)
(T1  D=1. CR=0. - ZMIN=-2.5 - flat end mill)
G90
G0 G53 Z0.

(Holes)
T1 M6 (flat end mill D=1. Solid Carbide-End Mill O1,0mm)
(Fishtail, Diamond toothed)
S20000 M3
G64
G54
G43 H1
G0 X79.162 Y110.225
Z15.
Z5.
G1 Z2.6 F250
G3 X79.136 Y110.236 Z2.53 I-0.195 J-0.433 F333.3
X79.071 Y110.256 Z2.5 I-0.169 J-0.444
X78.504 Y109.895 Z2.474 I-0.103 J-0.464
X78.864 Y109.328 Z2.448 I0.464 J-0.103
X79.431 Y109.689 Z2.422 I0.103 J0.464
X79.071 Y110.256 Z2.396 I-0.464 J0.103
X78.504 Y109.895 Z2.37 I-0.103 J-0.464
X78.864 Y109.328 Z2.344 I0.464 J-0.103
X79.431 Y109.689 Z2.318 I0.103 J0.464
X79.071 Y110.256 Z2.292 I-0.464 J0.103
X78.504 Y109.895 Z2.266 I-0.103 J-0.464
X78.864 Y109.328 Z2.239 I0.464 J-0.103
X79.431 Y109.689 Z2.213 I0.103 J0.464
X79.071 Y110.256 Z2.187 I-0.464 J0.103
X78.504 Y109.895 Z2.161 I-0.103 J-0.464
X78.864 Y109.328 Z2.135 I0.464 J-0.103
X79.431 Y109.689 Z2.109 I0.103 J0.464
X79.071 Y110.256 Z2.083 I-0.464 J0.103
X78.504 Y109.895 Z2.057 I-0.103 J-0.464
X78.864 Y109.328 Z2.031 I0.464 J-0.103
X79.431 Y109.689 Z2.005 I0.103 J0.464
X79.071 Y110.256 Z1.979 I-0.464 J0.103
X78.504 Y109.895 Z1.953 I-0.103 J-0.464
X78.864 Y109.328 Z1.927 I0.464 J-0.103
X79.431 Y109.689 Z1.901 I0.103 J0.464
X79.071 Y110.256 Z1.875 I-0.464 J0.103
X78.504 Y109.895 Z1.849 I-0.103 J-0.464
X78.864 Y109.328 Z1.823 I0.464 J-0.103
X79.431 Y109.689 Z1.797 I0.103 J0.464
X79.071 Y110.256 Z1.77 I-0.464 J0.103
X78.504 Y109.895 Z1.744 I-0.103 J-0.464
X78.864 Y109.328 Z1.718 I0.464 J-0.103
X79.431 Y109.689 Z1.692 I0.103 J0.464
X79.071 Y110.256 Z1.666 I-0.464 J0.103
X78.504 Y109.895 Z1.64 I-0.103 J-0.464
X78.864 Y109.328 Z1.614 I0.464 J-0.103
X79.431 Y109.689 Z1.588 I0.103 J0.464
X79.071 Y110.256 Z1.562 I-0.464 J0.103
X78.504 Y109.895 Z1.536 I-0.103 J-0.464
X78.864 Y109.328 Z1.51 I0.464 J-0.103
X79.431 Y109.689 Z1.484 I0.103 J0.464
X79.071 Y110.256 Z1.458 I-0.464 J0.103
X78.504 Y109.895 Z1.432 I-0.103 J-0.464
X78.864 Y109.328 Z1.406 I0.464 J-0.103
X79.431 Y109.689 Z1.38 I0.103 J0.464
X79.071 Y110.256 Z1.354 I-0.464 J0.103
X78.504 Y109.895 Z1.328 I-0.103 J-0.464
X78.864 Y109.328 Z1.301 I0.464 J-0.103
X79.431 Y109.689 Z1.275 I0.103 J0.464
X79.071 Y110.256 Z1.249 I-0.464 J0.103
X78.504 Y109.895 Z1.223 I-0.103 J-0.464
X78.864 Y109.328 Z1.197 I0.464 J-0.103
X79.431 Y109.689 Z1.171 I0.103 J0.464
X79.071 Y110.256 Z1.145 I-0.464 J0.103
X78.504 Y109.895 Z1.119 I-0.103 J-0.464
X78.864 Y109.328 Z1.093 I0.464 J-0.103
X79.431 Y109.689 Z1.067 I0.103 J0.464
X79.071 Y110.256 Z1.041 I-0.464 J0.103
X78.504 Y109.895 Z1.015 I-0.103 J-0.464
X78.864 Y109.328 Z0.989 I0.464 J-0.103
X79.431 Y109.689 Z0.963 I0.103 J0.464
X79.071 Y110.256 Z0.937 I-0.464 J0.103
X78.504 Y109.895 Z0.911 I-0.103 J-0.464
X78.864 Y109.328 Z0.885 I0.464 J-0.103
X79.431 Y109.689 Z0.859 I0.103 J0.464
X79.071 Y110.256 Z0.832 I-0.464 J0.103
X78.504 Y109.895 Z0.806 I-0.103 J-0.464
X78.864 Y109.328 Z0.78 I0.464 J-0.103
X79.431 Y109.689 Z0.754 I0.103 J0.464
X79.071 Y110.256 Z0.728 I-0.464 J0.103
X78.504 Y109.895 Z0.702 I-0.103 J-0.464
X78.864 Y109.328 Z0.676 I0.464 J-0.103
X79.431 Y109.689 Z0.65 I0.103 J0.464
X79.071 Y110.256 Z0.624 I-0.464 J0.103
X78.504 Y109.895 Z0.598 I-0.103 J-0.464
X78.864 Y109.328 Z0.572 I0.464 J-0.103
X79.431 Y109.689 Z0.546 I0.103 J0.464
X79.071 Y110.256 Z0.52 I-0.464 J0.103
X78.504 Y109.895 Z0.494 I-0.103 J-0.464
X78.864 Y109.328 Z0.468 I0.464 J-0.103
X79.431 Y109.689 Z0.442 I0.103 J0.464
X79.071 Y110.256 Z0.416 I-0.464 J0.103
X78.504 Y109.895 Z0.39 I-0.103 J-0.464
X78.864 Y109.328 Z0.363 I0.464 J-0.103
X79.431 Y109.689 Z0.337 I0.103 J0.464
X79.071 Y110.256 Z0.311 I-0.464 J0.103
X78.504 Y109.895 Z0.285 I-0.103 J-0.464
X78.864 Y109.328 Z0.259 I0.464 J-0.103
X79.431 Y109.689 Z0.233 I0.103 J0.464
X79.071 Y110.256 Z0.207 I-0.464 J0.103
X78.504 Y109.895 Z0.181 I-0.103 J-0.464
X78.864 Y109.328 Z0.155 I0.464 J-0.103
X79.431 Y109.689 Z0.129 I0.103 J0.464
X79.071 Y110.256 Z0.103 I-0.464 J0.103
X78.504 Y109.895 Z0.077 I-0.103 J-0.464
X78.864 Y109.328 Z0.051 I0.464 J-0.103
X79.431 Y109.689 Z0.025 I0.103 J0.464
X79.071 Y110.256 Z-0.001 I-0.464 J0.103
X78.504 Y109.895 Z-0.027 I-0.103 J-0.464
X78.864 Y109.328 Z-0.053 I0.464 J-0.103
X79.431 Y109.689 Z-0.079 I0.103 J0.464
X79.071 Y110.256 Z-0.106 I-0.464 J0.103
X78.504 Y109.895 Z-0.132 I-0.103 J-0.464
X78.864 Y109.328 Z-0.158 I0.464 J-0.103
X79.431 Y109.689 Z-0.184 I0.103 J0.464
X79.071 Y110.256 Z-0.21 I-0.464 J0.103
X78.504 Y109.895 Z-0.236 I-0.103 J-0.464
X78.864 Y109.328 Z-0.262 I0.464 J-0.103
X79.431 Y109.689 Z-0.288 I0.103 J0.464
X79.071 Y110.256 Z-0.314 I-0.464 J0.103
X78.504 Y109.895 Z-0.34 I-0.103 J-0.464
X78.864 Y109.328 Z-0.366 I0.464 J-0.103
X79.431 Y109.689 Z-0.392 I0.103 J0.464
X79.071 Y110.256 Z-0.418 I-0.464 J0.103
X78.504 Y109.895 Z-0.444 I-0.103 J-0.464
X78.864 Y109.328 Z-0.47 I0.464 J-0.103
X79.431 Y109.689 Z-0.496 I0.103 J0.464
X79.442 Y109.792 Z-0.5 I-0.464 J0.103
X79.292 Y109.942 I-0.15 J0. F250
X79.142 Y109.792 I0. J-0.15
X79.767 Y109.167 I0.625 J0.
X80.392 Y109.792 I0. J0.625
X79.292 Y110.892 I-1.1 J0.
X78.192 Y109.792 I0. J-1.1
X79.292 Y108.692 I1.1 J0.
X80.392 Y109.792 I0. J1.1
X80.237 Y109.987 I-0.2 J0.
G1 X79.107 Y110.246
G3 X78.513 Y109.932 Z-0.526 I-0.14 J-0.454 F333.3
X78.828 Y109.338 Z-0.552 I0.454 J-0.14
X79.421 Y109.652 Z-0.578 I0.14 J0.454
X79.107 Y110.246 Z-0.604 I-0.454 J0.14
X78.513 Y109.932 Z-0.63 I-0.14 J-0.454
X78.828 Y109.338 Z-0.656 I0.454 J-0.14
X79.421 Y109.652 Z-0.682 I0.14 J0.454
X79.107 Y110.246 Z-0.708 I-0.454 J0.14
X78.513 Y109.932 Z-0.734 I-0.14 J-0.454
X78.828 Y109.338 Z-0.761 I0.454 J-0.14
X79.421 Y109.652 Z-0.787 I0.14 J0.454
X79.107 Y110.246 Z-0.813 I-0.454 J0.14
X78.513 Y109.932 Z-0.839 I-0.14 J-0.454
X78.828 Y109.338 Z-0.865 I0.454 J-0.14
X79.421 Y109.652 Z-0.891 I0.14 J0.454
X79.107 Y110.246 Z-0.917 I-0.454 J0.14
X78.513 Y109.932 Z-0.943 I-0.14 J-0.454
X78.828 Y109.338 Z-0.969 I0.454 J-0.14
X79.421 Y109.652 Z-0.995 I0.14 J0.454
X79.442 Y109.792 Z-1. I-0.454 J0.14
X79.292 Y109.942 I-0.15 J0. F250
X79.142 Y109.792 I0. J-0.15
X79.767 Y109.167 I0.625 J0.
X80.392 Y109.792 I0. J0.625
X79.292 Y110.892 I-1.1 J0.
X78.192 Y109.792 I0. J-1.1
X79.292 Y108.692 I1.1 J0.
X80.392 Y109.792 I0. J1.1
X80.237 Y109.987 I-0.2 J0.
G1 X79.107 Y110.246
G3 X78.513 Y109.932 Z-1.026 I-0.14 J-0.454 F333.3
X78.828 Y109.338 Z-1.052 I0.454 J-0.14
X79.421 Y109.652 Z-1.078 I0.14 J0.454
X79.107 Y110.246 Z-1.104 I-0.454 J0.14
X78.513 Y109.932 Z-1.13 I-0.14 J-0.454
X78.828 Y109.338 Z-1.156 I0.454 J-0.14
X79.421 Y109.652 Z-1.182 I0.14 J0.454
X79.107 Y110.246 Z-1.208 I-0.454 J0.14
X78.513 Y109.932 Z-1.234 I-0.14 J-0.454
X78.828 Y109.338 Z-1.261 I0.454 J-0.14
X79.421 Y109.652 Z-1.287 I0.14 J0.454
X79.107 Y110.246 Z-1.313 I-0.454 J0.14
X78.513 Y109.932 Z-1.339 I-0.14 J-0.454
X78.828 Y109.338 Z-1.365 I0.454 J-0.14
X79.421 Y109.652 Z-1.391 I0.14 J0.454
X79.107 Y110.246 Z-1.417 I-0.454 J0.14
X78.513 Y109.932 Z-1.443 I-0.14 J-0.454
X78.828 Y109.338 Z-1.469 I0.454 J-0.14
X79.421 Y109.652 Z-1.495 I0.14 J0.454
X79.442 Y109.792 Z-1.5 I-0.454 J0.14
X79.292 Y109.942 I-0.15 J0. F250
X79.142 Y109.792 I0. J-0.15
X79.767 Y109.167 I0.625 J0.
X80.392 Y109.792 I0. J0.625
X79.292 Y110.892 I-1.1 J0.
X78.192 Y109.792 I0. J-1.1
X79.292 Y108.692 I1.1 J0.
X80.392 Y109.792 I0. J1.1
X80.237 Y109.987 I-0.2 J0.
G1 X79.107 Y110.246
G3 X78.513 Y109.932 Z-1.526 I-0.14 J-0.454 F333.3
X78.828 Y109.338 Z-1.552 I0.454 J-0.14
X79.421 Y109.652 Z-1.578 I0.14 J0.454
X79.107 Y110.246 Z-1.604 I-0.454 J0.14
X78.513 Y109.932 Z-1.63 I-0.14 J-0.454
X78.828 Y109.338 Z-1.656 I0.454 J-0.14
X79.421 Y109.652 Z-1.682 I0.14 J0.454
X79.107 Y110.246 Z-1.708 I-0.454 J0.14
X78.513 Y109.932 Z-1.734 I-0.14 J-0.454
X78.828 Y109.338 Z-1.761 I0.454 J-0.14
X79.421 Y109.652 Z-1.787 I0.14 J0.454
X79.107 Y110.246 Z-1.813 I-0.454 J0.14
X78.513 Y109.932 Z-1.839 I-0.14 J-0.454
X78.828 Y109.338 Z-1.865 I0.454 J-0.14
X79.421 Y109.652 Z-1.891 I0.14 J0.454
X79.107 Y110.246 Z-1.917 I-0.454 J0.14
X78.513 Y109.932 Z-1.943 I-0.14 J-0.454
X78.828 Y109.338 Z-1.969 I0.454 J-0.14
X79.421 Y109.652 Z-1.995 I0.14 J0.454
X79.442 Y109.792 Z-2. I-0.454 J0.14
X79.292 Y109.942 I-0.15 J0. F250
X79.142 Y109.792 I0. J-0.15
X79.767 Y109.167 I0.625 J0.
X80.392 Y109.792 I0. J0.625
X79.292 Y110.892 I-1.1 J0.
X78.192 Y109.792 I0. J-1.1
X79.292 Y108.692 I1.1 J0.
X80.392 Y109.792 I0. J1.1
X80.237 Y109.987 I-0.2 J0.
G1 X79.107 Y110.246
G3 X78.513 Y109.932 Z-2.026 I-0.14 J-0.454 F333.3
X78.828 Y109.338 Z-2.052 I0.454 J-0.14
X79.421 Y109.652 Z-2.078 I0.14 J0.454
X79.107 Y110.246 Z-2.104 I-0.454 J0.14
X78.513 Y109.932 Z-2.13 I-0.14 J-0.454
X78.828 Y109.338 Z-2.156 I0.454 J-0.14
X79.421 Y109.652 Z-2.182 I0.14 J0.454
X79.107 Y110.246 Z-2.208 I-0.454 J0.14
X78.513 Y109.932 Z-2.234 I-0.14 J-0.454
X78.828 Y109.338 Z-2.261 I0.454 J-0.14
X79.421 Y109.652 Z-2.287 I0.14 J0.454
X79.107 Y110.246 Z-2.313 I-0.454 J0.14
X78.513 Y109.932 Z-2.339 I-0.14 J-0.454
X78.828 Y109.338 Z-2.365 I0.454 J-0.14
X79.421 Y109.652 Z-2.391 I0.14 J0.454
X79.107 Y110.246 Z-2.417 I-0.454 J0.14
X78.513 Y109.932 Z-2.443 I-0.14 J-0.454
X78.828 Y109.338 Z-2.469 I0.454 J-0.14
X79.421 Y109.652 Z-2.495 I0.14 J0.454
X79.442 Y109.792 Z-2.5 I-0.454 J0.14
X79.292 Y109.942 I-0.15 J0. F250
X79.142 Y109.792 I0. J-0.15
X79.767 Y109.167 I0.625 J0.
X80.392 Y109.792 I0. J0.625
X79.292 Y110.892 I-1.1 J0.
X78.192 Y109.792 I0. J-1.1
X79.292 Y108.692 I1.1 J0.
X80.392 Y109.792 I0. J1.1
X80.368 Y109.857 Z-2.471 I-0.1 J0.
X80.346 Y109.876 Z-2.4 I-0.076 J-0.065
G0 Z5.
X70.652 Y115.91
G1 Z2.6 F250
G3 X70.662 Y115.884 Z2.53 I0.447 J0.161 F333.3
X70.694 Y115.824 Z2.5 I0.436 J0.187
X71.347 Y115.667 Z2.474 I0.405 J0.248
X71.504 Y116.32 Z2.448 I-0.248 J0.405
X70.851 Y116.477 Z2.422 I-0.405 J-0.248
X70.694 Y115.824 Z2.396 I0.248 J-0.405
X71.347 Y115.667 Z2.37 I0.405 J0.248
X71.504 Y116.32 Z2.344 I-0.248 J0.405
X70.851 Y116.477 Z2.318 I-0.405 J-0.248
X70.694 Y115.824 Z2.292 I0.248 J-0.405
X71.347 Y115.667 Z2.266 I0.405 J0.248
X71.504 Y116.32 Z2.239 I-0.248 J0.405
X70.851 Y116.477 Z2.213 I-0.405 J-0.248
X70.694 Y115.824 Z2.187 I0.248 J-0.405
X71.347 Y115.667 Z2.161 I0.405 J0.248
X71.504 Y116.32 Z2.135 I-0.248 J0.405
X70.851 Y116.477 Z2.109 I-0.405 J-0.248
X70.694 Y115.824 Z2.083 I0.248 J-0.405
X71.347 Y115.667 Z2.057 I0.405 J0.248
X71.504 Y116.32 Z2.031 I-0.248 J0.405
X70.851 Y116.477 Z2.005 I-0.405 J-0.248
X70.694 Y115.824 Z1.979 I0.248 J-0.405
X71.347 Y115.667 Z1.953 I0.405 J0.248
X71.504 Y116.32 Z1.927 I-0.248 J0.405
X70.851 Y116.477 Z1.901 I-0.405 J-0.248
X70.694 Y115.824 Z1.875 I0.248 J-0.405
X71.347 Y115.667 Z1.849 I0.405 J0.248
X71.504 Y116.32 Z1.823 I-0.248 J0.405
X70.851 Y116.477 Z1.797 I-0.405 J-0.248
X70.694 Y115.824 Z1.77 I0.248 J-0.405
X71.347 Y115.667 Z1.744 I0.405 J0.248
X71.504 Y116.32 Z1.718 I-0.248 J0.405
X70.851 Y116.477 Z1.692 I-0.405 J-0.248
X70.694 Y115.824 Z1.666 I0.248 J-0.405
X71.347 Y115.667 Z1.64 I0.405 J0.248
X71.504 Y116.32 Z1.614 I-0.248 J0.405
X70.851 Y116.477 Z1.588 I-0.405 J-0.248
X70.694 Y115.824 Z1.562 I0.248 J-0.405
X71.347 Y115.667 Z1.536 I0.405 J0.248
X71.504 Y116.32 Z1.51 I-0.248 J0.405
X70.851 Y116.477 Z1.484 I-0.405 J-0.248
X70.694 Y115.824 Z1.458 I0.248 J-0.405
X71.347 Y115.667 Z1.432 I0.405 J0.248
X71.504 Y116.32 Z1.406 I-0.248 J0.405
X70.851 Y116.477 Z1.38 I-0.405 J-0.248
X70.694 Y115.824 Z1.354 I0.248 J-0.405
X71.347 Y115.667 Z1.328 I0.405 J0.248
X71.504 Y116.32 Z1.301 I-0.248 J0.405
X70.851 Y116.477 Z1.275 I-0.405 J-0.248
X70.694 Y115.824 Z1.249 I0.248 J-0.405
X71.347 Y115.667 Z1.223 I0.405 J0.248
X71.504 Y116.32 Z1.197 I-0.248 J0.405
X70.851 Y116.477 Z1.171 I-0.405 J-0.248
X70.694 Y115.824 Z1.145 I0.248 J-0.405
X71.347 Y115.667 Z1.119 I0.405 J0.248
X71.504 Y116.32 Z1.093 I-0.248 J0.405
X70.851 Y116.477 Z1.067 I-0.405 J-0.248
X70.694 Y115.824 Z1.041 I0.248 J-0.405
X71.347 Y115.667 Z1.015 I0.405 J0.248
X71.504 Y116.32 Z0.989 I-0.248 J0.405
X70.851 Y116.477 Z0.963 I-0.405 J-0.248
X70.694 Y115.824 Z0.937 I0.248 J-0.405
X71.347 Y115.667 Z0.911 I0.405 J0.248
X71.504 Y116.32 Z0.885 I-0.248 J0.405
X70.851 Y116.477 Z0.859 I-0.405 J-0.248
X70.694 Y115.824 Z0.832 I0.248 J-0.405
X71.347 Y115.667 Z0.806 I0.405 J0.248
X71.504 Y116.32 Z0.78 I-0.248 J0.405
X70.851 Y116.477 Z0.754 I-0.405 J-0.248
X70.694 Y115.824 Z0.728 I0.248 J-0.405
X71.347 Y115.667 Z0.702 I0.405 J0.248
X71.504 Y116.32 Z0.676 I-0.248 J0.405
X70.851 Y116.477 Z0.65 I-0.405 J-0.248
X70.694 Y115.824 Z0.624 I0.248 J-0.405
X71.347 Y115.667 Z0.598 I0.405 J0.248
X71.504 Y116.32 Z0.572 I-0.248 J0.405
X70.851 Y116.477 Z0.546 I-0.405 J-0.248
X70.694 Y115.824 Z0.52 I0.248 J-0.405
X71.347 Y115.667 Z0.494 I0.405 J0.248
X71.504 Y116.32 Z0.468 I-0.248 J0.405
X70.851 Y116.477 Z0.442 I-0.405 J-0.248
X70.694 Y115.824 Z0.416 I0.248 J-0.405
X71.347 Y115.667 Z0.39 I0.405 J0.248
X71.504 Y116.32 Z0.363 I-0.248 J0.405
X70.851 Y116.477 Z0.337 I-0.405 J-0.248
X70.694 Y115.824 Z0.311 I0.248 J-0.405
X71.347 Y115.667 Z0.285 I0.405 J0.248
X71.504 Y116.32 Z0.259 I-0.248 J0.405
X70.851 Y116.477 Z0.233 I-0.405 J-0.248
X70.694 Y115.824 Z0.207 I0.248 J-0.405
X71.347 Y115.667 Z0.181 I0.405 J0.248
X71.504 Y116.32 Z0.155 I-0.248 J0.405
X70.851 Y116.477 Z0.129 I-0.405 J-0.248
X70.694 Y115.824 Z0.103 I0.248 J-0.405
X71.347 Y115.667 Z0.077 I0.405 J0.248
X71.504 Y116.32 Z0.051 I-0.248 J0.405
X70.851 Y116.477 Z0.025 I-0.405 J-0.248
X70.694 Y115.824 Z-0.001 I0.248 J-0.405
X71.347 Y115.667 Z-0.027 I0.405 J0.248
X71.504 Y116.32 Z-0.053 I-0.248 J0.405
X70.851 Y116.477 Z-0.079 I-0.405 J-0.248
X70.694 Y115.824 Z-0.106 I0.248 J-0.405
X71.347 Y115.667 Z-0.132 I0.405 J0.248
X71.504 Y116.32 Z-0.158 I-0.248 J0.405
X70.851 Y116.477 Z-0.184 I-0.405 J-0.248
X70.694 Y115.824 Z-0.21 I0.248 J-0.405
X71.347 Y115.667 Z-0.236 I0.405 J0.248
X71.504 Y116.32 Z-0.262 I-0.248 J0.405
X70.851 Y116.477 Z-0.288 I-0.405 J-0.248
X70.694 Y115.824 Z-0.314 I0.248 J-0.405
X71.347 Y115.667 Z-0.34 I0.405 J0.248
X71.504 Y116.32 Z-0.366 I-0.248 J0.405
X70.851 Y116.477 Z-0.392 I-0.405 J-0.248
X70.694 Y115.824 Z-0.418 I0.248 J-0.405
X71.347 Y115.667 Z-0.444 I0.405 J0.248
X71.504 Y116.32 Z-0.47 I-0.248 J0.405
X70.851 Y116.477 Z-0.496 I-0.405 J-0.248
X70.769 Y116.413 Z-0.5 I0.248 J-0.405
G1 X70.765 Y116.41 F250
G3 Y116.02 I0.195 J-0.195
X70.96 Y115.94 I0.195 J0.195
X71.155 Y116.02 I0. J0.275
X72.094 Y116.991 I-29.452 J29.427
G2 X73.032 Y117.961 I29.961 J-28.04
G3 Y118.287 I-0.163 J0.163
X72.706 I-0.163 J-0.163
G1 X70.769 Y116.413
G2 X70.4 Y116.308 I-0.283 J0.293
G3 X70.129 Y116.132 I-0.048 J-0.223
Y116.036 I0.223 J-0.048
X71.139 Y115.384 I0.831 J0.179
X71.561 Y115.614 I-0.179 J0.831
G1 X73.47 Y117.523
G3 Y118.725 I-0.601 J0.601
X72.268 I-0.601 J-0.601
G1 X70.359 Y116.816
G3 X70.129 Y116.036 I0.601 J-0.601
X70.276 Y115.923 I0.141 J0.03
G1 X70.541 Y115.935
G2 X70.675 Y115.856 I0.006 J-0.144
G3 X71.314 Y115.648 Z-0.526 I0.423 J0.215 F333.3
X71.522 Y116.287 Z-0.552 I-0.215 J0.423
X70.883 Y116.495 Z-0.578 I-0.423 J-0.215
X70.675 Y115.856 Z-0.604 I0.215 J-0.423
X71.314 Y115.648 Z-0.63 I0.423 J0.215
X71.522 Y116.287 Z-0.656 I-0.215 J0.423
X70.883 Y116.495 Z-0.682 I-0.423 J-0.215
X70.675 Y115.856 Z-0.708 I0.215 J-0.423
X71.314 Y115.648 Z-0.734 I0.423 J0.215
X71.522 Y116.287 Z-0.761 I-0.215 J0.423
X70.883 Y116.495 Z-0.787 I-0.423 J-0.215
X70.675 Y115.856 Z-0.813 I0.215 J-0.423
X71.314 Y115.648 Z-0.839 I0.423 J0.215
X71.522 Y116.287 Z-0.865 I-0.215 J0.423
X70.883 Y116.495 Z-0.891 I-0.423 J-0.215
X70.675 Y115.856 Z-0.917 I0.215 J-0.423
X71.314 Y115.648 Z-0.943 I0.423 J0.215
X71.522 Y116.287 Z-0.969 I-0.215 J0.423
X70.883 Y116.495 Z-0.995 I-0.423 J-0.215
X70.769 Y116.413 Z-1. I0.215 J-0.423
G1 X70.765 Y116.41 F250
G3 Y116.02 I0.195 J-0.195
X70.96 Y115.94 I0.195 J0.195
X71.155 Y116.02 I0. J0.275
X72.094 Y116.991 I-29.452 J29.427
G2 X73.032 Y117.961 I29.961 J-28.04
G3 Y118.287 I-0.163 J0.163
X72.706 I-0.163 J-0.163
G1 X70.769 Y116.413
G2 X70.4 Y116.308 I-0.283 J0.293
G3 X70.129 Y116.132 I-0.048 J-0.223
Y116.036 I0.223 J-0.048
X71.139 Y115.384 I0.831 J0.179
X71.561 Y115.614 I-0.179 J0.831
G1 X73.47 Y117.523
G3 Y118.725 I-0.601 J0.601
X72.268 I-0.601 J-0.601
G1 X70.359 Y116.816
G3 X70.129 Y116.036 I0.601 J-0.601
X70.276 Y115.923 I0.141 J0.03
G1 X70.541 Y115.935
G2 X70.675 Y115.856 I0.006 J-0.144
G3 X71.314 Y115.648 Z-1.026 I0.423 J0.215 F333.3
X71.522 Y116.287 Z-1.052 I-0.215 J0.423
X70.883 Y116.495 Z-1.078 I-0.423 J-0.215
X70.675 Y115.856 Z-1.104 I0.215 J-0.423
X71.314 Y115.648 Z-1.13 I0.423 J0.215
X71.522 Y116.287 Z-1.156 I-0.215 J0.423
X70.883 Y116.495 Z-1.182 I-0.423 J-0.215
X70.675 Y115.856 Z-1.208 I0.215 J-0.423
X71.314 Y115.648 Z-1.234 I0.423 J0.215
X71.522 Y116.287 Z-1.261 I-0.215 J0.423
X70.883 Y116.495 Z-1.287 I-0.423 J-0.215
X70.675 Y115.856 Z-1.313 I0.215 J-0.423
X71.314 Y115.648 Z-1.339 I0.423 J0.215
X71.522 Y116.287 Z-1.365 I-0.215 J0.423
X70.883 Y116.495 Z-1.391 I-0.423 J-0.215
X70.675 Y115.856 Z-1.417 I0.215 J-0.423
X71.314 Y115.648 Z-1.443 I0.423 J0.215
X71.522 Y116.287 Z-1.469 I-0.215 J0.423
X70.883 Y116.495 Z-1.495 I-0.423 J-0.215
X70.769 Y116.413 Z-1.5 I0.215 J-0.423
G1 X70.765 Y116.41 F250
G3 Y116.02 I0.195 J-0.195
X70.96 Y115.94 I0.195 J0.195
X71.155 Y116.02 I0. J0.275
X72.094 Y116.991 I-29.452 J29.427
G2 X73.032 Y117.961 I29.961 J-28.04
G3 Y118.287 I-0.163 J0.163
X72.706 I-0.163 J-0.163
G1 X70.769 Y116.413
G2 X70.4 Y116.308 I-0.283 J0.293
G3 X70.129 Y116.132 I-0.048 J-0.223
Y116.036 I0.223 J-0.048
X71.139 Y115.384 I0.831 J0.179
X71.561 Y115.614 I-0.179 J0.831
G1 X73.47 Y117.523
G3 Y118.725 I-0.601 J0.601
X72.268 I-0.601 J-0.601
G1 X70.359 Y116.816
G3 X70.129 Y116.036 I0.601 J-0.601
X70.276 Y115.923 I0.141 J0.03
G1 X70.541 Y115.935
G2 X70.675 Y115.856 I0.006 J-0.144
G3 X71.314 Y115.648 Z-1.526 I0.423 J0.215 F333.3
X71.522 Y116.287 Z-1.552 I-0.215 J0.423
X70.883 Y116.495 Z-1.578 I-0.423 J-0.215
X70.675 Y115.856 Z-1.604 I0.215 J-0.423
X71.314 Y115.648 Z-1.63 I0.423 J0.215
X71.522 Y116.287 Z-1.656 I-0.215 J0.423
X70.883 Y116.495 Z-1.682 I-0.423 J-0.215
X70.675 Y115.856 Z-1.708 I0.215 J-0.423
X71.314 Y115.648 Z-1.734 I0.423 J0.215
X71.522 Y116.287 Z-1.761 I-0.215 J0.423
X70.883 Y116.495 Z-1.787 I-0.423 J-0.215
X70.675 Y115.856 Z-1.813 I0.215 J-0.423
X71.314 Y115.648 Z-1.839 I0.423 J0.215
X71.522 Y116.287 Z-1.865 I-0.215 J0.423
X70.883 Y116.495 Z-1.891 I-0.423 J-0.215
X70.675 Y115.856 Z-1.917 I0.215 J-0.423
X71.314 Y115.648 Z-1.943 I0.423 J0.215
X71.522 Y116.287 Z-1.969 I-0.215 J0.423
X70.883 Y116.495 Z-1.995 I-0.423 J-0.215
X70.769 Y116.413 Z-2. I0.215 J-0.423
G1 X70.765 Y116.41 F250
G3 Y116.02 I0.195 J-0.195
X70.96 Y115.94 I0.195 J0.195
X71.155 Y116.02 I0. J0.275
X72.094 Y116.991 I-29.452 J29.427
G2 X73.032 Y117.961 I29.961 J-28.04
G3 Y118.287 I-0.163 J0.163
X72.706 I-0.163 J-0.163
G1 X70.769 Y116.413
G2 X70.4 Y116.308 I-0.283 J0.293
G3 X70.129 Y116.132 I-0.048 J-0.223
Y116.036 I0.223 J-0.048
X71.139 Y115.384 I0.831 J0.179
X71.561 Y115.614 I-0.179 J0.831
G1 X73.47 Y117.523
G3 Y118.725 I-0.601 J0.601
X72.268 I-0.601 J-0.601
G1 X70.359 Y116.816
G3 X70.129 Y116.036 I0.601 J-0.601
X70.276 Y115.923 I0.141 J0.03
G1 X70.541 Y115.935
G2 X70.675 Y115.856 I0.006 J-0.144
G3 X71.314 Y115.648 Z-2.026 I0.423 J0.215 F333.3
X71.522 Y116.287 Z-2.052 I-0.215 J0.423
X70.883 Y116.495 Z-2.078 I-0.423 J-0.215
X70.675 Y115.856 Z-2.104 I0.215 J-0.423
X71.314 Y115.648 Z-2.13 I0.423 J0.215
X71.522 Y116.287 Z-2.156 I-0.215 J0.423
X70.883 Y116.495 Z-2.182 I-0.423 J-0.215
X70.675 Y115.856 Z-2.208 I0.215 J-0.423
X71.314 Y115.648 Z-2.234 I0.423 J0.215
X71.522 Y116.287 Z-2.261 I-0.215 J0.423
X70.883 Y116.495 Z-2.287 I-0.423 J-0.215
X70.675 Y115.856 Z-2.313 I0.215 J-0.423
X71.314 Y115.648 Z-2.339 I0.423 J0.215
X71.522 Y116.287 Z-2.365 I-0.215 J0.423
X70.883 Y116.495 Z-2.391 I-0.423 J-0.215
X70.675 Y115.856 Z-2.417 I0.215 J-0.423
X71.314 Y115.648 Z-2.443 I0.423 J0.215
X71.522 Y116.287 Z-2.469 I-0.215 J0.423
X70.883 Y116.495 Z-2.495 I-0.423 J-0.215
X70.769 Y116.413 Z-2.5 I0.215 J-0.423
G1 X70.765 Y116.41 F250
G3 Y116.02 I0.195 J-0.195
X70.96 Y115.94 I0.195 J0.195
X71.155 Y116.02 I0. J0.275
X72.094 Y116.991 I-29.452 J29.427
G2 X73.032 Y117.961 I29.961 J-28.04
G3 Y118.287 I-0.163 J0.163
X72.706 I-0.163 J-0.163
G1 X70.769 Y116.413
G2 X70.4 Y116.308 I-0.283 J0.293
G3 X70.129 Y116.132 I-0.048 J-0.223
Y116.036 I0.223 J-0.048
X71.139 Y115.384 I0.831 J0.179
X71.561 Y115.614 I-0.179 J0.831
G1 X73.47 Y117.523
G3 Y118.725 I-0.601 J0.601
X72.268 I-0.601 J-0.601
G1 X70.359 Y116.816
G3 X70.129 Y116.036 I0.601 J-0.601
X70.166 Y115.978 Z-2.471 I0.098 J0.021
X70.192 Y115.964 Z-2.4 I0.061 J0.08
G0 Z5.
X78.562 Y129.825
G1 Z2.6 F250
G3 X78.536 Y129.836 Z2.53 I-0.195 J-0.433 F333.3
X78.471 Y129.856 Z2.5 I-0.169 J-0.444
X78.082 Y129.772 Z2.486 I-0.103 J-0.464
X77.987 Y129.107 Z2.46 I0.285 J-0.38
X78.652 Y129.012 Z2.434 I0.38 J0.285
X78.747 Y129.677 Z2.408 I-0.285 J0.38
X78.082 Y129.772 Z2.381 I-0.38 J-0.285
X77.987 Y129.107 Z2.355 I0.285 J-0.38
X78.652 Y129.012 Z2.329 I0.38 J0.285
X78.747 Y129.677 Z2.303 I-0.285 J0.38
X78.082 Y129.772 Z2.277 I-0.38 J-0.285
X77.987 Y129.107 Z2.251 I0.285 J-0.38
X78.652 Y129.012 Z2.225 I0.38 J0.285
X78.747 Y129.677 Z2.199 I-0.285 J0.38
X78.082 Y129.772 Z2.173 I-0.38 J-0.285
X77.987 Y129.107 Z2.147 I0.285 J-0.38
X78.652 Y129.012 Z2.121 I0.38 J0.285
X78.747 Y129.677 Z2.095 I-0.285 J0.38
X78.082 Y129.772 Z2.069 I-0.38 J-0.285
X77.987 Y129.107 Z2.043 I0.285 J-0.38
X78.652 Y129.012 Z2.017 I0.38 J0.285
X78.747 Y129.677 Z1.991 I-0.285 J0.38
X78.082 Y129.772 Z1.965 I-0.38 J-0.285
X77.987 Y129.107 Z1.939 I0.285 J-0.38
X78.652 Y129.012 Z1.912 I0.38 J0.285
X78.747 Y129.677 Z1.886 I-0.285 J0.38
X78.082 Y129.772 Z1.86 I-0.38 J-0.285
X77.987 Y129.107 Z1.834 I0.285 J-0.38
X78.652 Y129.012 Z1.808 I0.38 J0.285
X78.747 Y129.677 Z1.782 I-0.285 J0.38
X78.082 Y129.772 Z1.756 I-0.38 J-0.285
X77.987 Y129.107 Z1.73 I0.285 J-0.38
X78.652 Y129.012 Z1.704 I0.38 J0.285
X78.747 Y129.677 Z1.678 I-0.285 J0.38
X78.082 Y129.772 Z1.652 I-0.38 J-0.285
X77.987 Y129.107 Z1.626 I0.285 J-0.38
X78.652 Y129.012 Z1.6 I0.38 J0.285
X78.747 Y129.677 Z1.574 I-0.285 J0.38
X78.082 Y129.772 Z1.548 I-0.38 J-0.285
X77.987 Y129.107 Z1.522 I0.285 J-0.38
X78.652 Y129.012 Z1.496 I0.38 J0.285
X78.747 Y129.677 Z1.47 I-0.285 J0.38
X78.082 Y129.772 Z1.443 I-0.38 J-0.285
X77.987 Y129.107 Z1.417 I0.285 J-0.38
X78.652 Y129.012 Z1.391 I0.38 J0.285
X78.747 Y129.677 Z1.365 I-0.285 J0.38
X78.082 Y129.772 Z1.339 I-0.38 J-0.285
X77.987 Y129.107 Z1.313 I0.285 J-0.38
X78.652 Y129.012 Z1.287 I0.38 J0.285
X78.747 Y129.677 Z1.261 I-0.285 J0.38
X78.082 Y129.772 Z1.235 I-0.38 J-0.285
X77.987 Y129.107 Z1.209 I0.285 J-0.38
X78.652 Y129.012 Z1.183 I0.38 J0.285
X78.747 Y129.677 Z1.157 I-0.285 J0.38
X78.082 Y129.772 Z1.131 I-0.38 J-0.285
X77.987 Y129.107 Z1.105 I0.285 J-0.38
X78.652 Y129.012 Z1.079 I0.38 J0.285
X78.747 Y129.677 Z1.053 I-0.285 J0.38
X78.082 Y129.772 Z1.027 I-0.38 J-0.285
X77.987 Y129.107 Z1.001 I0.285 J-0.38
X78.652 Y129.012 Z0.974 I0.38 J0.285
X78.747 Y129.677 Z0.948 I-0.285 J0.38
X78.082 Y129.772 Z0.922 I-0.38 J-0.285
X77.987 Y129.107 Z0.896 I0.285 J-0.38
X78.652 Y129.012 Z0.87 I0.38 J0.285
X78.747 Y129.677 Z0.844 I-0.285 J0.38
X78.082 Y129.772 Z0.818 I-0.38 J-0.285
X77.987 Y129.107 Z0.792 I0.285 J-0.38
X78.652 Y129.012 Z0.766 I0.38 J0.285
X78.747 Y129.677 Z0.74 I-0.285 J0.38
X78.082 Y129.772 Z0.714 I-0.38 J-0.285
X77.987 Y129.107 Z0.688 I0.285 J-0.38
X78.652 Y129.012 Z0.662 I0.38 J0.285
X78.747 Y129.677 Z0.636 I-0.285 J0.38
X78.082 Y129.772 Z0.61 I-0.38 J-0.285
X77.987 Y129.107 Z0.584 I0.285 J-0.38
X78.652 Y129.012 Z0.558 I0.38 J0.285
X78.747 Y129.677 Z0.532 I-0.285 J0.38
X78.082 Y129.772 Z0.505 I-0.38 J-0.285
X77.987 Y129.107 Z0.479 I0.285 J-0.38
X78.652 Y129.012 Z0.453 I0.38 J0.285
X78.747 Y129.677 Z0.427 I-0.285 J0.38
X78.082 Y129.772 Z0.401 I-0.38 J-0.285
X77.987 Y129.107 Z0.375 I0.285 J-0.38
X78.652 Y129.012 Z0.349 I0.38 J0.285
X78.747 Y129.677 Z0.323 I-0.285 J0.38
X78.082 Y129.772 Z0.297 I-0.38 J-0.285
X77.987 Y129.107 Z0.271 I0.285 J-0.38
X78.652 Y129.012 Z0.245 I0.38 J0.285
X78.747 Y129.677 Z0.219 I-0.285 J0.38
X78.082 Y129.772 Z0.193 I-0.38 J-0.285
X77.987 Y129.107 Z0.167 I0.285 J-0.38
X78.652 Y129.012 Z0.141 I0.38 J0.285
X78.747 Y129.677 Z0.115 I-0.285 J0.38
X78.082 Y129.772 Z0.089 I-0.38 J-0.285
X77.987 Y129.107 Z0.063 I0.285 J-0.38
X78.652 Y129.012 Z0.036 I0.38 J0.285
X78.747 Y129.677 Z0.01 I-0.285 J0.38
X78.082 Y129.772 Z-0.016 I-0.38 J-0.285
X77.987 Y129.107 Z-0.042 I0.285 J-0.38
X78.652 Y129.012 Z-0.068 I0.38 J0.285
X78.747 Y129.677 Z-0.094 I-0.285 J0.38
X78.082 Y129.772 Z-0.12 I-0.38 J-0.285
X77.987 Y129.107 Z-0.146 I0.285 J-0.38
X78.652 Y129.012 Z-0.172 I0.38 J0.285
X78.747 Y129.677 Z-0.198 I-0.285 J0.38
X78.082 Y129.772 Z-0.224 I-0.38 J-0.285
X77.987 Y129.107 Z-0.25 I0.285 J-0.38
X78.652 Y129.012 Z-0.276 I0.38 J0.285
X78.747 Y129.677 Z-0.302 I-0.285 J0.38
X78.082 Y129.772 Z-0.328 I-0.38 J-0.285
X77.987 Y129.107 Z-0.354 I0.285 J-0.38
X78.652 Y129.012 Z-0.38 I0.38 J0.285
X78.747 Y129.677 Z-0.406 I-0.285 J0.38
X78.082 Y129.772 Z-0.433 I-0.38 J-0.285
X77.987 Y129.107 Z-0.459 I0.285 J-0.38
X78.652 Y129.012 Z-0.485 I0.38 J0.285
X78.842 Y129.392 Z-0.5 I-0.285 J0.38
X78.692 Y129.542 I-0.15 J0. F250
X78.542 Y129.392 I0. J-0.15
X79.167 Y128.767 I0.625 J0.
X79.792 Y129.392 I0. J0.625
X78.692 Y130.492 I-1.1 J0.
X77.592 Y129.392 I0. J-1.1
X78.692 Y128.292 I1.1 J0.
X79.792 Y129.392 I0. J1.1
X79.637 Y129.587 I-0.2 J0.
G1 X78.507 Y129.846
G3 X77.913 Y129.532 Z-0.526 I-0.14 J-0.454 F333.3
X78.228 Y128.938 Z-0.552 I0.454 J-0.14
X78.821 Y129.252 Z-0.578 I0.14 J0.454
X78.507 Y129.846 Z-0.604 I-0.454 J0.14
X77.913 Y129.532 Z-0.63 I-0.14 J-0.454
X78.228 Y128.938 Z-0.656 I0.454 J-0.14
X78.821 Y129.252 Z-0.682 I0.14 J0.454
X78.507 Y129.846 Z-0.708 I-0.454 J0.14
X77.913 Y129.532 Z-0.734 I-0.14 J-0.454
X78.228 Y128.938 Z-0.761 I0.454 J-0.14
X78.821 Y129.252 Z-0.787 I0.14 J0.454
X78.507 Y129.846 Z-0.813 I-0.454 J0.14
X77.913 Y129.532 Z-0.839 I-0.14 J-0.454
X78.228 Y128.938 Z-0.865 I0.454 J-0.14
X78.821 Y129.252 Z-0.891 I0.14 J0.454
X78.507 Y129.846 Z-0.917 I-0.454 J0.14
X77.913 Y129.532 Z-0.943 I-0.14 J-0.454
X78.228 Y128.938 Z-0.969 I0.454 J-0.14
X78.821 Y129.252 Z-0.995 I0.14 J0.454
X78.842 Y129.392 Z-1. I-0.454 J0.14
X78.692 Y129.542 I-0.15 J0. F250
X78.542 Y129.392 I0. J-0.15
X79.167 Y128.767 I0.625 J0.
X79.792 Y129.392 I0. J0.625
X78.692 Y130.492 I-1.1 J0.
X77.592 Y129.392 I0. J-1.1
X78.692 Y128.292 I1.1 J0.
X79.792 Y129.392 I0. J1.1
X79.637 Y129.587 I-0.2 J0.
G1 X78.507 Y129.846
G3 X77.913 Y129.532 Z-1.026 I-0.14 J-0.454 F333.3
X78.228 Y128.938 Z-1.052 I0.454 J-0.14
X78.821 Y129.252 Z-1.078 I0.14 J0.454
X78.507 Y129.846 Z-1.104 I-0.454 J0.14
X77.913 Y129.532 Z-1.13 I-0.14 J-0.454
X78.228 Y128.938 Z-1.156 I0.454 J-0.14
X78.821 Y129.252 Z-1.182 I0.14 J0.454
X78.507 Y129.846 Z-1.208 I-0.454 J0.14
X77.913 Y129.532 Z-1.234 I-0.14 J-0.454
X78.228 Y128.938 Z-1.261 I0.454 J-0.14
X78.821 Y129.252 Z-1.287 I0.14 J0.454
X78.507 Y129.846 Z-1.313 I-0.454 J0.14
X77.913 Y129.532 Z-1.339 I-0.14 J-0.454
X78.228 Y128.938 Z-1.365 I0.454 J-0.14
X78.821 Y129.252 Z-1.391 I0.14 J0.454
X78.507 Y129.846 Z-1.417 I-0.454 J0.14
X77.913 Y129.532 Z-1.443 I-0.14 J-0.454
X78.228 Y128.938 Z-1.469 I0.454 J-0.14
X78.821 Y129.252 Z-1.495 I0.14 J0.454
X78.842 Y129.392 Z-1.5 I-0.454 J0.14
X78.692 Y129.542 I-0.15 J0. F250
X78.542 Y129.392 I0. J-0.15
X79.167 Y128.767 I0.625 J0.
X79.792 Y129.392 I0. J0.625
X78.692 Y130.492 I-1.1 J0.
X77.592 Y129.392 I0. J-1.1
X78.692 Y128.292 I1.1 J0.
X79.792 Y129.392 I0. J1.1
X79.637 Y129.587 I-0.2 J0.
G1 X78.507 Y129.846
G3 X77.913 Y129.532 Z-1.526 I-0.14 J-0.454 F333.3
X78.228 Y128.938 Z-1.552 I0.454 J-0.14
X78.821 Y129.252 Z-1.578 I0.14 J0.454
X78.507 Y129.846 Z-1.604 I-0.454 J0.14
X77.913 Y129.532 Z-1.63 I-0.14 J-0.454
X78.228 Y128.938 Z-1.656 I0.454 J-0.14
X78.821 Y129.252 Z-1.682 I0.14 J0.454
X78.507 Y129.846 Z-1.708 I-0.454 J0.14
X77.913 Y129.532 Z-1.734 I-0.14 J-0.454
X78.228 Y128.938 Z-1.761 I0.454 J-0.14
X78.821 Y129.252 Z-1.787 I0.14 J0.454
X78.507 Y129.846 Z-1.813 I-0.454 J0.14
X77.913 Y129.532 Z-1.839 I-0.14 J-0.454
X78.228 Y128.938 Z-1.865 I0.454 J-0.14
X78.821 Y129.252 Z-1.891 I0.14 J0.454
X78.507 Y129.846 Z-1.917 I-0.454 J0.14
X77.913 Y129.532 Z-1.943 I-0.14 J-0.454
X78.228 Y128.938 Z-1.969 I0.454 J-0.14
X78.821 Y129.252 Z-1.995 I0.14 J0.454
X78.842 Y129.392 Z-2. I-0.454 J0.14
X78.692 Y129.542 I-0.15 J0. F250
X78.542 Y129.392 I0. J-0.15
X79.167 Y128.767 I0.625 J0.
X79.792 Y129.392 I0. J0.625
X78.692 Y130.492 I-1.1 J0.
X77.592 Y129.392 I0. J-1.1
X78.692 Y128.292 I1.1 J0.
X79.792 Y129.392 I0. J1.1
X79.637 Y129.587 I-0.2 J0.
G1 X78.507 Y129.846
G3 X77.913 Y129.532 Z-2.026 I-0.14 J-0.454 F333.3
X78.228 Y128.938 Z-2.052 I0.454 J-0.14
X78.821 Y129.252 Z-2.078 I0.14 J0.454
X78.507 Y129.846 Z-2.104 I-0.454 J0.14
X77.913 Y129.532 Z-2.13 I-0.14 J-0.454
X78.228 Y128.938 Z-2.156 I0.454 J-0.14
X78.821 Y129.252 Z-2.182 I0.14 J0.454
X78.507 Y129.846 Z-2.208 I-0.454 J0.14
X77.913 Y129.532 Z-2.234 I-0.14 J-0.454
X78.228 Y128.938 Z-2.261 I0.454 J-0.14
X78.821 Y129.252 Z-2.287 I0.14 J0.454
X78.507 Y129.846 Z-2.313 I-0.454 J0.14
X77.913 Y129.532 Z-2.339 I-0.14 J-0.454
X78.228 Y128.938 Z-2.365 I0.454 J-0.14
X78.821 Y129.252 Z-2.391 I0.14 J0.454
X78.507 Y129.846 Z-2.417 I-0.454 J0.14
X77.913 Y129.532 Z-2.443 I-0.14 J-0.454
X78.228 Y128.938 Z-2.469 I0.454 J-0.14
X78.821 Y129.252 Z-2.495 I0.14 J0.454
X78.842 Y129.392 Z-2.5 I-0.454 J0.14
X78.692 Y129.542 I-0.15 J0. F250
X78.542 Y129.392 I0. J-0.15
X79.167 Y128.767 I0.625 J0.
X79.792 Y129.392 I0. J0.625
X78.692 Y130.492 I-1.1 J0.
X77.592 Y129.392 I0. J-1.1
X78.692 Y128.292 I1.1 J0.
X79.792 Y129.392 I0. J1.1
X79.768 Y129.457 Z-2.471 I-0.1 J0.
X79.746 Y129.476 Z-2.4 I-0.076 J-0.065
G0 Z5.
X110.262 Y129.825
G1 Z2.6 F250
G3 X110.236 Y129.836 Z2.53 I-0.195 J-0.433 F333.3
X110.17 Y129.856 Z2.5 I-0.169 J-0.444
X109.782 Y129.772 Z2.486 I-0.103 J-0.464
X109.687 Y129.107 Z2.46 I0.285 J-0.38
X110.352 Y129.012 Z2.434 I0.38 J0.285
X110.447 Y129.677 Z2.408 I-0.285 J0.38
X109.782 Y129.772 Z2.381 I-0.38 J-0.285
X109.687 Y129.107 Z2.355 I0.285 J-0.38
X110.352 Y129.012 Z2.329 I0.38 J0.285
X110.447 Y129.677 Z2.303 I-0.285 J0.38
X109.782 Y129.772 Z2.277 I-0.38 J-0.285
X109.687 Y129.107 Z2.251 I0.285 J-0.38
X110.352 Y129.012 Z2.225 I0.38 J0.285
X110.447 Y129.677 Z2.199 I-0.285 J0.38
X109.782 Y129.772 Z2.173 I-0.38 J-0.285
X109.687 Y129.107 Z2.147 I0.285 J-0.38
X110.352 Y129.012 Z2.121 I0.38 J0.285
X110.447 Y129.677 Z2.095 I-0.285 J0.38
X109.782 Y129.772 Z2.069 I-0.38 J-0.285
X109.687 Y129.107 Z2.043 I0.285 J-0.38
X110.352 Y129.012 Z2.017 I0.38 J0.285
X110.447 Y129.677 Z1.991 I-0.285 J0.38
X109.782 Y129.772 Z1.965 I-0.38 J-0.285
X109.687 Y129.107 Z1.939 I0.285 J-0.38
X110.352 Y129.012 Z1.912 I0.38 J0.285
X110.447 Y129.677 Z1.886 I-0.285 J0.38
X109.782 Y129.772 Z1.86 I-0.38 J-0.285
X109.687 Y129.107 Z1.834 I0.285 J-0.38
X110.352 Y129.012 Z1.808 I0.38 J0.285
X110.447 Y129.677 Z1.782 I-0.285 J0.38
X109.782 Y129.772 Z1.756 I-0.38 J-0.285
X109.687 Y129.107 Z1.73 I0.285 J-0.38
X110.352 Y129.012 Z1.704 I0.38 J0.285
X110.447 Y129.677 Z1.678 I-0.285 J0.38
X109.782 Y129.772 Z1.652 I-0.38 J-0.285
X109.687 Y129.107 Z1.626 I0.285 J-0.38
X110.352 Y129.012 Z1.6 I0.38 J0.285
X110.447 Y129.677 Z1.574 I-0.285 J0.38
X109.782 Y129.772 Z1.548 I-0.38 J-0.285
X109.687 Y129.107 Z1.522 I0.285 J-0.38
X110.352 Y129.012 Z1.496 I0.38 J0.285
X110.447 Y129.677 Z1.47 I-0.285 J0.38
X109.782 Y129.772 Z1.443 I-0.38 J-0.285
X109.687 Y129.107 Z1.417 I0.285 J-0.38
X110.352 Y129.012 Z1.391 I0.38 J0.285
X110.447 Y129.677 Z1.365 I-0.285 J0.38
X109.782 Y129.772 Z1.339 I-0.38 J-0.285
X109.687 Y129.107 Z1.313 I0.285 J-0.38
X110.352 Y129.012 Z1.287 I0.38 J0.285
X110.447 Y129.677 Z1.261 I-0.285 J0.38
X109.782 Y129.772 Z1.235 I-0.38 J-0.285
X109.687 Y129.107 Z1.209 I0.285 J-0.38
X110.352 Y129.012 Z1.183 I0.38 J0.285
X110.447 Y129.677 Z1.157 I-0.285 J0.38
X109.782 Y129.772 Z1.131 I-0.38 J-0.285
X109.687 Y129.107 Z1.105 I0.285 J-0.38
X110.352 Y129.012 Z1.079 I0.38 J0.285
X110.447 Y129.677 Z1.053 I-0.285 J0.38
X109.782 Y129.772 Z1.027 I-0.38 J-0.285
X109.687 Y129.107 Z1.001 I0.285 J-0.38
X110.352 Y129.012 Z0.974 I0.38 J0.285
X110.447 Y129.677 Z0.948 I-0.285 J0.38
X109.782 Y129.772 Z0.922 I-0.38 J-0.285
X109.687 Y129.107 Z0.896 I0.285 J-0.38
X110.352 Y129.012 Z0.87 I0.38 J0.285
X110.447 Y129.677 Z0.844 I-0.285 J0.38
X109.782 Y129.772 Z0.818 I-0.38 J-0.285
X109.687 Y129.107 Z0.792 I0.285 J-0.38
X110.352 Y129.012 Z0.766 I0.38 J0.285
X110.447 Y129.677 Z0.74 I-0.285 J0.38
X109.782 Y129.772 Z0.714 I-0.38 J-0.285
X109.687 Y129.107 Z0.688 I0.285 J-0.38
X110.352 Y129.012 Z0.662 I0.38 J0.285
X110.447 Y129.677 Z0.636 I-0.285 J0.38
X109.782 Y129.772 Z0.61 I-0.38 J-0.285
X109.687 Y129.107 Z0.584 I0.285 J-0.38
X110.352 Y129.012 Z0.558 I0.38 J0.285
X110.447 Y129.677 Z0.532 I-0.285 J0.38
X109.782 Y129.772 Z0.505 I-0.38 J-0.285
X109.687 Y129.107 Z0.479 I0.285 J-0.38
X110.352 Y129.012 Z0.453 I0.38 J0.285
X110.447 Y129.677 Z0.427 I-0.285 J0.38
X109.782 Y129.772 Z0.401 I-0.38 J-0.285
X109.687 Y129.107 Z0.375 I0.285 J-0.38
X110.352 Y129.012 Z0.349 I0.38 J0.285
X110.447 Y129.677 Z0.323 I-0.285 J0.38
X109.782 Y129.772 Z0.297 I-0.38 J-0.285
X109.687 Y129.107 Z0.271 I0.285 J-0.38
X110.352 Y129.012 Z0.245 I0.38 J0.285
X110.447 Y129.677 Z0.219 I-0.285 J0.38
X109.782 Y129.772 Z0.193 I-0.38 J-0.285
X109.687 Y129.107 Z0.167 I0.285 J-0.38
X110.352 Y129.012 Z0.141 I0.38 J0.285
X110.447 Y129.677 Z0.115 I-0.285 J0.38
X109.782 Y129.772 Z0.089 I-0.38 J-0.285
X109.687 Y129.107 Z0.063 I0.285 J-0.38
X110.352 Y129.012 Z0.036 I0.38 J0.285
X110.447 Y129.677 Z0.01 I-0.285 J0.38
X109.782 Y129.772 Z-0.016 I-0.38 J-0.285
X109.687 Y129.107 Z-0.042 I0.285 J-0.38
X110.352 Y129.012 Z-0.068 I0.38 J0.285
X110.447 Y129.677 Z-0.094 I-0.285 J0.38
X109.782 Y129.772 Z-0.12 I-0.38 J-0.285
X109.687 Y129.107 Z-0.146 I0.285 J-0.38
X110.352 Y129.012 Z-0.172 I0.38 J0.285
X110.447 Y129.677 Z-0.198 I-0.285 J0.38
X109.782 Y129.772 Z-0.224 I-0.38 J-0.285
X109.687 Y129.107 Z-0.25 I0.285 J-0.38
X110.352 Y129.012 Z-0.276 I0.38 J0.285
X110.447 Y129.677 Z-0.302 I-0.285 J0.38
X109.782 Y129.772 Z-0.328 I-0.38 J-0.285
X109.687 Y129.107 Z-0.354 I0.285 J-0.38
X110.352 Y129.012 Z-0.38 I0.38 J0.285
X110.447 Y129.677 Z-0.406 I-0.285 J0.38
X109.782 Y129.772 Z-0.433 I-0.38 J-0.285
X109.687 Y129.107 Z-0.459 I0.285 J-0.38
X110.352 Y129.012 Z-0.485 I0.38 J0.285
X110.542 Y129.392 Z-0.5 I-0.285 J0.38
X110.392 Y129.542 I-0.15 J0. F250
X110.242 Y129.392 I0. J-0.15
X110.867 Y128.767 I0.625 J0.
X111.492 Y129.392 I0. J0.625
X110.392 Y130.492 I-1.1 J0.
X109.292 Y129.392 I0. J-1.1
X110.392 Y128.292 I1.1 J0.
X111.492 Y129.392 I0. J1.1
X111.337 Y129.587 I-0.2 J0.
G1 X110.207 Y129.846
G3 X109.613 Y129.532 Z-0.526 I-0.14 J-0.454 F333.3
X109.927 Y128.938 Z-0.552 I0.454 J-0.14
X110.521 Y129.252 Z-0.578 I0.14 J0.454
X110.207 Y129.846 Z-0.604 I-0.454 J0.14
X109.613 Y129.532 Z-0.63 I-0.14 J-0.454
X109.927 Y128.938 Z-0.656 I0.454 J-0.14
X110.521 Y129.252 Z-0.682 I0.14 J0.454
X110.207 Y129.846 Z-0.708 I-0.454 J0.14
X109.613 Y129.532 Z-0.734 I-0.14 J-0.454
X109.927 Y128.938 Z-0.761 I0.454 J-0.14
X110.521 Y129.252 Z-0.787 I0.14 J0.454
X110.207 Y129.846 Z-0.813 I-0.454 J0.14
X109.613 Y129.532 Z-0.839 I-0.14 J-0.454
X109.927 Y128.938 Z-0.865 I0.454 J-0.14
X110.521 Y129.252 Z-0.891 I0.14 J0.454
X110.207 Y129.846 Z-0.917 I-0.454 J0.14
X109.613 Y129.532 Z-0.943 I-0.14 J-0.454
X109.927 Y128.938 Z-0.969 I0.454 J-0.14
X110.521 Y129.252 Z-0.995 I0.14 J0.454
X110.542 Y129.392 Z-1. I-0.454 J0.14
X110.392 Y129.542 I-0.15 J0. F250
X110.242 Y129.392 I0. J-0.15
X110.867 Y128.767 I0.625 J0.
X111.492 Y129.392 I0. J0.625
X110.392 Y130.492 I-1.1 J0.
X109.292 Y129.392 I0. J-1.1
X110.392 Y128.292 I1.1 J0.
X111.492 Y129.392 I0. J1.1
X111.337 Y129.587 I-0.2 J0.
G1 X110.207 Y129.846
G3 X109.613 Y129.532 Z-1.026 I-0.14 J-0.454 F333.3
X109.927 Y128.938 Z-1.052 I0.454 J-0.14
X110.521 Y129.252 Z-1.078 I0.14 J0.454
X110.207 Y129.846 Z-1.104 I-0.454 J0.14
X109.613 Y129.532 Z-1.13 I-0.14 J-0.454
X109.927 Y128.938 Z-1.156 I0.454 J-0.14
X110.521 Y129.252 Z-1.182 I0.14 J0.454
X110.207 Y129.846 Z-1.208 I-0.454 J0.14
X109.613 Y129.532 Z-1.234 I-0.14 J-0.454
X109.927 Y128.938 Z-1.261 I0.454 J-0.14
X110.521 Y129.252 Z-1.287 I0.14 J0.454
X110.207 Y129.846 Z-1.313 I-0.454 J0.14
X109.613 Y129.532 Z-1.339 I-0.14 J-0.454
X109.927 Y128.938 Z-1.365 I0.454 J-0.14
X110.521 Y129.252 Z-1.391 I0.14 J0.454
X110.207 Y129.846 Z-1.417 I-0.454 J0.14
X109.613 Y129.532 Z-1.443 I-0.14 J-0.454
X109.927 Y128.938 Z-1.469 I0.454 J-0.14
X110.521 Y129.252 Z-1.495 I0.14 J0.454
X110.542 Y129.392 Z-1.5 I-0.454 J0.14
X110.392 Y129.542 I-0.15 J0. F250
X110.242 Y129.392 I0. J-0.15
X110.867 Y128.767 I0.625 J0.
X111.492 Y129.392 I0. J0.625
X110.392 Y130.492 I-1.1 J0.
X109.292 Y129.392 I0. J-1.1
X110.392 Y128.292 I1.1 J0.
X111.492 Y129.392 I0. J1.1
X111.337 Y129.587 I-0.2 J0.
G1 X110.207 Y129.846
G3 X109.613 Y129.532 Z-1.526 I-0.14 J-0.454 F333.3
X109.927 Y128.938 Z-1.552 I0.454 J-0.14
X110.521 Y129.252 Z-1.578 I0.14 J0.454
X110.207 Y129.846 Z-1.604 I-0.454 J0.14
X109.613 Y129.532 Z-1.63 I-0.14 J-0.454
X109.927 Y128.938 Z-1.656 I0.454 J-0.14
X110.521 Y129.252 Z-1.682 I0.14 J0.454
X110.207 Y129.846 Z-1.708 I-0.454 J0.14
X109.613 Y129.532 Z-1.734 I-0.14 J-0.454
X109.927 Y128.938 Z-1.761 I0.454 J-0.14
X110.521 Y129.252 Z-1.787 I0.14 J0.454
X110.207 Y129.846 Z-1.813 I-0.454 J0.14
X109.613 Y129.532 Z-1.839 I-0.14 J-0.454
X109.927 Y128.938 Z-1.865 I0.454 J-0.14
X110.521 Y129.252 Z-1.891 I0.14 J0.454
X110.207 Y129.846 Z-1.917 I-0.454 J0.14
X109.613 Y129.532 Z-1.943 I-0.14 J-0.454
X109.927 Y128.938 Z-1.969 I0.454 J-0.14
X110.521 Y129.252 Z-1.995 I0.14 J0.454
X110.542 Y129.392 Z-2. I-0.454 J0.14
X110.392 Y129.542 I-0.15 J0. F250
X110.242 Y129.392 I0. J-0.15
X110.867 Y128.767 I0.625 J0.
X111.492 Y129.392 I0. J0.625
X110.392 Y130.492 I-1.1 J0.
X109.292 Y129.392 I0. J-1.1
X110.392 Y128.292 I1.1 J0.
X111.492 Y129.392 I0. J1.1
X111.337 Y129.587 I-0.2 J0.
G1 X110.207 Y129.846
G3 X109.613 Y129.532 Z-2.026 I-0.14 J-0.454 F333.3
X109.927 Y128.938 Z-2.052 I0.454 J-0.14
X110.521 Y129.252 Z-2.078 I0.14 J0.454
X110.207 Y129.846 Z-2.104 I-0.454 J0.14
X109.613 Y129.532 Z-2.13 I-0.14 J-0.454
X109.927 Y128.938 Z-2.156 I0.454 J-0.14
X110.521 Y129.252 Z-2.182 I0.14 J0.454
X110.207 Y129.846 Z-2.208 I-0.454 J0.14
X109.613 Y129.532 Z-2.234 I-0.14 J-0.454
X109.927 Y128.938 Z-2.261 I0.454 J-0.14
X110.521 Y129.252 Z-2.287 I0.14 J0.454
X110.207 Y129.846 Z-2.313 I-0.454 J0.14
X109.613 Y129.532 Z-2.339 I-0.14 J-0.454
X109.927 Y128.938 Z-2.365 I0.454 J-0.14
X110.521 Y129.252 Z-2.391 I0.14 J0.454
X110.207 Y129.846 Z-2.417 I-0.454 J0.14
X109.613 Y129.532 Z-2.443 I-0.14 J-0.454
X109.927 Y128.938 Z-2.469 I0.454 J-0.14
X110.521 Y129.252 Z-2.495 I0.14 J0.454
X110.542 Y129.392 Z-2.5 I-0.454 J0.14
X110.392 Y129.542 I-0.15 J0. F250
X110.242 Y129.392 I0. J-0.15
X110.867 Y128.767 I0.625 J0.
X111.492 Y129.392 I0. J0.625
X110.392 Y130.492 I-1.1 J0.
X109.292 Y129.392 I0. J-1.1
X110.392 Y128.292 I1.1 J0.
X111.492 Y129.392 I0. J1.1
X111.468 Y129.457 Z-2.471 I-0.1 J0.
X111.446 Y129.476 Z-2.4 I-0.076 J-0.065
G0 Z5.
X118.429 Y115.908
G1 Z2.6 F250
G3 X118.455 Y115.918 Z2.53 I-0.161 J0.447 F333.3
X118.516 Y115.95 Z2.5 I-0.187 J0.436
X118.672 Y116.603 Z2.474 I-0.248 J0.405
X118.019 Y116.76 Z2.448 I-0.405 J-0.248
X117.862 Y116.107 Z2.422 I0.248 J-0.405
X118.516 Y115.95 Z2.396 I0.405 J0.248
X118.672 Y116.603 Z2.37 I-0.248 J0.405
X118.019 Y116.76 Z2.344 I-0.405 J-0.248
X117.862 Y116.107 Z2.318 I0.248 J-0.405
X118.516 Y115.95 Z2.292 I0.405 J0.248
X118.672 Y116.603 Z2.266 I-0.248 J0.405
X118.019 Y116.76 Z2.239 I-0.405 J-0.248
X117.862 Y116.107 Z2.213 I0.248 J-0.405
X118.516 Y115.95 Z2.187 I0.405 J0.248
X118.672 Y116.603 Z2.161 I-0.248 J0.405
X118.019 Y116.76 Z2.135 I-0.405 J-0.248
X117.862 Y116.107 Z2.109 I0.248 J-0.405
X118.516 Y115.95 Z2.083 I0.405 J0.248
X118.672 Y116.603 Z2.057 I-0.248 J0.405
X118.019 Y116.76 Z2.031 I-0.405 J-0.248
X117.862 Y116.107 Z2.005 I0.248 J-0.405
X118.516 Y115.95 Z1.979 I0.405 J0.248
X118.672 Y116.603 Z1.953 I-0.248 J0.405
X118.019 Y116.76 Z1.927 I-0.405 J-0.248
X117.862 Y116.107 Z1.901 I0.248 J-0.405
X118.516 Y115.95 Z1.875 I0.405 J0.248
X118.672 Y116.603 Z1.849 I-0.248 J0.405
X118.019 Y116.76 Z1.823 I-0.405 J-0.248
X117.862 Y116.107 Z1.797 I0.248 J-0.405
X118.516 Y115.95 Z1.77 I0.405 J0.248
X118.672 Y116.603 Z1.744 I-0.248 J0.405
X118.019 Y116.76 Z1.718 I-0.405 J-0.248
X117.862 Y116.107 Z1.692 I0.248 J-0.405
X118.516 Y115.95 Z1.666 I0.405 J0.248
X118.672 Y116.603 Z1.64 I-0.248 J0.405
X118.019 Y116.76 Z1.614 I-0.405 J-0.248
X117.862 Y116.107 Z1.588 I0.248 J-0.405
X118.516 Y115.95 Z1.562 I0.405 J0.248
X118.672 Y116.603 Z1.536 I-0.248 J0.405
X118.019 Y116.76 Z1.51 I-0.405 J-0.248
X117.862 Y116.107 Z1.484 I0.248 J-0.405
X118.516 Y115.95 Z1.458 I0.405 J0.248
X118.672 Y116.603 Z1.432 I-0.248 J0.405
X118.019 Y116.76 Z1.406 I-0.405 J-0.248
X117.862 Y116.107 Z1.38 I0.248 J-0.405
X118.516 Y115.95 Z1.354 I0.405 J0.248
X118.672 Y116.603 Z1.328 I-0.248 J0.405
X118.019 Y116.76 Z1.301 I-0.405 J-0.248
X117.862 Y116.107 Z1.275 I0.248 J-0.405
X118.516 Y115.95 Z1.249 I0.405 J0.248
X118.672 Y116.603 Z1.223 I-0.248 J0.405
X118.019 Y116.76 Z1.197 I-0.405 J-0.248
X117.862 Y116.107 Z1.171 I0.248 J-0.405
X118.516 Y115.95 Z1.145 I0.405 J0.248
X118.672 Y116.603 Z1.119 I-0.248 J0.405
X118.019 Y116.76 Z1.093 I-0.405 J-0.248
X117.862 Y116.107 Z1.067 I0.248 J-0.405
X118.516 Y115.95 Z1.041 I0.405 J0.248
X118.672 Y116.603 Z1.015 I-0.248 J0.405
X118.019 Y116.76 Z0.989 I-0.405 J-0.248
X117.862 Y116.107 Z0.963 I0.248 J-0.405
X118.516 Y115.95 Z0.937 I0.405 J0.248
X118.672 Y116.603 Z0.911 I-0.248 J0.405
X118.019 Y116.76 Z0.885 I-0.405 J-0.248
X117.862 Y116.107 Z0.859 I0.248 J-0.405
X118.516 Y115.95 Z0.832 I0.405 J0.248
X118.672 Y116.603 Z0.806 I-0.248 J0.405
X118.019 Y116.76 Z0.78 I-0.405 J-0.248
X117.862 Y116.107 Z0.754 I0.248 J-0.405
X118.516 Y115.95 Z0.728 I0.405 J0.248
X118.672 Y116.603 Z0.702 I-0.248 J0.405
X118.019 Y116.76 Z0.676 I-0.405 J-0.248
X117.862 Y116.107 Z0.65 I0.248 J-0.405
X118.516 Y115.95 Z0.624 I0.405 J0.248
X118.672 Y116.603 Z0.598 I-0.248 J0.405
X118.019 Y116.76 Z0.572 I-0.405 J-0.248
X117.862 Y116.107 Z0.546 I0.248 J-0.405
X118.516 Y115.95 Z0.52 I0.405 J0.248
X118.672 Y116.603 Z0.494 I-0.248 J0.405
X118.019 Y116.76 Z0.468 I-0.405 J-0.248
X117.862 Y116.107 Z0.442 I0.248 J-0.405
X118.516 Y115.95 Z0.416 I0.405 J0.248
X118.672 Y116.603 Z0.39 I-0.248 J0.405
X118.019 Y116.76 Z0.363 I-0.405 J-0.248
X117.862 Y116.107 Z0.337 I0.248 J-0.405
X118.516 Y115.95 Z0.311 I0.405 J0.248
X118.672 Y116.603 Z0.285 I-0.248 J0.405
X118.019 Y116.76 Z0.259 I-0.405 J-0.248
X117.862 Y116.107 Z0.233 I0.248 J-0.405
X118.516 Y115.95 Z0.207 I0.405 J0.248
X118.672 Y116.603 Z0.181 I-0.248 J0.405
X118.019 Y116.76 Z0.155 I-0.405 J-0.248
X117.862 Y116.107 Z0.129 I0.248 J-0.405
X118.516 Y115.95 Z0.103 I0.405 J0.248
X118.672 Y116.603 Z0.077 I-0.248 J0.405
X118.019 Y116.76 Z0.051 I-0.405 J-0.248
X117.862 Y116.107 Z0.025 I0.248 J-0.405
X118.516 Y115.95 Z-0.001 I0.405 J0.248
X118.672 Y116.603 Z-0.027 I-0.248 J0.405
X118.019 Y116.76 Z-0.053 I-0.405 J-0.248
X117.862 Y116.107 Z-0.079 I0.248 J-0.405
X118.516 Y115.95 Z-0.106 I0.405 J0.248
X118.672 Y116.603 Z-0.132 I-0.248 J0.405
X118.019 Y116.76 Z-0.158 I-0.405 J-0.248
X117.862 Y116.107 Z-0.184 I0.248 J-0.405
X118.516 Y115.95 Z-0.21 I0.405 J0.248
X118.672 Y116.603 Z-0.236 I-0.248 J0.405
X118.019 Y116.76 Z-0.262 I-0.405 J-0.248
X117.862 Y116.107 Z-0.288 I0.248 J-0.405
X118.516 Y115.95 Z-0.314 I0.405 J0.248
X118.672 Y116.603 Z-0.34 I-0.248 J0.405
X118.019 Y116.76 Z-0.366 I-0.405 J-0.248
X117.862 Y116.107 Z-0.392 I0.248 J-0.405
X118.516 Y115.95 Z-0.418 I0.405 J0.248
X118.672 Y116.603 Z-0.444 I-0.248 J0.405
X118.019 Y116.76 Z-0.47 I-0.405 J-0.248
X117.862 Y116.107 Z-0.496 I0.248 J-0.405
X117.926 Y116.025 Z-0.5 I0.405 J0.248
G1 X117.93 Y116.021 F250
G3 X118.319 Y116.022 I0.194 J0.195
Y116.41 I-0.195 J0.194
X117.349 Y117.349 I-26.272 J-26.192
G2 X116.379 Y118.287 I28.107 J30.031
G3 X116.053 I-0.163 J-0.163
Y117.961 I0.163 J-0.163
G1 X117.926 Y116.025
G2 X118.032 Y115.656 I-0.293 J-0.283
G3 X118.207 Y115.385 I0.223 J-0.048
X118.303 I0.048 J0.223
X118.955 Y116.395 I-0.179 J0.831
X118.725 Y116.817 I-0.831 J-0.179
G1 X116.817 Y118.725
G3 X115.615 I-0.601 J-0.601
Y117.523 I0.601 J-0.601
G1 X117.523 Y115.615
G3 X118.303 Y115.385 I0.601 J0.601
X118.416 Y115.532 I-0.03 J0.141
G1 X118.404 Y115.797
G2 X118.483 Y115.931 I0.144 J0.006
G3 X118.691 Y116.57 Z-0.526 I-0.215 J0.423 F333.3
X118.052 Y116.778 Z-0.552 I-0.423 J-0.215
X117.844 Y116.139 Z-0.578 I0.215 J-0.423
X118.483 Y115.931 Z-0.604 I0.423 J0.215
X118.691 Y116.57 Z-0.63 I-0.215 J0.423
X118.052 Y116.778 Z-0.656 I-0.423 J-0.215
X117.844 Y116.139 Z-0.682 I0.215 J-0.423
X118.483 Y115.931 Z-0.708 I0.423 J0.215
X118.691 Y116.57 Z-0.734 I-0.215 J0.423
X118.052 Y116.778 Z-0.761 I-0.423 J-0.215
X117.844 Y116.139 Z-0.787 I0.215 J-0.423
X118.483 Y115.931 Z-0.813 I0.423 J0.215
X118.691 Y116.57 Z-0.839 I-0.215 J0.423
X118.052 Y116.778 Z-0.865 I-0.423 J-0.215
X117.844 Y116.139 Z-0.891 I0.215 J-0.423
X118.483 Y115.931 Z-0.917 I0.423 J0.215
X118.691 Y116.57 Z-0.943 I-0.215 J0.423
X118.052 Y116.778 Z-0.969 I-0.423 J-0.215
X117.844 Y116.139 Z-0.995 I0.215 J-0.423
X117.926 Y116.025 Z-1. I0.423 J0.215
G1 X117.93 Y116.021 F250
G3 X118.319 Y116.022 I0.194 J0.195
Y116.41 I-0.195 J0.194
X117.349 Y117.349 I-26.272 J-26.192
G2 X116.379 Y118.287 I28.107 J30.031
G3 X116.053 I-0.163 J-0.163
Y117.961 I0.163 J-0.163
G1 X117.926 Y116.025
G2 X118.032 Y115.656 I-0.293 J-0.283
G3 X118.207 Y115.385 I0.223 J-0.048
X118.303 I0.048 J0.223
X118.955 Y116.395 I-0.179 J0.831
X118.725 Y116.817 I-0.831 J-0.179
G1 X116.817 Y118.725
G3 X115.615 I-0.601 J-0.601
Y117.523 I0.601 J-0.601
G1 X117.523 Y115.615
G3 X118.303 Y115.385 I0.601 J0.601
X118.416 Y115.532 I-0.03 J0.141
G1 X118.404 Y115.797
G2 X118.483 Y115.931 I0.144 J0.006
G3 X118.691 Y116.57 Z-1.026 I-0.215 J0.423 F333.3
X118.052 Y116.778 Z-1.052 I-0.423 J-0.215
X117.844 Y116.139 Z-1.078 I0.215 J-0.423
X118.483 Y115.931 Z-1.104 I0.423 J0.215
X118.691 Y116.57 Z-1.13 I-0.215 J0.423
X118.052 Y116.778 Z-1.156 I-0.423 J-0.215
X117.844 Y116.139 Z-1.182 I0.215 J-0.423
X118.483 Y115.931 Z-1.208 I0.423 J0.215
X118.691 Y116.57 Z-1.234 I-0.215 J0.423
X118.052 Y116.778 Z-1.261 I-0.423 J-0.215
X117.844 Y116.139 Z-1.287 I0.215 J-0.423
X118.483 Y115.931 Z-1.313 I0.423 J0.215
X118.691 Y116.57 Z-1.339 I-0.215 J0.423
X118.052 Y116.778 Z-1.365 I-0.423 J-0.215
X117.844 Y116.139 Z-1.391 I0.215 J-0.423
X118.483 Y115.931 Z-1.417 I0.423 J0.215
X118.691 Y116.57 Z-1.443 I-0.215 J0.423
X118.052 Y116.778 Z-1.469 I-0.423 J-0.215
X117.844 Y116.139 Z-1.495 I0.215 J-0.423
X117.926 Y116.025 Z-1.5 I0.423 J0.215
G1 X117.93 Y116.021 F250
G3 X118.319 Y116.022 I0.194 J0.195
Y116.41 I-0.195 J0.194
X117.349 Y117.349 I-26.272 J-26.192
G2 X116.379 Y118.287 I28.107 J30.031
G3 X116.053 I-0.163 J-0.163
Y117.961 I0.163 J-0.163
G1 X117.926 Y116.025
G2 X118.032 Y115.656 I-0.293 J-0.283
G3 X118.207 Y115.385 I0.223 J-0.048
X118.303 I0.048 J0.223
X118.955 Y116.395 I-0.179 J0.831
X118.725 Y116.817 I-0.831 J-0.179
G1 X116.817 Y118.725
G3 X115.615 I-0.601 J-0.601
Y117.523 I0.601 J-0.601
G1 X117.523 Y115.615
G3 X118.303 Y115.385 I0.601 J0.601
X118.416 Y115.532 I-0.03 J0.141
G1 X118.404 Y115.797
G2 X118.483 Y115.931 I0.144 J0.006
G3 X118.691 Y116.57 Z-1.526 I-0.215 J0.423 F333.3
X118.052 Y116.778 Z-1.552 I-0.423 J-0.215
X117.844 Y116.139 Z-1.578 I0.215 J-0.423
X118.483 Y115.931 Z-1.604 I0.423 J0.215
X118.691 Y116.57 Z-1.63 I-0.215 J0.423
X118.052 Y116.778 Z-1.656 I-0.423 J-0.215
X117.844 Y116.139 Z-1.682 I0.215 J-0.423
X118.483 Y115.931 Z-1.708 I0.423 J0.215
X118.691 Y116.57 Z-1.734 I-0.215 J0.423
X118.052 Y116.778 Z-1.761 I-0.423 J-0.215
X117.844 Y116.139 Z-1.787 I0.215 J-0.423
X118.483 Y115.931 Z-1.813 I0.423 J0.215
X118.691 Y116.57 Z-1.839 I-0.215 J0.423
X118.052 Y116.778 Z-1.865 I-0.423 J-0.215
X117.844 Y116.139 Z-1.891 I0.215 J-0.423
X118.483 Y115.931 Z-1.917 I0.423 J0.215
X118.691 Y116.57 Z-1.943 I-0.215 J0.423
X118.052 Y116.778 Z-1.969 I-0.423 J-0.215
X117.844 Y116.139 Z-1.995 I0.215 J-0.423
X117.926 Y116.025 Z-2. I0.423 J0.215
G1 X117.93 Y116.021 F250
G3 X118.319 Y116.022 I0.194 J0.195
Y116.41 I-0.195 J0.194
X117.349 Y117.349 I-26.272 J-26.192
G2 X116.379 Y118.287 I28.107 J30.031
G3 X116.053 I-0.163 J-0.163
Y117.961 I0.163 J-0.163
G1 X117.926 Y116.025
G2 X118.032 Y115.656 I-0.293 J-0.283
G3 X118.207 Y115.385 I0.223 J-0.048
X118.303 I0.048 J0.223
X118.955 Y116.395 I-0.179 J0.831
X118.725 Y116.817 I-0.831 J-0.179
G1 X116.817 Y118.725
G3 X115.615 I-0.601 J-0.601
Y117.523 I0.601 J-0.601
G1 X117.523 Y115.615
G3 X118.303 Y115.385 I0.601 J0.601
X118.416 Y115.532 I-0.03 J0.141
G1 X118.404 Y115.797
G2 X118.483 Y115.931 I0.144 J0.006
G3 X118.691 Y116.57 Z-2.026 I-0.215 J0.423 F333.3
X118.052 Y116.778 Z-2.052 I-0.423 J-0.215
X117.844 Y116.139 Z-2.078 I0.215 J-0.423
X118.483 Y115.931 Z-2.104 I0.423 J0.215
X118.691 Y116.57 Z-2.13 I-0.215 J0.423
X118.052 Y116.778 Z-2.156 I-0.423 J-0.215
X117.844 Y116.139 Z-2.182 I0.215 J-0.423
X118.483 Y115.931 Z-2.208 I0.423 J0.215
X118.691 Y116.57 Z-2.234 I-0.215 J0.423
X118.052 Y116.778 Z-2.261 I-0.423 J-0.215
X117.844 Y116.139 Z-2.287 I0.215 J-0.423
X118.483 Y115.931 Z-2.313 I0.423 J0.215
X118.691 Y116.57 Z-2.339 I-0.215 J0.423
X118.052 Y116.778 Z-2.365 I-0.423 J-0.215
X117.844 Y116.139 Z-2.391 I0.215 J-0.423
X118.483 Y115.931 Z-2.417 I0.423 J0.215
X118.691 Y116.57 Z-2.443 I-0.215 J0.423
X118.052 Y116.778 Z-2.469 I-0.423 J-0.215
X117.844 Y116.139 Z-2.495 I0.215 J-0.423
X117.926 Y116.025 Z-2.5 I0.423 J0.215
G1 X117.93 Y116.021 F250
G3 X118.319 Y116.022 I0.194 J0.195
Y116.41 I-0.195 J0.194
X117.349 Y117.349 I-26.272 J-26.192
G2 X116.379 Y118.287 I28.107 J30.031
G3 X116.053 I-0.163 J-0.163
Y117.961 I0.163 J-0.163
G1 X117.926 Y116.025
G2 X118.032 Y115.656 I-0.293 J-0.283
G3 X118.207 Y115.385 I0.223 J-0.048
X118.303 I0.048 J0.223
X118.955 Y116.395 I-0.179 J0.831
X118.725 Y116.817 I-0.831 J-0.179
G1 X116.817 Y118.725
G3 X115.615 I-0.601 J-0.601
Y117.523 I0.601 J-0.601
G1 X117.523 Y115.615
G3 X118.303 Y115.385 I0.601 J0.601
X118.361 Y115.422 Z-2.471 I-0.021 J0.098
X118.375 Y115.448 Z-2.4 I-0.08 J0.061
G0 Z5.
X109.662 Y110.225
G1 Z2.6 F250
G3 X109.636 Y110.236 Z2.53 I-0.195 J-0.433 F333.3
X109.57 Y110.256 Z2.5 I-0.169 J-0.444
X109.003 Y109.895 Z2.474 I-0.103 J-0.464
X109.364 Y109.328 Z2.448 I0.464 J-0.103
X109.931 Y109.689 Z2.422 I0.103 J0.464
X109.57 Y110.256 Z2.396 I-0.464 J0.103
X109.003 Y109.895 Z2.37 I-0.103 J-0.464
X109.364 Y109.328 Z2.344 I0.464 J-0.103
X109.931 Y109.689 Z2.318 I0.103 J0.464
X109.57 Y110.256 Z2.292 I-0.464 J0.103
X109.003 Y109.895 Z2.266 I-0.103 J-0.464
X109.364 Y109.328 Z2.239 I0.464 J-0.103
X109.931 Y109.689 Z2.213 I0.103 J0.464
X109.57 Y110.256 Z2.187 I-0.464 J0.103
X109.003 Y109.895 Z2.161 I-0.103 J-0.464
X109.364 Y109.328 Z2.135 I0.464 J-0.103
X109.931 Y109.689 Z2.109 I0.103 J0.464
X109.57 Y110.256 Z2.083 I-0.464 J0.103
X109.003 Y109.895 Z2.057 I-0.103 J-0.464
X109.364 Y109.328 Z2.031 I0.464 J-0.103
X109.931 Y109.689 Z2.005 I0.103 J0.464
X109.57 Y110.256 Z1.979 I-0.464 J0.103
X109.003 Y109.895 Z1.953 I-0.103 J-0.464
X109.364 Y109.328 Z1.927 I0.464 J-0.103
X109.931 Y109.689 Z1.901 I0.103 J0.464
X109.57 Y110.256 Z1.875 I-0.464 J0.103
X109.003 Y109.895 Z1.849 I-0.103 J-0.464
X109.364 Y109.328 Z1.823 I0.464 J-0.103
X109.931 Y109.689 Z1.797 I0.103 J0.464
X109.57 Y110.256 Z1.77 I-0.464 J0.103
X109.003 Y109.895 Z1.744 I-0.103 J-0.464
X109.364 Y109.328 Z1.718 I0.464 J-0.103
X109.931 Y109.689 Z1.692 I0.103 J0.464
X109.57 Y110.256 Z1.666 I-0.464 J0.103
X109.003 Y109.895 Z1.64 I-0.103 J-0.464
X109.364 Y109.328 Z1.614 I0.464 J-0.103
X109.931 Y109.689 Z1.588 I0.103 J0.464
X109.57 Y110.256 Z1.562 I-0.464 J0.103
X109.003 Y109.895 Z1.536 I-0.103 J-0.464
X109.364 Y109.328 Z1.51 I0.464 J-0.103
X109.931 Y109.689 Z1.484 I0.103 J0.464
X109.57 Y110.256 Z1.458 I-0.464 J0.103
X109.003 Y109.895 Z1.432 I-0.103 J-0.464
X109.364 Y109.328 Z1.406 I0.464 J-0.103
X109.931 Y109.689 Z1.38 I0.103 J0.464
X109.57 Y110.256 Z1.354 I-0.464 J0.103
X109.003 Y109.895 Z1.328 I-0.103 J-0.464
X109.364 Y109.328 Z1.301 I0.464 J-0.103
X109.931 Y109.689 Z1.275 I0.103 J0.464
X109.57 Y110.256 Z1.249 I-0.464 J0.103
X109.003 Y109.895 Z1.223 I-0.103 J-0.464
X109.364 Y109.328 Z1.197 I0.464 J-0.103
X109.931 Y109.689 Z1.171 I0.103 J0.464
X109.57 Y110.256 Z1.145 I-0.464 J0.103
X109.003 Y109.895 Z1.119 I-0.103 J-0.464
X109.364 Y109.328 Z1.093 I0.464 J-0.103
X109.931 Y109.689 Z1.067 I0.103 J0.464
X109.57 Y110.256 Z1.041 I-0.464 J0.103
X109.003 Y109.895 Z1.015 I-0.103 J-0.464
X109.364 Y109.328 Z0.989 I0.464 J-0.103
X109.931 Y109.689 Z0.963 I0.103 J0.464
X109.57 Y110.256 Z0.937 I-0.464 J0.103
X109.003 Y109.895 Z0.911 I-0.103 J-0.464
X109.364 Y109.328 Z0.885 I0.464 J-0.103
X109.931 Y109.689 Z0.859 I0.103 J0.464
X109.57 Y110.256 Z0.832 I-0.464 J0.103
X109.003 Y109.895 Z0.806 I-0.103 J-0.464
X109.364 Y109.328 Z0.78 I0.464 J-0.103
X109.931 Y109.689 Z0.754 I0.103 J0.464
X109.57 Y110.256 Z0.728 I-0.464 J0.103
X109.003 Y109.895 Z0.702 I-0.103 J-0.464
X109.364 Y109.328 Z0.676 I0.464 J-0.103
X109.931 Y109.689 Z0.65 I0.103 J0.464
X109.57 Y110.256 Z0.624 I-0.464 J0.103
X109.003 Y109.895 Z0.598 I-0.103 J-0.464
X109.364 Y109.328 Z0.572 I0.464 J-0.103
X109.931 Y109.689 Z0.546 I0.103 J0.464
X109.57 Y110.256 Z0.52 I-0.464 J0.103
X109.003 Y109.895 Z0.494 I-0.103 J-0.464
X109.364 Y109.328 Z0.468 I0.464 J-0.103
X109.931 Y109.689 Z0.442 I0.103 J0.464
X109.57 Y110.256 Z0.416 I-0.464 J0.103
X109.003 Y109.895 Z0.39 I-0.103 J-0.464
X109.364 Y109.328 Z0.363 I0.464 J-0.103
X109.931 Y109.689 Z0.337 I0.103 J0.464
X109.57 Y110.256 Z0.311 I-0.464 J0.103
X109.003 Y109.895 Z0.285 I-0.103 J-0.464
X109.364 Y109.328 Z0.259 I0.464 J-0.103
X109.931 Y109.689 Z0.233 I0.103 J0.464
X109.57 Y110.256 Z0.207 I-0.464 J0.103
X109.003 Y109.895 Z0.181 I-0.103 J-0.464
X109.364 Y109.328 Z0.155 I0.464 J-0.103
X109.931 Y109.689 Z0.129 I0.103 J0.464
X109.57 Y110.256 Z0.103 I-0.464 J0.103
X109.003 Y109.895 Z0.077 I-0.103 J-0.464
X109.364 Y109.328 Z0.051 I0.464 J-0.103
X109.931 Y109.689 Z0.025 I0.103 J0.464
X109.57 Y110.256 Z-0.001 I-0.464 J0.103
X109.003 Y109.895 Z-0.027 I-0.103 J-0.464
X109.364 Y109.328 Z-0.053 I0.464 J-0.103
X109.931 Y109.689 Z-0.079 I0.103 J0.464
X109.57 Y110.256 Z-0.106 I-0.464 J0.103
X109.003 Y109.895 Z-0.132 I-0.103 J-0.464
X109.364 Y109.328 Z-0.158 I0.464 J-0.103
X109.931 Y109.689 Z-0.184 I0.103 J0.464
X109.57 Y110.256 Z-0.21 I-0.464 J0.103
X109.003 Y109.895 Z-0.236 I-0.103 J-0.464
X109.364 Y109.328 Z-0.262 I0.464 J-0.103
X109.931 Y109.689 Z-0.288 I0.103 J0.464
X109.57 Y110.256 Z-0.314 I-0.464 J0.103
X109.003 Y109.895 Z-0.34 I-0.103 J-0.464
X109.364 Y109.328 Z-0.366 I0.464 J-0.103
X109.931 Y109.689 Z-0.392 I0.103 J0.464
X109.57 Y110.256 Z-0.418 I-0.464 J0.103
X109.003 Y109.895 Z-0.444 I-0.103 J-0.464
X109.364 Y109.328 Z-0.47 I0.464 J-0.103
X109.931 Y109.689 Z-0.496 I0.103 J0.464
X109.942 Y109.792 Z-0.5 I-0.464 J0.103
X109.792 Y109.942 I-0.15 J0. F250
X109.642 Y109.792 I0. J-0.15
X110.267 Y109.167 I0.625 J0.
X110.892 Y109.792 I0. J0.625
X109.792 Y110.892 I-1.1 J0.
X108.692 Y109.792 I0. J-1.1
X109.792 Y108.692 I1.1 J0.
X110.892 Y109.792 I0. J1.1
X110.737 Y109.987 I-0.2 J0.
G1 X109.607 Y110.246
G3 X109.013 Y109.932 Z-0.526 I-0.14 J-0.454 F333.3
X109.327 Y109.338 Z-0.552 I0.454 J-0.14
X109.921 Y109.652 Z-0.578 I0.14 J0.454
X109.607 Y110.246 Z-0.604 I-0.454 J0.14
X109.013 Y109.932 Z-0.63 I-0.14 J-0.454
X109.327 Y109.338 Z-0.656 I0.454 J-0.14
X109.921 Y109.652 Z-0.682 I0.14 J0.454
X109.607 Y110.246 Z-0.708 I-0.454 J0.14
X109.013 Y109.932 Z-0.734 I-0.14 J-0.454
X109.327 Y109.338 Z-0.761 I0.454 J-0.14
X109.921 Y109.652 Z-0.787 I0.14 J0.454
X109.607 Y110.246 Z-0.813 I-0.454 J0.14
X109.013 Y109.932 Z-0.839 I-0.14 J-0.454
X109.327 Y109.338 Z-0.865 I0.454 J-0.14
X109.921 Y109.652 Z-0.891 I0.14 J0.454
X109.607 Y110.246 Z-0.917 I-0.454 J0.14
X109.013 Y109.932 Z-0.943 I-0.14 J-0.454
X109.327 Y109.338 Z-0.969 I0.454 J-0.14
X109.921 Y109.652 Z-0.995 I0.14 J0.454
X109.942 Y109.792 Z-1. I-0.454 J0.14
X109.792 Y109.942 I-0.15 J0. F250
X109.642 Y109.792 I0. J-0.15
X110.267 Y109.167 I0.625 J0.
X110.892 Y109.792 I0. J0.625
X109.792 Y110.892 I-1.1 J0.
X108.692 Y109.792 I0. J-1.1
X109.792 Y108.692 I1.1 J0.
X110.892 Y109.792 I0. J1.1
X110.737 Y109.987 I-0.2 J0.
G1 X109.607 Y110.246
G3 X109.013 Y109.932 Z-1.026 I-0.14 J-0.454 F333.3
X109.327 Y109.338 Z-1.052 I0.454 J-0.14
X109.921 Y109.652 Z-1.078 I0.14 J0.454
X109.607 Y110.246 Z-1.104 I-0.454 J0.14
X109.013 Y109.932 Z-1.13 I-0.14 J-0.454
X109.327 Y109.338 Z-1.156 I0.454 J-0.14
X109.921 Y109.652 Z-1.182 I0.14 J0.454
X109.607 Y110.246 Z-1.208 I-0.454 J0.14
X109.013 Y109.932 Z-1.234 I-0.14 J-0.454
X109.327 Y109.338 Z-1.261 I0.454 J-0.14
X109.921 Y109.652 Z-1.287 I0.14 J0.454
X109.607 Y110.246 Z-1.313 I-0.454 J0.14
X109.013 Y109.932 Z-1.339 I-0.14 J-0.454
X109.327 Y109.338 Z-1.365 I0.454 J-0.14
X109.921 Y109.652 Z-1.391 I0.14 J0.454
X109.607 Y110.246 Z-1.417 I-0.454 J0.14
X109.013 Y109.932 Z-1.443 I-0.14 J-0.454
X109.327 Y109.338 Z-1.469 I0.454 J-0.14
X109.921 Y109.652 Z-1.495 I0.14 J0.454
X109.942 Y109.792 Z-1.5 I-0.454 J0.14
X109.792 Y109.942 I-0.15 J0. F250
X109.642 Y109.792 I0. J-0.15
X110.267 Y109.167 I0.625 J0.
X110.892 Y109.792 I0. J0.625
X109.792 Y110.892 I-1.1 J0.
X108.692 Y109.792 I0. J-1.1
X109.792 Y108.692 I1.1 J0.
X110.892 Y109.792 I0. J1.1
X110.737 Y109.987 I-0.2 J0.
G1 X109.607 Y110.246
G3 X109.013 Y109.932 Z-1.526 I-0.14 J-0.454 F333.3
X109.327 Y109.338 Z-1.552 I0.454 J-0.14
X109.921 Y109.652 Z-1.578 I0.14 J0.454
X109.607 Y110.246 Z-1.604 I-0.454 J0.14
X109.013 Y109.932 Z-1.63 I-0.14 J-0.454
X109.327 Y109.338 Z-1.656 I0.454 J-0.14
X109.921 Y109.652 Z-1.682 I0.14 J0.454
X109.607 Y110.246 Z-1.708 I-0.454 J0.14
X109.013 Y109.932 Z-1.734 I-0.14 J-0.454
X109.327 Y109.338 Z-1.761 I0.454 J-0.14
X109.921 Y109.652 Z-1.787 I0.14 J0.454
X109.607 Y110.246 Z-1.813 I-0.454 J0.14
X109.013 Y109.932 Z-1.839 I-0.14 J-0.454
X109.327 Y109.338 Z-1.865 I0.454 J-0.14
X109.921 Y109.652 Z-1.891 I0.14 J0.454
X109.607 Y110.246 Z-1.917 I-0.454 J0.14
X109.013 Y109.932 Z-1.943 I-0.14 J-0.454
X109.327 Y109.338 Z-1.969 I0.454 J-0.14
X109.921 Y109.652 Z-1.995 I0.14 J0.454
X109.942 Y109.792 Z-2. I-0.454 J0.14
X109.792 Y109.942 I-0.15 J0. F250
X109.642 Y109.792 I0. J-0.15
X110.267 Y109.167 I0.625 J0.
X110.892 Y109.792 I0. J0.625
X109.792 Y110.892 I-1.1 J0.
X108.692 Y109.792 I0. J-1.1
X109.792 Y108.692 I1.1 J0.
X110.892 Y109.792 I0. J1.1
X110.737 Y109.987 I-0.2 J0.
G1 X109.607 Y110.246
G3 X109.013 Y109.932 Z-2.026 I-0.14 J-0.454 F333.3
X109.327 Y109.338 Z-2.052 I0.454 J-0.14
X109.921 Y109.652 Z-2.078 I0.14 J0.454
X109.607 Y110.246 Z-2.104 I-0.454 J0.14
X109.013 Y109.932 Z-2.13 I-0.14 J-0.454
X109.327 Y109.338 Z-2.156 I0.454 J-0.14
X109.921 Y109.652 Z-2.182 I0.14 J0.454
X109.607 Y110.246 Z-2.208 I-0.454 J0.14
X109.013 Y109.932 Z-2.234 I-0.14 J-0.454
X109.327 Y109.338 Z-2.261 I0.454 J-0.14
X109.921 Y109.652 Z-2.287 I0.14 J0.454
X109.607 Y110.246 Z-2.313 I-0.454 J0.14
X109.013 Y109.932 Z-2.339 I-0.14 J-0.454
X109.327 Y109.338 Z-2.365 I0.454 J-0.14
X109.921 Y109.652 Z-2.391 I0.14 J0.454
X109.607 Y110.246 Z-2.417 I-0.454 J0.14
X109.013 Y109.932 Z-2.443 I-0.14 J-0.454
X109.327 Y109.338 Z-2.469 I0.454 J-0.14
X109.921 Y109.652 Z-2.495 I0.14 J0.454
X109.942 Y109.792 Z-2.5 I-0.454 J0.14
X109.792 Y109.942 I-0.15 J0. F250
X109.642 Y109.792 I0. J-0.15
X110.267 Y109.167 I0.625 J0.
X110.892 Y109.792 I0. J0.625
X109.792 Y110.892 I-1.1 J0.
X108.692 Y109.792 I0. J-1.1
X109.792 Y108.692 I1.1 J0.
X110.892 Y109.792 I0. J1.1
X110.868 Y109.857 Z-2.471 I-0.1 J0.
X110.846 Y109.876 Z-2.4 I-0.076 J-0.065
G0 Z5.
X109.662 Y79.726
G1 Z2.6 F250
G3 X109.636 Y79.736 Z2.53 I-0.195 J-0.433 F333.3
X109.57 Y79.756 Z2.5 I-0.169 J-0.444
X109.003 Y79.396 Z2.474 I-0.103 J-0.464
X109.364 Y78.829 Z2.448 I0.464 J-0.103
X109.931 Y79.189 Z2.422 I0.103 J0.464
X109.57 Y79.756 Z2.396 I-0.464 J0.103
X109.003 Y79.396 Z2.37 I-0.103 J-0.464
X109.364 Y78.829 Z2.344 I0.464 J-0.103
X109.931 Y79.189 Z2.318 I0.103 J0.464
X109.57 Y79.756 Z2.292 I-0.464 J0.103
X109.003 Y79.396 Z2.266 I-0.103 J-0.464
X109.364 Y78.829 Z2.239 I0.464 J-0.103
X109.931 Y79.189 Z2.213 I0.103 J0.464
X109.57 Y79.756 Z2.187 I-0.464 J0.103
X109.003 Y79.396 Z2.161 I-0.103 J-0.464
X109.364 Y78.829 Z2.135 I0.464 J-0.103
X109.931 Y79.189 Z2.109 I0.103 J0.464
X109.57 Y79.756 Z2.083 I-0.464 J0.103
X109.003 Y79.396 Z2.057 I-0.103 J-0.464
X109.364 Y78.829 Z2.031 I0.464 J-0.103
X109.931 Y79.189 Z2.005 I0.103 J0.464
X109.57 Y79.756 Z1.979 I-0.464 J0.103
X109.003 Y79.396 Z1.953 I-0.103 J-0.464
X109.364 Y78.829 Z1.927 I0.464 J-0.103
X109.931 Y79.189 Z1.901 I0.103 J0.464
X109.57 Y79.756 Z1.875 I-0.464 J0.103
X109.003 Y79.396 Z1.849 I-0.103 J-0.464
X109.364 Y78.829 Z1.823 I0.464 J-0.103
X109.931 Y79.189 Z1.797 I0.103 J0.464
X109.57 Y79.756 Z1.77 I-0.464 J0.103
X109.003 Y79.396 Z1.744 I-0.103 J-0.464
X109.364 Y78.829 Z1.718 I0.464 J-0.103
X109.931 Y79.189 Z1.692 I0.103 J0.464
X109.57 Y79.756 Z1.666 I-0.464 J0.103
X109.003 Y79.396 Z1.64 I-0.103 J-0.464
X109.364 Y78.829 Z1.614 I0.464 J-0.103
X109.931 Y79.189 Z1.588 I0.103 J0.464
X109.57 Y79.756 Z1.562 I-0.464 J0.103
X109.003 Y79.396 Z1.536 I-0.103 J-0.464
X109.364 Y78.829 Z1.51 I0.464 J-0.103
X109.931 Y79.189 Z1.484 I0.103 J0.464
X109.57 Y79.756 Z1.458 I-0.464 J0.103
X109.003 Y79.396 Z1.432 I-0.103 J-0.464
X109.364 Y78.829 Z1.406 I0.464 J-0.103
X109.931 Y79.189 Z1.38 I0.103 J0.464
X109.57 Y79.756 Z1.354 I-0.464 J0.103
X109.003 Y79.396 Z1.328 I-0.103 J-0.464
X109.364 Y78.829 Z1.301 I0.464 J-0.103
X109.931 Y79.189 Z1.275 I0.103 J0.464
X109.57 Y79.756 Z1.249 I-0.464 J0.103
X109.003 Y79.396 Z1.223 I-0.103 J-0.464
X109.364 Y78.829 Z1.197 I0.464 J-0.103
X109.931 Y79.189 Z1.171 I0.103 J0.464
X109.57 Y79.756 Z1.145 I-0.464 J0.103
X109.003 Y79.396 Z1.119 I-0.103 J-0.464
X109.364 Y78.829 Z1.093 I0.464 J-0.103
X109.931 Y79.189 Z1.067 I0.103 J0.464
X109.57 Y79.756 Z1.041 I-0.464 J0.103
X109.003 Y79.396 Z1.015 I-0.103 J-0.464
X109.364 Y78.829 Z0.989 I0.464 J-0.103
X109.931 Y79.189 Z0.963 I0.103 J0.464
X109.57 Y79.756 Z0.937 I-0.464 J0.103
X109.003 Y79.396 Z0.911 I-0.103 J-0.464
X109.364 Y78.829 Z0.885 I0.464 J-0.103
X109.931 Y79.189 Z0.859 I0.103 J0.464
X109.57 Y79.756 Z0.832 I-0.464 J0.103
X109.003 Y79.396 Z0.806 I-0.103 J-0.464
X109.364 Y78.829 Z0.78 I0.464 J-0.103
X109.931 Y79.189 Z0.754 I0.103 J0.464
X109.57 Y79.756 Z0.728 I-0.464 J0.103
X109.003 Y79.396 Z0.702 I-0.103 J-0.464
X109.364 Y78.829 Z0.676 I0.464 J-0.103
X109.931 Y79.189 Z0.65 I0.103 J0.464
X109.57 Y79.756 Z0.624 I-0.464 J0.103
X109.003 Y79.396 Z0.598 I-0.103 J-0.464
X109.364 Y78.829 Z0.572 I0.464 J-0.103
X109.931 Y79.189 Z0.546 I0.103 J0.464
X109.57 Y79.756 Z0.52 I-0.464 J0.103
X109.003 Y79.396 Z0.494 I-0.103 J-0.464
X109.364 Y78.829 Z0.468 I0.464 J-0.103
X109.931 Y79.189 Z0.442 I0.103 J0.464
X109.57 Y79.756 Z0.416 I-0.464 J0.103
X109.003 Y79.396 Z0.39 I-0.103 J-0.464
X109.364 Y78.829 Z0.363 I0.464 J-0.103
X109.931 Y79.189 Z0.337 I0.103 J0.464
X109.57 Y79.756 Z0.311 I-0.464 J0.103
X109.003 Y79.396 Z0.285 I-0.103 J-0.464
X109.364 Y78.829 Z0.259 I0.464 J-0.103
X109.931 Y79.189 Z0.233 I0.103 J0.464
X109.57 Y79.756 Z0.207 I-0.464 J0.103
X109.003 Y79.396 Z0.181 I-0.103 J-0.464
X109.364 Y78.829 Z0.155 I0.464 J-0.103
X109.931 Y79.189 Z0.129 I0.103 J0.464
X109.57 Y79.756 Z0.103 I-0.464 J0.103
X109.003 Y79.396 Z0.077 I-0.103 J-0.464
X109.364 Y78.829 Z0.051 I0.464 J-0.103
X109.931 Y79.189 Z0.025 I0.103 J0.464
X109.57 Y79.756 Z-0.001 I-0.464 J0.103
X109.003 Y79.396 Z-0.027 I-0.103 J-0.464
X109.364 Y78.829 Z-0.053 I0.464 J-0.103
X109.931 Y79.189 Z-0.079 I0.103 J0.464
X109.57 Y79.756 Z-0.106 I-0.464 J0.103
X109.003 Y79.396 Z-0.132 I-0.103 J-0.464
X109.364 Y78.829 Z-0.158 I0.464 J-0.103
X109.931 Y79.189 Z-0.184 I0.103 J0.464
X109.57 Y79.756 Z-0.21 I-0.464 J0.103
X109.003 Y79.396 Z-0.236 I-0.103 J-0.464
X109.364 Y78.829 Z-0.262 I0.464 J-0.103
X109.931 Y79.189 Z-0.288 I0.103 J0.464
X109.57 Y79.756 Z-0.314 I-0.464 J0.103
X109.003 Y79.396 Z-0.34 I-0.103 J-0.464
X109.364 Y78.829 Z-0.366 I0.464 J-0.103
X109.931 Y79.189 Z-0.392 I0.103 J0.464
X109.57 Y79.756 Z-0.418 I-0.464 J0.103
X109.003 Y79.396 Z-0.444 I-0.103 J-0.464
X109.364 Y78.829 Z-0.47 I0.464 J-0.103
X109.931 Y79.189 Z-0.496 I0.103 J0.464
X109.942 Y79.292 Z-0.5 I-0.464 J0.103
X109.792 Y79.442 I-0.15 J0. F250
X109.642 Y79.292 I0. J-0.15
X110.267 Y78.667 I0.625 J0.
X110.892 Y79.292 I0. J0.625
X109.792 Y80.392 I-1.1 J0.
X108.692 Y79.292 I0. J-1.1
X109.792 Y78.192 I1.1 J0.
X110.892 Y79.292 I0. J1.1
X110.737 Y79.487 I-0.2 J0.
G1 X109.607 Y79.746
G3 X109.013 Y79.432 Z-0.526 I-0.14 J-0.454 F333.3
X109.327 Y78.838 Z-0.552 I0.454 J-0.14
X109.921 Y79.153 Z-0.578 I0.14 J0.454
X109.607 Y79.746 Z-0.604 I-0.454 J0.14
X109.013 Y79.432 Z-0.63 I-0.14 J-0.454
X109.327 Y78.838 Z-0.656 I0.454 J-0.14
X109.921 Y79.153 Z-0.682 I0.14 J0.454
X109.607 Y79.746 Z-0.708 I-0.454 J0.14
X109.013 Y79.432 Z-0.734 I-0.14 J-0.454
X109.327 Y78.838 Z-0.761 I0.454 J-0.14
X109.921 Y79.153 Z-0.787 I0.14 J0.454
X109.607 Y79.746 Z-0.813 I-0.454 J0.14
X109.013 Y79.432 Z-0.839 I-0.14 J-0.454
X109.327 Y78.838 Z-0.865 I0.454 J-0.14
X109.921 Y79.153 Z-0.891 I0.14 J0.454
X109.607 Y79.746 Z-0.917 I-0.454 J0.14
X109.013 Y79.432 Z-0.943 I-0.14 J-0.454
X109.327 Y78.838 Z-0.969 I0.454 J-0.14
X109.921 Y79.153 Z-0.995 I0.14 J0.454
X109.942 Y79.292 Z-1. I-0.454 J0.14
X109.792 Y79.442 I-0.15 J0. F250
X109.642 Y79.292 I0. J-0.15
X110.267 Y78.667 I0.625 J0.
X110.892 Y79.292 I0. J0.625
X109.792 Y80.392 I-1.1 J0.
X108.692 Y79.292 I0. J-1.1
X109.792 Y78.192 I1.1 J0.
X110.892 Y79.292 I0. J1.1
X110.737 Y79.487 I-0.2 J0.
G1 X109.607 Y79.746
G3 X109.013 Y79.432 Z-1.026 I-0.14 J-0.454 F333.3
X109.327 Y78.838 Z-1.052 I0.454 J-0.14
X109.921 Y79.153 Z-1.078 I0.14 J0.454
X109.607 Y79.746 Z-1.104 I-0.454 J0.14
X109.013 Y79.432 Z-1.13 I-0.14 J-0.454
X109.327 Y78.838 Z-1.156 I0.454 J-0.14
X109.921 Y79.153 Z-1.182 I0.14 J0.454
X109.607 Y79.746 Z-1.208 I-0.454 J0.14
X109.013 Y79.432 Z-1.234 I-0.14 J-0.454
X109.327 Y78.838 Z-1.261 I0.454 J-0.14
X109.921 Y79.153 Z-1.287 I0.14 J0.454
X109.607 Y79.746 Z-1.313 I-0.454 J0.14
X109.013 Y79.432 Z-1.339 I-0.14 J-0.454
X109.327 Y78.838 Z-1.365 I0.454 J-0.14
X109.921 Y79.153 Z-1.391 I0.14 J0.454
X109.607 Y79.746 Z-1.417 I-0.454 J0.14
X109.013 Y79.432 Z-1.443 I-0.14 J-0.454
X109.327 Y78.838 Z-1.469 I0.454 J-0.14
X109.921 Y79.153 Z-1.495 I0.14 J0.454
X109.942 Y79.292 Z-1.5 I-0.454 J0.14
X109.792 Y79.442 I-0.15 J0. F250
X109.642 Y79.292 I0. J-0.15
X110.267 Y78.667 I0.625 J0.
X110.892 Y79.292 I0. J0.625
X109.792 Y80.392 I-1.1 J0.
X108.692 Y79.292 I0. J-1.1
X109.792 Y78.192 I1.1 J0.
X110.892 Y79.292 I0. J1.1
X110.737 Y79.487 I-0.2 J0.
G1 X109.607 Y79.746
G3 X109.013 Y79.432 Z-1.526 I-0.14 J-0.454 F333.3
X109.327 Y78.838 Z-1.552 I0.454 J-0.14
X109.921 Y79.153 Z-1.578 I0.14 J0.454
X109.607 Y79.746 Z-1.604 I-0.454 J0.14
X109.013 Y79.432 Z-1.63 I-0.14 J-0.454
X109.327 Y78.838 Z-1.656 I0.454 J-0.14
X109.921 Y79.153 Z-1.682 I0.14 J0.454
X109.607 Y79.746 Z-1.708 I-0.454 J0.14
X109.013 Y79.432 Z-1.734 I-0.14 J-0.454
X109.327 Y78.838 Z-1.761 I0.454 J-0.14
X109.921 Y79.153 Z-1.787 I0.14 J0.454
X109.607 Y79.746 Z-1.813 I-0.454 J0.14
X109.013 Y79.432 Z-1.839 I-0.14 J-0.454
X109.327 Y78.838 Z-1.865 I0.454 J-0.14
X109.921 Y79.153 Z-1.891 I0.14 J0.454
X109.607 Y79.746 Z-1.917 I-0.454 J0.14
X109.013 Y79.432 Z-1.943 I-0.14 J-0.454
X109.327 Y78.838 Z-1.969 I0.454 J-0.14
X109.921 Y79.153 Z-1.995 I0.14 J0.454
X109.942 Y79.292 Z-2. I-0.454 J0.14
X109.792 Y79.442 I-0.15 J0. F250
X109.642 Y79.292 I0. J-0.15
X110.267 Y78.667 I0.625 J0.
X110.892 Y79.292 I0. J0.625
X109.792 Y80.392 I-1.1 J0.
X108.692 Y79.292 I0. J-1.1
X109.792 Y78.192 I1.1 J0.
X110.892 Y79.292 I0. J1.1
X110.737 Y79.487 I-0.2 J0.
G1 X109.607 Y79.746
G3 X109.013 Y79.432 Z-2.026 I-0.14 J-0.454 F333.3
X109.327 Y78.838 Z-2.052 I0.454 J-0.14
X109.921 Y79.153 Z-2.078 I0.14 J0.454
X109.607 Y79.746 Z-2.104 I-0.454 J0.14
X109.013 Y79.432 Z-2.13 I-0.14 J-0.454
X109.327 Y78.838 Z-2.156 I0.454 J-0.14
X109.921 Y79.153 Z-2.182 I0.14 J0.454
X109.607 Y79.746 Z-2.208 I-0.454 J0.14
X109.013 Y79.432 Z-2.234 I-0.14 J-0.454
X109.327 Y78.838 Z-2.261 I0.454 J-0.14
X109.921 Y79.153 Z-2.287 I0.14 J0.454
X109.607 Y79.746 Z-2.313 I-0.454 J0.14
X109.013 Y79.432 Z-2.339 I-0.14 J-0.454
X109.327 Y78.838 Z-2.365 I0.454 J-0.14
X109.921 Y79.153 Z-2.391 I0.14 J0.454
X109.607 Y79.746 Z-2.417 I-0.454 J0.14
X109.013 Y79.432 Z-2.443 I-0.14 J-0.454
X109.327 Y78.838 Z-2.469 I0.454 J-0.14
X109.921 Y79.153 Z-2.495 I0.14 J0.454
X109.942 Y79.292 Z-2.5 I-0.454 J0.14
X109.792 Y79.442 I-0.15 J0. F250
X109.642 Y79.292 I0. J-0.15
X110.267 Y78.667 I0.625 J0.
X110.892 Y79.292 I0. J0.625
X109.792 Y80.392 I-1.1 J0.
X108.692 Y79.292 I0. J-1.1
X109.792 Y78.192 I1.1 J0.
X110.892 Y79.292 I0. J1.1
X110.868 Y79.357 Z-2.471 I-0.1 J0.
X110.846 Y79.377 Z-2.4 I-0.076 J-0.065
G0 Z5.
X115.907 Y70.655
G1 Z2.6 F250
G3 X115.917 Y70.629 Z2.53 I0.447 J0.161 F333.3
X115.949 Y70.568 Z2.5 I0.436 J0.187
X116.602 Y70.412 Z2.474 I0.405 J0.248
X116.759 Y71.065 Z2.448 I-0.248 J0.405
X116.106 Y71.222 Z2.422 I-0.405 J-0.248
X115.949 Y70.568 Z2.396 I0.248 J-0.405
X116.602 Y70.412 Z2.37 I0.405 J0.248
X116.759 Y71.065 Z2.344 I-0.248 J0.405
X116.106 Y71.222 Z2.318 I-0.405 J-0.248
X115.949 Y70.568 Z2.292 I0.248 J-0.405
X116.602 Y70.412 Z2.266 I0.405 J0.248
X116.759 Y71.065 Z2.239 I-0.248 J0.405
X116.106 Y71.222 Z2.213 I-0.405 J-0.248
X115.949 Y70.568 Z2.187 I0.248 J-0.405
X116.602 Y70.412 Z2.161 I0.405 J0.248
X116.759 Y71.065 Z2.135 I-0.248 J0.405
X116.106 Y71.222 Z2.109 I-0.405 J-0.248
X115.949 Y70.568 Z2.083 I0.248 J-0.405
X116.602 Y70.412 Z2.057 I0.405 J0.248
X116.759 Y71.065 Z2.031 I-0.248 J0.405
X116.106 Y71.222 Z2.005 I-0.405 J-0.248
X115.949 Y70.568 Z1.979 I0.248 J-0.405
X116.602 Y70.412 Z1.953 I0.405 J0.248
X116.759 Y71.065 Z1.927 I-0.248 J0.405
X116.106 Y71.222 Z1.901 I-0.405 J-0.248
X115.949 Y70.568 Z1.875 I0.248 J-0.405
X116.602 Y70.412 Z1.849 I0.405 J0.248
X116.759 Y71.065 Z1.823 I-0.248 J0.405
X116.106 Y71.222 Z1.797 I-0.405 J-0.248
X115.949 Y70.568 Z1.77 I0.248 J-0.405
X116.602 Y70.412 Z1.744 I0.405 J0.248
X116.759 Y71.065 Z1.718 I-0.248 J0.405
X116.106 Y71.222 Z1.692 I-0.405 J-0.248
X115.949 Y70.568 Z1.666 I0.248 J-0.405
X116.602 Y70.412 Z1.64 I0.405 J0.248
X116.759 Y71.065 Z1.614 I-0.248 J0.405
X116.106 Y71.222 Z1.588 I-0.405 J-0.248
X115.949 Y70.568 Z1.562 I0.248 J-0.405
X116.602 Y70.412 Z1.536 I0.405 J0.248
X116.759 Y71.065 Z1.51 I-0.248 J0.405
X116.106 Y71.222 Z1.484 I-0.405 J-0.248
X115.949 Y70.568 Z1.458 I0.248 J-0.405
X116.602 Y70.412 Z1.432 I0.405 J0.248
X116.759 Y71.065 Z1.406 I-0.248 J0.405
X116.106 Y71.222 Z1.38 I-0.405 J-0.248
X115.949 Y70.568 Z1.354 I0.248 J-0.405
X116.602 Y70.412 Z1.328 I0.405 J0.248
X116.759 Y71.065 Z1.301 I-0.248 J0.405
X116.106 Y71.222 Z1.275 I-0.405 J-0.248
X115.949 Y70.568 Z1.249 I0.248 J-0.405
X116.602 Y70.412 Z1.223 I0.405 J0.248
X116.759 Y71.065 Z1.197 I-0.248 J0.405
X116.106 Y71.222 Z1.171 I-0.405 J-0.248
X115.949 Y70.568 Z1.145 I0.248 J-0.405
X116.602 Y70.412 Z1.119 I0.405 J0.248
X116.759 Y71.065 Z1.093 I-0.248 J0.405
X116.106 Y71.222 Z1.067 I-0.405 J-0.248
X115.949 Y70.568 Z1.041 I0.248 J-0.405
X116.602 Y70.412 Z1.015 I0.405 J0.248
X116.759 Y71.065 Z0.989 I-0.248 J0.405
X116.106 Y71.222 Z0.963 I-0.405 J-0.248
X115.949 Y70.568 Z0.937 I0.248 J-0.405
X116.602 Y70.412 Z0.911 I0.405 J0.248
X116.759 Y71.065 Z0.885 I-0.248 J0.405
X116.106 Y71.222 Z0.859 I-0.405 J-0.248
X115.949 Y70.568 Z0.832 I0.248 J-0.405
X116.602 Y70.412 Z0.806 I0.405 J0.248
X116.759 Y71.065 Z0.78 I-0.248 J0.405
X116.106 Y71.222 Z0.754 I-0.405 J-0.248
X115.949 Y70.568 Z0.728 I0.248 J-0.405
X116.602 Y70.412 Z0.702 I0.405 J0.248
X116.759 Y71.065 Z0.676 I-0.248 J0.405
X116.106 Y71.222 Z0.65 I-0.405 J-0.248
X115.949 Y70.568 Z0.624 I0.248 J-0.405
X116.602 Y70.412 Z0.598 I0.405 J0.248
X116.759 Y71.065 Z0.572 I-0.248 J0.405
X116.106 Y71.222 Z0.546 I-0.405 J-0.248
X115.949 Y70.568 Z0.52 I0.248 J-0.405
X116.602 Y70.412 Z0.494 I0.405 J0.248
X116.759 Y71.065 Z0.468 I-0.248 J0.405
X116.106 Y71.222 Z0.442 I-0.405 J-0.248
X115.949 Y70.568 Z0.416 I0.248 J-0.405
X116.602 Y70.412 Z0.39 I0.405 J0.248
X116.759 Y71.065 Z0.363 I-0.248 J0.405
X116.106 Y71.222 Z0.337 I-0.405 J-0.248
X115.949 Y70.568 Z0.311 I0.248 J-0.405
X116.602 Y70.412 Z0.285 I0.405 J0.248
X116.759 Y71.065 Z0.259 I-0.248 J0.405
X116.106 Y71.222 Z0.233 I-0.405 J-0.248
X115.949 Y70.568 Z0.207 I0.248 J-0.405
X116.602 Y70.412 Z0.181 I0.405 J0.248
X116.759 Y71.065 Z0.155 I-0.248 J0.405
X116.106 Y71.222 Z0.129 I-0.405 J-0.248
X115.949 Y70.568 Z0.103 I0.248 J-0.405
X116.602 Y70.412 Z0.077 I0.405 J0.248
X116.759 Y71.065 Z0.051 I-0.248 J0.405
X116.106 Y71.222 Z0.025 I-0.405 J-0.248
X115.949 Y70.568 Z-0.001 I0.248 J-0.405
X116.602 Y70.412 Z-0.027 I0.405 J0.248
X116.759 Y71.065 Z-0.053 I-0.248 J0.405
X116.106 Y71.222 Z-0.079 I-0.405 J-0.248
X115.949 Y70.568 Z-0.106 I0.248 J-0.405
X116.602 Y70.412 Z-0.132 I0.405 J0.248
X116.759 Y71.065 Z-0.158 I-0.248 J0.405
X116.106 Y71.222 Z-0.184 I-0.405 J-0.248
X115.949 Y70.568 Z-0.21 I0.248 J-0.405
X116.602 Y70.412 Z-0.236 I0.405 J0.248
X116.759 Y71.065 Z-0.262 I-0.248 J0.405
X116.106 Y71.222 Z-0.288 I-0.405 J-0.248
X115.949 Y70.568 Z-0.314 I0.248 J-0.405
X116.602 Y70.412 Z-0.34 I0.405 J0.248
X116.759 Y71.065 Z-0.366 I-0.248 J0.405
X116.106 Y71.222 Z-0.392 I-0.405 J-0.248
X115.949 Y70.568 Z-0.418 I0.248 J-0.405
X116.602 Y70.412 Z-0.444 I0.405 J0.248
X116.759 Y71.065 Z-0.47 I-0.248 J0.405
X116.106 Y71.222 Z-0.496 I-0.405 J-0.248
X116.024 Y71.158 Z-0.5 I0.248 J-0.405
G1 X116.02 Y71.155 F250
G3 Y70.765 I0.195 J-0.195
X116.215 Y70.685 I0.195 J0.195
X116.41 Y70.765 I0. J0.275
X117.349 Y71.736 I-29.119 J29.1
G2 X118.287 Y72.706 I29.845 J-27.924
G3 Y73.032 I-0.163 J0.163
X117.961 I-0.163 J-0.163
G1 X116.024 Y71.158
G2 X115.655 Y71.052 I-0.283 J0.293
G3 X115.384 Y70.877 I-0.048 J-0.223
Y70.781 I0.223 J-0.048
X116.394 Y70.129 I0.831 J0.179
X116.816 Y70.359 I-0.179 J0.831
G1 X118.725 Y72.268
G3 Y73.47 I-0.601 J0.601
X117.523 I-0.601 J-0.601
G1 X115.615 Y71.561
G3 X115.384 Y70.781 I0.601 J-0.601
X115.531 Y70.668 I0.141 J0.03
G1 X115.796 Y70.68
G2 X115.93 Y70.601 I0.006 J-0.144
G3 X116.569 Y70.393 Z-0.526 I0.423 J0.215 F333.3
X116.777 Y71.032 Z-0.552 I-0.215 J0.423
X116.139 Y71.24 Z-0.578 I-0.423 J-0.215
X115.93 Y70.601 Z-0.604 I0.215 J-0.423
X116.569 Y70.393 Z-0.63 I0.423 J0.215
X116.777 Y71.032 Z-0.656 I-0.215 J0.423
X116.139 Y71.24 Z-0.682 I-0.423 J-0.215
X115.93 Y70.601 Z-0.708 I0.215 J-0.423
X116.569 Y70.393 Z-0.734 I0.423 J0.215
X116.777 Y71.032 Z-0.761 I-0.215 J0.423
X116.139 Y71.24 Z-0.787 I-0.423 J-0.215
X115.93 Y70.601 Z-0.813 I0.215 J-0.423
X116.569 Y70.393 Z-0.839 I0.423 J0.215
X116.777 Y71.032 Z-0.865 I-0.215 J0.423
X116.139 Y71.24 Z-0.891 I-0.423 J-0.215
X115.93 Y70.601 Z-0.917 I0.215 J-0.423
X116.569 Y70.393 Z-0.943 I0.423 J0.215
X116.777 Y71.032 Z-0.969 I-0.215 J0.423
X116.139 Y71.24 Z-0.995 I-0.423 J-0.215
X116.024 Y71.158 Z-1. I0.215 J-0.423
G1 X116.02 Y71.155 F250
G3 Y70.765 I0.195 J-0.195
X116.215 Y70.685 I0.195 J0.195
X116.41 Y70.765 I0. J0.275
X117.349 Y71.736 I-29.119 J29.1
G2 X118.287 Y72.706 I29.845 J-27.924
G3 Y73.032 I-0.163 J0.163
X117.961 I-0.163 J-0.163
G1 X116.024 Y71.158
G2 X115.655 Y71.052 I-0.283 J0.293
G3 X115.384 Y70.877 I-0.048 J-0.223
Y70.781 I0.223 J-0.048
X116.394 Y70.129 I0.831 J0.179
X116.816 Y70.359 I-0.179 J0.831
G1 X118.725 Y72.268
G3 Y73.47 I-0.601 J0.601
X117.523 I-0.601 J-0.601
G1 X115.615 Y71.561
G3 X115.384 Y70.781 I0.601 J-0.601
X115.531 Y70.668 I0.141 J0.03
G1 X115.796 Y70.68
G2 X115.93 Y70.601 I0.006 J-0.144
G3 X116.569 Y70.393 Z-1.026 I0.423 J0.215 F333.3
X116.777 Y71.032 Z-1.052 I-0.215 J0.423
X116.139 Y71.24 Z-1.078 I-0.423 J-0.215
X115.93 Y70.601 Z-1.104 I0.215 J-0.423
X116.569 Y70.393 Z-1.13 I0.423 J0.215
X116.777 Y71.032 Z-1.156 I-0.215 J0.423
X116.139 Y71.24 Z-1.182 I-0.423 J-0.215
X115.93 Y70.601 Z-1.208 I0.215 J-0.423
X116.569 Y70.393 Z-1.234 I0.423 J0.215
X116.777 Y71.032 Z-1.261 I-0.215 J0.423
X116.139 Y71.24 Z-1.287 I-0.423 J-0.215
X115.93 Y70.601 Z-1.313 I0.215 J-0.423
X116.569 Y70.393 Z-1.339 I0.423 J0.215
X116.777 Y71.032 Z-1.365 I-0.215 J0.423
X116.139 Y71.24 Z-1.391 I-0.423 J-0.215
X115.93 Y70.601 Z-1.417 I0.215 J-0.423
X116.569 Y70.393 Z-1.443 I0.423 J0.215
X116.777 Y71.032 Z-1.469 I-0.215 J0.423
X116.139 Y71.24 Z-1.495 I-0.423 J-0.215
X116.024 Y71.158 Z-1.5 I0.215 J-0.423
G1 X116.02 Y71.155 F250
G3 Y70.765 I0.195 J-0.195
X116.215 Y70.685 I0.195 J0.195
X116.41 Y70.765 I0. J0.275
X117.349 Y71.736 I-29.119 J29.1
G2 X118.287 Y72.706 I29.845 J-27.924
G3 Y73.032 I-0.163 J0.163
X117.961 I-0.163 J-0.163
G1 X116.024 Y71.158
G2 X115.655 Y71.052 I-0.283 J0.293
G3 X115.384 Y70.877 I-0.048 J-0.223
Y70.781 I0.223 J-0.048
X116.394 Y70.129 I0.831 J0.179
X116.816 Y70.359 I-0.179 J0.831
G1 X118.725 Y72.268
G3 Y73.47 I-0.601 J0.601
X117.523 I-0.601 J-0.601
G1 X115.615 Y71.561
G3 X115.384 Y70.781 I0.601 J-0.601
X115.531 Y70.668 I0.141 J0.03
G1 X115.796 Y70.68
G2 X115.93 Y70.601 I0.006 J-0.144
G3 X116.569 Y70.393 Z-1.526 I0.423 J0.215 F333.3
X116.777 Y71.032 Z-1.552 I-0.215 J0.423
X116.139 Y71.24 Z-1.578 I-0.423 J-0.215
X115.93 Y70.601 Z-1.604 I0.215 J-0.423
X116.569 Y70.393 Z-1.63 I0.423 J0.215
X116.777 Y71.032 Z-1.656 I-0.215 J0.423
X116.139 Y71.24 Z-1.682 I-0.423 J-0.215
X115.93 Y70.601 Z-1.708 I0.215 J-0.423
X116.569 Y70.393 Z-1.734 I0.423 J0.215
X116.777 Y71.032 Z-1.761 I-0.215 J0.423
X116.139 Y71.24 Z-1.787 I-0.423 J-0.215
X115.93 Y70.601 Z-1.813 I0.215 J-0.423
X116.569 Y70.393 Z-1.839 I0.423 J0.215
X116.777 Y71.032 Z-1.865 I-0.215 J0.423
X116.139 Y71.24 Z-1.891 I-0.423 J-0.215
X115.93 Y70.601 Z-1.917 I0.215 J-0.423
X116.569 Y70.393 Z-1.943 I0.423 J0.215
X116.777 Y71.032 Z-1.969 I-0.215 J0.423
X116.139 Y71.24 Z-1.995 I-0.423 J-0.215
X116.024 Y71.158 Z-2. I0.215 J-0.423
G1 X116.02 Y71.155 F250
G3 Y70.765 I0.195 J-0.195
X116.215 Y70.685 I0.195 J0.195
X116.41 Y70.765 I0. J0.275
X117.349 Y71.736 I-29.119 J29.1
G2 X118.287 Y72.706 I29.845 J-27.924
G3 Y73.032 I-0.163 J0.163
X117.961 I-0.163 J-0.163
G1 X116.024 Y71.158
G2 X115.655 Y71.052 I-0.283 J0.293
G3 X115.384 Y70.877 I-0.048 J-0.223
Y70.781 I0.223 J-0.048
X116.394 Y70.129 I0.831 J0.179
X116.816 Y70.359 I-0.179 J0.831
G1 X118.725 Y72.268
G3 Y73.47 I-0.601 J0.601
X117.523 I-0.601 J-0.601
G1 X115.615 Y71.561
G3 X115.384 Y70.781 I0.601 J-0.601
X115.531 Y70.668 I0.141 J0.03
G1 X115.796 Y70.68
G2 X115.93 Y70.601 I0.006 J-0.144
G3 X116.569 Y70.393 Z-2.026 I0.423 J0.215 F333.3
X116.777 Y71.032 Z-2.052 I-0.215 J0.423
X116.139 Y71.24 Z-2.078 I-0.423 J-0.215
X115.93 Y70.601 Z-2.104 I0.215 J-0.423
X116.569 Y70.393 Z-2.13 I0.423 J0.215
X116.777 Y71.032 Z-2.156 I-0.215 J0.423
X116.139 Y71.24 Z-2.182 I-0.423 J-0.215
X115.93 Y70.601 Z-2.208 I0.215 J-0.423
X116.569 Y70.393 Z-2.234 I0.423 J0.215
X116.777 Y71.032 Z-2.261 I-0.215 J0.423
X116.139 Y71.24 Z-2.287 I-0.423 J-0.215
X115.93 Y70.601 Z-2.313 I0.215 J-0.423
X116.569 Y70.393 Z-2.339 I0.423 J0.215
X116.777 Y71.032 Z-2.365 I-0.215 J0.423
X116.139 Y71.24 Z-2.391 I-0.423 J-0.215
X115.93 Y70.601 Z-2.417 I0.215 J-0.423
X116.569 Y70.393 Z-2.443 I0.423 J0.215
X116.777 Y71.032 Z-2.469 I-0.215 J0.423
X116.139 Y71.24 Z-2.495 I-0.423 J-0.215
X116.024 Y71.158 Z-2.5 I0.215 J-0.423
G1 X116.02 Y71.155 F250
G3 Y70.765 I0.195 J-0.195
X116.215 Y70.685 I0.195 J0.195
X116.41 Y70.765 I0. J0.275
X117.349 Y71.736 I-29.119 J29.1
G2 X118.287 Y72.706 I29.845 J-27.924
G3 Y73.032 I-0.163 J0.163
X117.961 I-0.163 J-0.163
G1 X116.024 Y71.158
G2 X115.655 Y71.052 I-0.283 J0.293
G3 X115.384 Y70.877 I-0.048 J-0.223
Y70.781 I0.223 J-0.048
X116.394 Y70.129 I0.831 J0.179
X116.816 Y70.359 I-0.179 J0.831
G1 X118.725 Y72.268
G3 Y73.47 I-0.601 J0.601
X117.523 I-0.601 J-0.601
G1 X115.615 Y71.561
G3 X115.384 Y70.781 I0.601 J-0.601
X115.421 Y70.723 Z-2.471 I0.098 J0.021
X115.447 Y70.709 Z-2.4 I0.061 J0.08
G0 Z5.
X79.162 Y79.726
G1 Z2.6 F250
G3 X79.136 Y79.736 Z2.53 I-0.195 J-0.433 F333.3
X79.071 Y79.756 Z2.5 I-0.169 J-0.444
X78.504 Y79.396 Z2.474 I-0.103 J-0.464
X78.864 Y78.829 Z2.448 I0.464 J-0.103
X79.431 Y79.189 Z2.422 I0.103 J0.464
X79.071 Y79.756 Z2.396 I-0.464 J0.103
X78.504 Y79.396 Z2.37 I-0.103 J-0.464
X78.864 Y78.829 Z2.344 I0.464 J-0.103
X79.431 Y79.189 Z2.318 I0.103 J0.464
X79.071 Y79.756 Z2.292 I-0.464 J0.103
X78.504 Y79.396 Z2.266 I-0.103 J-0.464
X78.864 Y78.829 Z2.239 I0.464 J-0.103
X79.431 Y79.189 Z2.213 I0.103 J0.464
X79.071 Y79.756 Z2.187 I-0.464 J0.103
X78.504 Y79.396 Z2.161 I-0.103 J-0.464
X78.864 Y78.829 Z2.135 I0.464 J-0.103
X79.431 Y79.189 Z2.109 I0.103 J0.464
X79.071 Y79.756 Z2.083 I-0.464 J0.103
X78.504 Y79.396 Z2.057 I-0.103 J-0.464
X78.864 Y78.829 Z2.031 I0.464 J-0.103
X79.431 Y79.189 Z2.005 I0.103 J0.464
X79.071 Y79.756 Z1.979 I-0.464 J0.103
X78.504 Y79.396 Z1.953 I-0.103 J-0.464
X78.864 Y78.829 Z1.927 I0.464 J-0.103
X79.431 Y79.189 Z1.901 I0.103 J0.464
X79.071 Y79.756 Z1.875 I-0.464 J0.103
X78.504 Y79.396 Z1.849 I-0.103 J-0.464
X78.864 Y78.829 Z1.823 I0.464 J-0.103
X79.431 Y79.189 Z1.797 I0.103 J0.464
X79.071 Y79.756 Z1.77 I-0.464 J0.103
X78.504 Y79.396 Z1.744 I-0.103 J-0.464
X78.864 Y78.829 Z1.718 I0.464 J-0.103
X79.431 Y79.189 Z1.692 I0.103 J0.464
X79.071 Y79.756 Z1.666 I-0.464 J0.103
X78.504 Y79.396 Z1.64 I-0.103 J-0.464
X78.864 Y78.829 Z1.614 I0.464 J-0.103
X79.431 Y79.189 Z1.588 I0.103 J0.464
X79.071 Y79.756 Z1.562 I-0.464 J0.103
X78.504 Y79.396 Z1.536 I-0.103 J-0.464
X78.864 Y78.829 Z1.51 I0.464 J-0.103
X79.431 Y79.189 Z1.484 I0.103 J0.464
X79.071 Y79.756 Z1.458 I-0.464 J0.103
X78.504 Y79.396 Z1.432 I-0.103 J-0.464
X78.864 Y78.829 Z1.406 I0.464 J-0.103
X79.431 Y79.189 Z1.38 I0.103 J0.464
X79.071 Y79.756 Z1.354 I-0.464 J0.103
X78.504 Y79.396 Z1.328 I-0.103 J-0.464
X78.864 Y78.829 Z1.301 I0.464 J-0.103
X79.431 Y79.189 Z1.275 I0.103 J0.464
X79.071 Y79.756 Z1.249 I-0.464 J0.103
X78.504 Y79.396 Z1.223 I-0.103 J-0.464
X78.864 Y78.829 Z1.197 I0.464 J-0.103
X79.431 Y79.189 Z1.171 I0.103 J0.464
X79.071 Y79.756 Z1.145 I-0.464 J0.103
X78.504 Y79.396 Z1.119 I-0.103 J-0.464
X78.864 Y78.829 Z1.093 I0.464 J-0.103
X79.431 Y79.189 Z1.067 I0.103 J0.464
X79.071 Y79.756 Z1.041 I-0.464 J0.103
X78.504 Y79.396 Z1.015 I-0.103 J-0.464
X78.864 Y78.829 Z0.989 I0.464 J-0.103
X79.431 Y79.189 Z0.963 I0.103 J0.464
X79.071 Y79.756 Z0.937 I-0.464 J0.103
X78.504 Y79.396 Z0.911 I-0.103 J-0.464
X78.864 Y78.829 Z0.885 I0.464 J-0.103
X79.431 Y79.189 Z0.859 I0.103 J0.464
X79.071 Y79.756 Z0.832 I-0.464 J0.103
X78.504 Y79.396 Z0.806 I-0.103 J-0.464
X78.864 Y78.829 Z0.78 I0.464 J-0.103
X79.431 Y79.189 Z0.754 I0.103 J0.464
X79.071 Y79.756 Z0.728 I-0.464 J0.103
X78.504 Y79.396 Z0.702 I-0.103 J-0.464
X78.864 Y78.829 Z0.676 I0.464 J-0.103
X79.431 Y79.189 Z0.65 I0.103 J0.464
X79.071 Y79.756 Z0.624 I-0.464 J0.103
X78.504 Y79.396 Z0.598 I-0.103 J-0.464
X78.864 Y78.829 Z0.572 I0.464 J-0.103
X79.431 Y79.189 Z0.546 I0.103 J0.464
X79.071 Y79.756 Z0.52 I-0.464 J0.103
X78.504 Y79.396 Z0.494 I-0.103 J-0.464
X78.864 Y78.829 Z0.468 I0.464 J-0.103
X79.431 Y79.189 Z0.442 I0.103 J0.464
X79.071 Y79.756 Z0.416 I-0.464 J0.103
X78.504 Y79.396 Z0.39 I-0.103 J-0.464
X78.864 Y78.829 Z0.363 I0.464 J-0.103
X79.431 Y79.189 Z0.337 I0.103 J0.464
X79.071 Y79.756 Z0.311 I-0.464 J0.103
X78.504 Y79.396 Z0.285 I-0.103 J-0.464
X78.864 Y78.829 Z0.259 I0.464 J-0.103
X79.431 Y79.189 Z0.233 I0.103 J0.464
X79.071 Y79.756 Z0.207 I-0.464 J0.103
X78.504 Y79.396 Z0.181 I-0.103 J-0.464
X78.864 Y78.829 Z0.155 I0.464 J-0.103
X79.431 Y79.189 Z0.129 I0.103 J0.464
X79.071 Y79.756 Z0.103 I-0.464 J0.103
X78.504 Y79.396 Z0.077 I-0.103 J-0.464
X78.864 Y78.829 Z0.051 I0.464 J-0.103
X79.431 Y79.189 Z0.025 I0.103 J0.464
X79.071 Y79.756 Z-0.001 I-0.464 J0.103
X78.504 Y79.396 Z-0.027 I-0.103 J-0.464
X78.864 Y78.829 Z-0.053 I0.464 J-0.103
X79.431 Y79.189 Z-0.079 I0.103 J0.464
X79.071 Y79.756 Z-0.106 I-0.464 J0.103
X78.504 Y79.396 Z-0.132 I-0.103 J-0.464
X78.864 Y78.829 Z-0.158 I0.464 J-0.103
X79.431 Y79.189 Z-0.184 I0.103 J0.464
X79.071 Y79.756 Z-0.21 I-0.464 J0.103
X78.504 Y79.396 Z-0.236 I-0.103 J-0.464
X78.864 Y78.829 Z-0.262 I0.464 J-0.103
X79.431 Y79.189 Z-0.288 I0.103 J0.464
X79.071 Y79.756 Z-0.314 I-0.464 J0.103
X78.504 Y79.396 Z-0.34 I-0.103 J-0.464
X78.864 Y78.829 Z-0.366 I0.464 J-0.103
X79.431 Y79.189 Z-0.392 I0.103 J0.464
X79.071 Y79.756 Z-0.418 I-0.464 J0.103
X78.504 Y79.396 Z-0.444 I-0.103 J-0.464
X78.864 Y78.829 Z-0.47 I0.464 J-0.103
X79.431 Y79.189 Z-0.496 I0.103 J0.464
X79.442 Y79.292 Z-0.5 I-0.464 J0.103
X79.292 Y79.442 I-0.15 J0. F250
X79.142 Y79.292 I0. J-0.15
X79.767 Y78.667 I0.625 J0.
X80.392 Y79.292 I0. J0.625
X79.292 Y80.392 I-1.1 J0.
X78.192 Y79.292 I0. J-1.1
X79.292 Y78.192 I1.1 J0.
X80.392 Y79.292 I0. J1.1
X80.237 Y79.487 I-0.2 J0.
G1 X79.107 Y79.746
G3 X78.513 Y79.432 Z-0.526 I-0.14 J-0.454 F333.3
X78.828 Y78.838 Z-0.552 I0.454 J-0.14
X79.421 Y79.153 Z-0.578 I0.14 J0.454
X79.107 Y79.746 Z-0.604 I-0.454 J0.14
X78.513 Y79.432 Z-0.63 I-0.14 J-0.454
X78.828 Y78.838 Z-0.656 I0.454 J-0.14
X79.421 Y79.153 Z-0.682 I0.14 J0.454
X79.107 Y79.746 Z-0.708 I-0.454 J0.14
X78.513 Y79.432 Z-0.734 I-0.14 J-0.454
X78.828 Y78.838 Z-0.761 I0.454 J-0.14
X79.421 Y79.153 Z-0.787 I0.14 J0.454
X79.107 Y79.746 Z-0.813 I-0.454 J0.14
X78.513 Y79.432 Z-0.839 I-0.14 J-0.454
X78.828 Y78.838 Z-0.865 I0.454 J-0.14
X79.421 Y79.153 Z-0.891 I0.14 J0.454
X79.107 Y79.746 Z-0.917 I-0.454 J0.14
X78.513 Y79.432 Z-0.943 I-0.14 J-0.454
X78.828 Y78.838 Z-0.969 I0.454 J-0.14
X79.421 Y79.153 Z-0.995 I0.14 J0.454
X79.442 Y79.292 Z-1. I-0.454 J0.14
X79.292 Y79.442 I-0.15 J0. F250
X79.142 Y79.292 I0. J-0.15
X79.767 Y78.667 I0.625 J0.
X80.392 Y79.292 I0. J0.625
X79.292 Y80.392 I-1.1 J0.
X78.192 Y79.292 I0. J-1.1
X79.292 Y78.192 I1.1 J0.
X80.392 Y79.292 I0. J1.1
X80.237 Y79.487 I-0.2 J0.
G1 X79.107 Y79.746
G3 X78.513 Y79.432 Z-1.026 I-0.14 J-0.454 F333.3
X78.828 Y78.838 Z-1.052 I0.454 J-0.14
X79.421 Y79.153 Z-1.078 I0.14 J0.454
X79.107 Y79.746 Z-1.104 I-0.454 J0.14
X78.513 Y79.432 Z-1.13 I-0.14 J-0.454
X78.828 Y78.838 Z-1.156 I0.454 J-0.14
X79.421 Y79.153 Z-1.182 I0.14 J0.454
X79.107 Y79.746 Z-1.208 I-0.454 J0.14
X78.513 Y79.432 Z-1.234 I-0.14 J-0.454
X78.828 Y78.838 Z-1.261 I0.454 J-0.14
X79.421 Y79.153 Z-1.287 I0.14 J0.454
X79.107 Y79.746 Z-1.313 I-0.454 J0.14
X78.513 Y79.432 Z-1.339 I-0.14 J-0.454
X78.828 Y78.838 Z-1.365 I0.454 J-0.14
X79.421 Y79.153 Z-1.391 I0.14 J0.454
X79.107 Y79.746 Z-1.417 I-0.454 J0.14
X78.513 Y79.432 Z-1.443 I-0.14 J-0.454
X78.828 Y78.838 Z-1.469 I0.454 J-0.14
X79.421 Y79.153 Z-1.495 I0.14 J0.454
X79.442 Y79.292 Z-1.5 I-0.454 J0.14
X79.292 Y79.442 I-0.15 J0. F250
X79.142 Y79.292 I0. J-0.15
X79.767 Y78.667 I0.625 J0.
X80.392 Y79.292 I0. J0.625
X79.292 Y80.392 I-1.1 J0.
X78.192 Y79.292 I0. J-1.1
X79.292 Y78.192 I1.1 J0.
X80.392 Y79.292 I0. J1.1
X80.237 Y79.487 I-0.2 J0.
G1 X79.107 Y79.746
G3 X78.513 Y79.432 Z-1.526 I-0.14 J-0.454 F333.3
X78.828 Y78.838 Z-1.552 I0.454 J-0.14
X79.421 Y79.153 Z-1.578 I0.14 J0.454
X79.107 Y79.746 Z-1.604 I-0.454 J0.14
X78.513 Y79.432 Z-1.63 I-0.14 J-0.454
X78.828 Y78.838 Z-1.656 I0.454 J-0.14
X79.421 Y79.153 Z-1.682 I0.14 J0.454
X79.107 Y79.746 Z-1.708 I-0.454 J0.14
X78.513 Y79.432 Z-1.734 I-0.14 J-0.454
X78.828 Y78.838 Z-1.761 I0.454 J-0.14
X79.421 Y79.153 Z-1.787 I0.14 J0.454
X79.107 Y79.746 Z-1.813 I-0.454 J0.14
X78.513 Y79.432 Z-1.839 I-0.14 J-0.454
X78.828 Y78.838 Z-1.865 I0.454 J-0.14
X79.421 Y79.153 Z-1.891 I0.14 J0.454
X79.107 Y79.746 Z-1.917 I-0.454 J0.14
X78.513 Y79.432 Z-1.943 I-0.14 J-0.454
X78.828 Y78.838 Z-1.969 I0.454 J-0.14
X79.421 Y79.153 Z-1.995 I0.14 J0.454
X79.442 Y79.292 Z-2. I-0.454 J0.14
X79.292 Y79.442 I-0.15 J0. F250
X79.142 Y79.292 I0. J-0.15
X79.767 Y78.667 I0.625 J0.
X80.392 Y79.292 I0. J0.625
X79.292 Y80.392 I-1.1 J0.
X78.192 Y79.292 I0. J-1.1
X79.292 Y78.192 I1.1 J0.
X80.392 Y79.292 I0. J1.1
X80.237 Y79.487 I-0.2 J0.
G1 X79.107 Y79.746
G3 X78.513 Y79.432 Z-2.026 I-0.14 J-0.454 F333.3
X78.828 Y78.838 Z-2.052 I0.454 J-0.14
X79.421 Y79.153 Z-2.078 I0.14 J0.454
X79.107 Y79.746 Z-2.104 I-0.454 J0.14
X78.513 Y79.432 Z-2.13 I-0.14 J-0.454
X78.828 Y78.838 Z-2.156 I0.454 J-0.14
X79.421 Y79.153 Z-2.182 I0.14 J0.454
X79.107 Y79.746 Z-2.208 I-0.454 J0.14
X78.513 Y79.432 Z-2.234 I-0.14 J-0.454
X78.828 Y78.838 Z-2.261 I0.454 J-0.14
X79.421 Y79.153 Z-2.287 I0.14 J0.454
X79.107 Y79.746 Z-2.313 I-0.454 J0.14
X78.513 Y79.432 Z-2.339 I-0.14 J-0.454
X78.828 Y78.838 Z-2.365 I0.454 J-0.14
X79.421 Y79.153 Z-2.391 I0.14 J0.454
X79.107 Y79.746 Z-2.417 I-0.454 J0.14
X78.513 Y79.432 Z-2.443 I-0.14 J-0.454
X78.828 Y78.838 Z-2.469 I0.454 J-0.14
X79.421 Y79.153 Z-2.495 I0.14 J0.454
X79.442 Y79.292 Z-2.5 I-0.454 J0.14
X79.292 Y79.442 I-0.15 J0. F250
X79.142 Y79.292 I0. J-0.15
X79.767 Y78.667 I0.625 J0.
X80.392 Y79.292 I0. J0.625
X79.292 Y80.392 I-1.1 J0.
X78.192 Y79.292 I0. J-1.1
X79.292 Y78.192 I1.1 J0.
X80.392 Y79.292 I0. J1.1
X80.368 Y79.357 Z-2.471 I-0.1 J0.
X80.346 Y79.377 Z-2.4 I-0.076 J-0.065
G0 Z5.
X73.174 Y70.652
G1 Z2.6 F250
G3 X73.2 Y70.663 Z2.53 I-0.161 J0.447 F333.3
X73.261 Y70.694 Z2.5 I-0.187 J0.436
X73.418 Y71.347 Z2.474 I-0.248 J0.405
X72.765 Y71.504 Z2.448 I-0.405 J-0.248
X72.608 Y70.851 Z2.422 I0.248 J-0.405
X73.261 Y70.694 Z2.396 I0.405 J0.248
X73.418 Y71.347 Z2.37 I-0.248 J0.405
X72.765 Y71.504 Z2.344 I-0.405 J-0.248
X72.608 Y70.851 Z2.318 I0.248 J-0.405
X73.261 Y70.694 Z2.292 I0.405 J0.248
X73.418 Y71.347 Z2.266 I-0.248 J0.405
X72.765 Y71.504 Z2.239 I-0.405 J-0.248
X72.608 Y70.851 Z2.213 I0.248 J-0.405
X73.261 Y70.694 Z2.187 I0.405 J0.248
X73.418 Y71.347 Z2.161 I-0.248 J0.405
X72.765 Y71.504 Z2.135 I-0.405 J-0.248
X72.608 Y70.851 Z2.109 I0.248 J-0.405
X73.261 Y70.694 Z2.083 I0.405 J0.248
X73.418 Y71.347 Z2.057 I-0.248 J0.405
X72.765 Y71.504 Z2.031 I-0.405 J-0.248
X72.608 Y70.851 Z2.005 I0.248 J-0.405
X73.261 Y70.694 Z1.979 I0.405 J0.248
X73.418 Y71.347 Z1.953 I-0.248 J0.405
X72.765 Y71.504 Z1.927 I-0.405 J-0.248
X72.608 Y70.851 Z1.901 I0.248 J-0.405
X73.261 Y70.694 Z1.875 I0.405 J0.248
X73.418 Y71.347 Z1.849 I-0.248 J0.405
X72.765 Y71.504 Z1.823 I-0.405 J-0.248
X72.608 Y70.851 Z1.797 I0.248 J-0.405
X73.261 Y70.694 Z1.77 I0.405 J0.248
X73.418 Y71.347 Z1.744 I-0.248 J0.405
X72.765 Y71.504 Z1.718 I-0.405 J-0.248
X72.608 Y70.851 Z1.692 I0.248 J-0.405
X73.261 Y70.694 Z1.666 I0.405 J0.248
X73.418 Y71.347 Z1.64 I-0.248 J0.405
X72.765 Y71.504 Z1.614 I-0.405 J-0.248
X72.608 Y70.851 Z1.588 I0.248 J-0.405
X73.261 Y70.694 Z1.562 I0.405 J0.248
X73.418 Y71.347 Z1.536 I-0.248 J0.405
X72.765 Y71.504 Z1.51 I-0.405 J-0.248
X72.608 Y70.851 Z1.484 I0.248 J-0.405
X73.261 Y70.694 Z1.458 I0.405 J0.248
X73.418 Y71.347 Z1.432 I-0.248 J0.405
X72.765 Y71.504 Z1.406 I-0.405 J-0.248
X72.608 Y70.851 Z1.38 I0.248 J-0.405
X73.261 Y70.694 Z1.354 I0.405 J0.248
X73.418 Y71.347 Z1.328 I-0.248 J0.405
X72.765 Y71.504 Z1.301 I-0.405 J-0.248
X72.608 Y70.851 Z1.275 I0.248 J-0.405
X73.261 Y70.694 Z1.249 I0.405 J0.248
X73.418 Y71.347 Z1.223 I-0.248 J0.405
X72.765 Y71.504 Z1.197 I-0.405 J-0.248
X72.608 Y70.851 Z1.171 I0.248 J-0.405
X73.261 Y70.694 Z1.145 I0.405 J0.248
X73.418 Y71.347 Z1.119 I-0.248 J0.405
X72.765 Y71.504 Z1.093 I-0.405 J-0.248
X72.608 Y70.851 Z1.067 I0.248 J-0.405
X73.261 Y70.694 Z1.041 I0.405 J0.248
X73.418 Y71.347 Z1.015 I-0.248 J0.405
X72.765 Y71.504 Z0.989 I-0.405 J-0.248
X72.608 Y70.851 Z0.963 I0.248 J-0.405
X73.261 Y70.694 Z0.937 I0.405 J0.248
X73.418 Y71.347 Z0.911 I-0.248 J0.405
X72.765 Y71.504 Z0.885 I-0.405 J-0.248
X72.608 Y70.851 Z0.859 I0.248 J-0.405
X73.261 Y70.694 Z0.832 I0.405 J0.248
X73.418 Y71.347 Z0.806 I-0.248 J0.405
X72.765 Y71.504 Z0.78 I-0.405 J-0.248
X72.608 Y70.851 Z0.754 I0.248 J-0.405
X73.261 Y70.694 Z0.728 I0.405 J0.248
X73.418 Y71.347 Z0.702 I-0.248 J0.405
X72.765 Y71.504 Z0.676 I-0.405 J-0.248
X72.608 Y70.851 Z0.65 I0.248 J-0.405
X73.261 Y70.694 Z0.624 I0.405 J0.248
X73.418 Y71.347 Z0.598 I-0.248 J0.405
X72.765 Y71.504 Z0.572 I-0.405 J-0.248
X72.608 Y70.851 Z0.546 I0.248 J-0.405
X73.261 Y70.694 Z0.52 I0.405 J0.248
X73.418 Y71.347 Z0.494 I-0.248 J0.405
X72.765 Y71.504 Z0.468 I-0.405 J-0.248
X72.608 Y70.851 Z0.442 I0.248 J-0.405
X73.261 Y70.694 Z0.416 I0.405 J0.248
X73.418 Y71.347 Z0.39 I-0.248 J0.405
X72.765 Y71.504 Z0.363 I-0.405 J-0.248
X72.608 Y70.851 Z0.337 I0.248 J-0.405
X73.261 Y70.694 Z0.311 I0.405 J0.248
X73.418 Y71.347 Z0.285 I-0.248 J0.405
X72.765 Y71.504 Z0.259 I-0.405 J-0.248
X72.608 Y70.851 Z0.233 I0.248 J-0.405
X73.261 Y70.694 Z0.207 I0.405 J0.248
X73.418 Y71.347 Z0.181 I-0.248 J0.405
X72.765 Y71.504 Z0.155 I-0.405 J-0.248
X72.608 Y70.851 Z0.129 I0.248 J-0.405
X73.261 Y70.694 Z0.103 I0.405 J0.248
X73.418 Y71.347 Z0.077 I-0.248 J0.405
X72.765 Y71.504 Z0.051 I-0.405 J-0.248
X72.608 Y70.851 Z0.025 I0.248 J-0.405
X73.261 Y70.694 Z-0.001 I0.405 J0.248
X73.418 Y71.347 Z-0.027 I-0.248 J0.405
X72.765 Y71.504 Z-0.053 I-0.405 J-0.248
X72.608 Y70.851 Z-0.079 I0.248 J-0.405
X73.261 Y70.694 Z-0.106 I0.405 J0.248
X73.418 Y71.347 Z-0.132 I-0.248 J0.405
X72.765 Y71.504 Z-0.158 I-0.405 J-0.248
X72.608 Y70.851 Z-0.184 I0.248 J-0.405
X73.261 Y70.694 Z-0.21 I0.405 J0.248
X73.418 Y71.347 Z-0.236 I-0.248 J0.405
X72.765 Y71.504 Z-0.262 I-0.405 J-0.248
X72.608 Y70.851 Z-0.288 I0.248 J-0.405
X73.261 Y70.694 Z-0.314 I0.405 J0.248
X73.418 Y71.347 Z-0.34 I-0.248 J0.405
X72.765 Y71.504 Z-0.366 I-0.405 J-0.248
X72.608 Y70.851 Z-0.392 I0.248 J-0.405
X73.261 Y70.694 Z-0.418 I0.405 J0.248
X73.418 Y71.347 Z-0.444 I-0.248 J0.405
X72.765 Y71.504 Z-0.47 I-0.405 J-0.248
X72.608 Y70.851 Z-0.496 I0.248 J-0.405
X72.672 Y70.769 Z-0.5 I0.405 J0.248
G1 X72.675 Y70.766 F250
G3 X73.064 I0.195 J0.195
Y71.155 I-0.195 J0.195
X72.094 Y72.094 I-28.59 J-28.588
G2 X71.123 Y73.033 I27.682 J29.591
G3 X70.797 I-0.163 J-0.163
Y72.707 I0.163 J-0.163
G1 X72.672 Y70.769
G2 X72.777 Y70.4 I-0.293 J-0.283
G3 X72.953 Y70.129 I0.223 J-0.048
X73.048 Y70.13 I0.048 J0.223
X73.7 Y71.139 I-0.179 J0.831
X73.471 Y71.561 I-0.831 J-0.179
G1 X71.561 Y73.471
G3 X70.359 I-0.601 J-0.601
Y72.269 I0.601 J-0.601
G1 X72.269 Y70.359
G3 X73.048 Y70.13 I0.601 J0.601
X73.162 Y70.277 I-0.03 J0.141
G1 X73.15 Y70.541
G2 X73.228 Y70.676 I0.144 J0.007
G3 X73.436 Y71.314 Z-0.526 I-0.215 J0.423 F333.3
X72.798 Y71.523 Z-0.552 I-0.423 J-0.215
X72.59 Y70.884 Z-0.578 I0.215 J-0.423
X73.228 Y70.676 Z-0.604 I0.423 J0.215
X73.436 Y71.314 Z-0.63 I-0.215 J0.423
X72.798 Y71.523 Z-0.656 I-0.423 J-0.215
X72.59 Y70.884 Z-0.682 I0.215 J-0.423
X73.228 Y70.676 Z-0.708 I0.423 J0.215
X73.436 Y71.314 Z-0.734 I-0.215 J0.423
X72.798 Y71.523 Z-0.761 I-0.423 J-0.215
X72.59 Y70.884 Z-0.787 I0.215 J-0.423
X73.228 Y70.676 Z-0.813 I0.423 J0.215
X73.436 Y71.314 Z-0.839 I-0.215 J0.423
X72.798 Y71.523 Z-0.865 I-0.423 J-0.215
X72.59 Y70.884 Z-0.891 I0.215 J-0.423
X73.228 Y70.676 Z-0.917 I0.423 J0.215
X73.436 Y71.314 Z-0.943 I-0.215 J0.423
X72.798 Y71.523 Z-0.969 I-0.423 J-0.215
X72.59 Y70.884 Z-0.995 I0.215 J-0.423
X72.672 Y70.769 Z-1. I0.423 J0.215
G1 X72.675 Y70.766 F250
G3 X73.064 I0.195 J0.195
Y71.155 I-0.195 J0.195
X72.094 Y72.094 I-28.59 J-28.588
G2 X71.123 Y73.033 I27.682 J29.591
G3 X70.797 I-0.163 J-0.163
Y72.707 I0.163 J-0.163
G1 X72.672 Y70.769
G2 X72.777 Y70.4 I-0.293 J-0.283
G3 X72.953 Y70.129 I0.223 J-0.048
X73.048 Y70.13 I0.048 J0.223
X73.7 Y71.139 I-0.179 J0.831
X73.471 Y71.561 I-0.831 J-0.179
G1 X71.561 Y73.471
G3 X70.359 I-0.601 J-0.601
Y72.269 I0.601 J-0.601
G1 X72.269 Y70.359
G3 X73.048 Y70.13 I0.601 J0.601
X73.162 Y70.277 I-0.03 J0.141
G1 X73.15 Y70.541
G2 X73.228 Y70.676 I0.144 J0.007
G3 X73.436 Y71.314 Z-1.026 I-0.215 J0.423 F333.3
X72.798 Y71.523 Z-1.052 I-0.423 J-0.215
X72.59 Y70.884 Z-1.078 I0.215 J-0.423
X73.228 Y70.676 Z-1.104 I0.423 J0.215
X73.436 Y71.314 Z-1.13 I-0.215 J0.423
X72.798 Y71.523 Z-1.156 I-0.423 J-0.215
X72.59 Y70.884 Z-1.182 I0.215 J-0.423
X73.228 Y70.676 Z-1.208 I0.423 J0.215
X73.436 Y71.314 Z-1.234 I-0.215 J0.423
X72.798 Y71.523 Z-1.261 I-0.423 J-0.215
X72.59 Y70.884 Z-1.287 I0.215 J-0.423
X73.228 Y70.676 Z-1.313 I0.423 J0.215
X73.436 Y71.314 Z-1.339 I-0.215 J0.423
X72.798 Y71.523 Z-1.365 I-0.423 J-0.215
X72.59 Y70.884 Z-1.391 I0.215 J-0.423
X73.228 Y70.676 Z-1.417 I0.423 J0.215
X73.436 Y71.314 Z-1.443 I-0.215 J0.423
X72.798 Y71.523 Z-1.469 I-0.423 J-0.215
X72.59 Y70.884 Z-1.495 I0.215 J-0.423
X72.672 Y70.769 Z-1.5 I0.423 J0.215
G1 X72.675 Y70.766 F250
G3 X73.064 I0.195 J0.195
Y71.155 I-0.195 J0.195
X72.094 Y72.094 I-28.59 J-28.588
G2 X71.123 Y73.033 I27.682 J29.591
G3 X70.797 I-0.163 J-0.163
Y72.707 I0.163 J-0.163
G1 X72.672 Y70.769
G2 X72.777 Y70.4 I-0.293 J-0.283
G3 X72.953 Y70.129 I0.223 J-0.048
X73.048 Y70.13 I0.048 J0.223
X73.7 Y71.139 I-0.179 J0.831
X73.471 Y71.561 I-0.831 J-0.179
G1 X71.561 Y73.471
G3 X70.359 I-0.601 J-0.601
Y72.269 I0.601 J-0.601
G1 X72.269 Y70.359
G3 X73.048 Y70.13 I0.601 J0.601
X73.162 Y70.277 I-0.03 J0.141
G1 X73.15 Y70.541
G2 X73.228 Y70.676 I0.144 J0.007
G3 X73.436 Y71.314 Z-1.526 I-0.215 J0.423 F333.3
X72.798 Y71.523 Z-1.552 I-0.423 J-0.215
X72.59 Y70.884 Z-1.578 I0.215 J-0.423
X73.228 Y70.676 Z-1.604 I0.423 J0.215
X73.436 Y71.314 Z-1.63 I-0.215 J0.423
X72.798 Y71.523 Z-1.656 I-0.423 J-0.215
X72.59 Y70.884 Z-1.682 I0.215 J-0.423
X73.228 Y70.676 Z-1.708 I0.423 J0.215
X73.436 Y71.314 Z-1.734 I-0.215 J0.423
X72.798 Y71.523 Z-1.761 I-0.423 J-0.215
X72.59 Y70.884 Z-1.787 I0.215 J-0.423
X73.228 Y70.676 Z-1.813 I0.423 J0.215
X73.436 Y71.314 Z-1.839 I-0.215 J0.423
X72.798 Y71.523 Z-1.865 I-0.423 J-0.215
X72.59 Y70.884 Z-1.891 I0.215 J-0.423
X73.228 Y70.676 Z-1.917 I0.423 J0.215
X73.436 Y71.314 Z-1.943 I-0.215 J0.423
X72.798 Y71.523 Z-1.969 I-0.423 J-0.215
X72.59 Y70.884 Z-1.995 I0.215 J-0.423
X72.672 Y70.769 Z-2. I0.423 J0.215
G1 X72.675 Y70.766 F250
G3 X73.064 I0.195 J0.195
Y71.155 I-0.195 J0.195
X72.094 Y72.094 I-28.59 J-28.588
G2 X71.123 Y73.033 I27.682 J29.591
G3 X70.797 I-0.163 J-0.163
Y72.707 I0.163 J-0.163
G1 X72.672 Y70.769
G2 X72.777 Y70.4 I-0.293 J-0.283
G3 X72.953 Y70.129 I0.223 J-0.048
X73.048 Y70.13 I0.048 J0.223
X73.7 Y71.139 I-0.179 J0.831
X73.471 Y71.561 I-0.831 J-0.179
G1 X71.561 Y73.471
G3 X70.359 I-0.601 J-0.601
Y72.269 I0.601 J-0.601
G1 X72.269 Y70.359
G3 X73.048 Y70.13 I0.601 J0.601
X73.162 Y70.277 I-0.03 J0.141
G1 X73.15 Y70.541
G2 X73.228 Y70.676 I0.144 J0.007
G3 X73.436 Y71.314 Z-2.026 I-0.215 J0.423 F333.3
X72.798 Y71.523 Z-2.052 I-0.423 J-0.215
X72.59 Y70.884 Z-2.078 I0.215 J-0.423
X73.228 Y70.676 Z-2.104 I0.423 J0.215
X73.436 Y71.314 Z-2.13 I-0.215 J0.423
X72.798 Y71.523 Z-2.156 I-0.423 J-0.215
X72.59 Y70.884 Z-2.182 I0.215 J-0.423
X73.228 Y70.676 Z-2.208 I0.423 J0.215
X73.436 Y71.314 Z-2.234 I-0.215 J0.423
X72.798 Y71.523 Z-2.261 I-0.423 J-0.215
X72.59 Y70.884 Z-2.287 I0.215 J-0.423
X73.228 Y70.676 Z-2.313 I0.423 J0.215
X73.436 Y71.314 Z-2.339 I-0.215 J0.423
X72.798 Y71.523 Z-2.365 I-0.423 J-0.215
X72.59 Y70.884 Z-2.391 I0.215 J-0.423
X73.228 Y70.676 Z-2.417 I0.423 J0.215
X73.436 Y71.314 Z-2.443 I-0.215 J0.423
X72.798 Y71.523 Z-2.469 I-0.423 J-0.215
X72.59 Y70.884 Z-2.495 I0.215 J-0.423
X72.672 Y70.769 Z-2.5 I0.423 J0.215
G1 X72.675 Y70.766 F250
G3 X73.064 I0.195 J0.195
Y71.155 I-0.195 J0.195
X72.094 Y72.094 I-28.59 J-28.588
G2 X71.123 Y73.033 I27.682 J29.591
G3 X70.797 I-0.163 J-0.163
Y72.707 I0.163 J-0.163
G1 X72.672 Y70.769
G2 X72.777 Y70.4 I-0.293 J-0.283
G3 X72.953 Y70.129 I0.223 J-0.048
X73.048 Y70.13 I0.048 J0.223
X73.7 Y71.139 I-0.179 J0.831
X73.471 Y71.561 I-0.831 J-0.179
G1 X71.561 Y73.471
G3 X70.359 I-0.601 J-0.601
Y72.269 I0.601 J-0.601
G1 X72.269 Y70.359
G3 X73.048 Y70.13 I0.601 J0.601
X73.107 Y70.167 Z-2.471 I-0.021 J0.098
X73.121 Y70.192 Z-2.4 I-0.08 J0.061
G0 Z5.
X28.315 Y18.917
G1 Z2.6 F250
G3 X28.326 Y18.943 Z2.53 I-0.433 J0.195 F333.3
X28.346 Y19.009 Z2.5 I-0.444 J0.169
X27.985 Y19.576 Z2.474 I-0.464 J0.103
X27.418 Y19.215 Z2.448 I-0.103 J-0.464
X27.779 Y18.648 Z2.422 I0.464 J-0.103
X28.346 Y19.009 Z2.396 I0.103 J0.464
X27.985 Y19.576 Z2.37 I-0.464 J0.103
X27.418 Y19.215 Z2.344 I-0.103 J-0.464
X27.779 Y18.648 Z2.318 I0.464 J-0.103
X28.346 Y19.009 Z2.292 I0.103 J0.464
X27.985 Y19.576 Z2.266 I-0.464 J0.103
X27.418 Y19.215 Z2.239 I-0.103 J-0.464
X27.779 Y18.648 Z2.213 I0.464 J-0.103
X28.346 Y19.009 Z2.187 I0.103 J0.464
X27.985 Y19.576 Z2.161 I-0.464 J0.103
X27.418 Y19.215 Z2.135 I-0.103 J-0.464
X27.779 Y18.648 Z2.109 I0.464 J-0.103
X28.346 Y19.009 Z2.083 I0.103 J0.464
X27.985 Y19.576 Z2.057 I-0.464 J0.103
X27.418 Y19.215 Z2.031 I-0.103 J-0.464
X27.779 Y18.648 Z2.005 I0.464 J-0.103
X28.346 Y19.009 Z1.979 I0.103 J0.464
X27.985 Y19.576 Z1.953 I-0.464 J0.103
X27.418 Y19.215 Z1.927 I-0.103 J-0.464
X27.779 Y18.648 Z1.901 I0.464 J-0.103
X28.346 Y19.009 Z1.875 I0.103 J0.464
X27.985 Y19.576 Z1.849 I-0.464 J0.103
X27.418 Y19.215 Z1.823 I-0.103 J-0.464
X27.779 Y18.648 Z1.797 I0.464 J-0.103
X28.346 Y19.009 Z1.77 I0.103 J0.464
X27.985 Y19.576 Z1.744 I-0.464 J0.103
X27.418 Y19.215 Z1.718 I-0.103 J-0.464
X27.779 Y18.648 Z1.692 I0.464 J-0.103
X28.346 Y19.009 Z1.666 I0.103 J0.464
X27.985 Y19.576 Z1.64 I-0.464 J0.103
