(frame-components)
(Machine)
(  vendor: Stepcraft)
(  model: 600)
(  description: stepcraft uccnc)
(T2  D=1.5 CR=0. - ZMIN=-1.82 - flat end mill)
G90
G0 G53 Z0.

(Holes and pockets)
T2 M6 (flat end mill D=1.5 Solid Carbide-End Mill O1,0mm)
(Fishtail, Diamond toothed)
S16000 M3
G64
G54
G43 H2
G0 X94.9 Y35.789
Z5.
Z2.
G1 Z0.65 F120
Y35.796 Z0.605 F60
Y35.816 Z0.563
Y35.848 Z0.53
Y35.889 Z0.509
Y35.934 Z0.5
Y42.286 Z0.278
G3 X94.4 Y42.786 Z0.251 I-0.5 J0.
X93.9 Y42.286 Z0.223 I0. J-0.5
G1 Y23.286 Z-0.44
G3 X94.4 Y22.786 Z-0.468 I0.5 J0.
X94.9 Y23.286 Z-0.495 I0. J0.5
G1 Y23.428 Z-0.5
Y42.286 F240
G3 X94.4 Y42.786 I-0.5 J0.
X93.9 Y42.286 I0. J-0.5
G1 Y23.286
G3 X94.4 Y22.786 I0.5 J0.
X94.9 Y23.286 I0. J0.5
G1 Y23.428
Y37.746 Z-1. F60
Y42.286 F240
G3 X94.4 Y42.786 I-0.5 J0.
X93.9 Y42.286 I0. J-0.5
G1 Y23.286
G3 X94.4 Y22.786 I0.5 J0.
X94.9 Y23.286 I0. J0.5
G1 Y37.746
Y42.286 Z-1.159 F60
G3 X94.4 Y42.786 Z-1.186 I-0.5 J0.
X93.9 Y42.286 Z-1.213 I0. J-0.5
G1 Y34.078 Z-1.5
Y23.286 F240
G3 X94.4 Y22.786 I0.5 J0.
X94.9 Y23.286 I0. J0.5
G1 Y37.746
Y42.286
G3 X94.4 Y42.786 I-0.5 J0.
X93.9 Y42.286 I0. J-0.5
G1 Y34.078
Y24.914 Z-1.82 F60
Y23.286 F240
G3 X94.4 Y22.786 I0.5 J0.
X94.9 Y23.286 I0. J0.5
G1 Y42.286
G3 X94.4 Y42.786 I-0.5 J0.
X93.9 Y42.286 I0. J-0.5
G1 Y24.914
G3 X93.918 Y24.842 Z-1.8 I0.15 J0. F480
X93.953 Y24.8 Z-1.745 I0.132 J0.072
X93.969 Y24.788 Z-1.67 I0.097 J0.114
G0 Z2.
X93.038 Y16.6
G1 Z0.65 F120
G3 X93.046 Y16.582 Z0.576 I0.643 J0.308 F60
X93.072 Y16.536 Z0.522 I0.634 J0.325
X93.113 Y16.476 Z0.5 I0.608 J0.371
X94.111 Y16.34 Z0.461 I0.567 J0.431
X94.248 Y17.338 Z0.422 I-0.431 J0.567
X93.25 Y17.475 Z0.383 I-0.567 J-0.431
X93.113 Y16.476 Z0.344 I0.431 J-0.567
X94.111 Y16.34 Z0.305 I0.567 J0.431
X94.248 Y17.338 Z0.266 I-0.431 J0.567
X93.25 Y17.475 Z0.226 I-0.567 J-0.431
X93.113 Y16.476 Z0.187 I0.431 J-0.567
X94.111 Y16.34 Z0.148 I0.567 J0.431
X94.248 Y17.338 Z0.109 I-0.431 J0.567
X93.25 Y17.475 Z0.07 I-0.567 J-0.431
X93.113 Y16.476 Z0.031 I0.431 J-0.567
X94.111 Y16.34 Z-0.008 I0.567 J0.431
X94.248 Y17.338 Z-0.047 I-0.431 J0.567
X93.25 Y17.475 Z-0.086 I-0.567 J-0.431
X93.113 Y16.476 Z-0.125 I0.431 J-0.567
X94.111 Y16.34 Z-0.164 I0.567 J0.431
X94.248 Y17.338 Z-0.203 I-0.431 J0.567
X93.25 Y17.475 Z-0.243 I-0.567 J-0.431
X93.113 Y16.476 Z-0.282 I0.431 J-0.567
X94.111 Y16.34 Z-0.321 I0.567 J0.431
X94.248 Y17.338 Z-0.36 I-0.431 J0.567
X93.25 Y17.475 Z-0.399 I-0.567 J-0.431
X93.113 Y16.476 Z-0.438 I0.431 J-0.567
X94.111 Y16.34 Z-0.477 I0.567 J0.431
X94.393 Y16.907 Z-0.5 I-0.431 J0.567
X94.284 Y17.016 I-0.109 J0.
X94.175 Y16.907 I0. J-0.109
X94.313 Y16.77 I0.138 J0. F240
X94.45 Y16.907 I0. J0.138
X93.6 Y17.757 I-0.85 J0.
X92.75 Y16.907 I0. J-0.85
X93.6 Y16.057 I0.85 J0.
X94.45 Y16.907 I0. J0.85
X94.25 Y17.107 I-0.2 J0.
X94.097 Y17.035 I0. J-0.2
G1 X93.691 Y16.55
G3 X93.716 Y16.268 I0.153 J-0.128
X93.908 Y16.232 I0.128 J0.153
X94.356 Y17.134 Z-0.539 I-0.227 J0.675 F60
X93.453 Y17.582 Z-0.578 I-0.675 J-0.227
X93.005 Y16.68 Z-0.617 I0.227 J-0.675
X93.908 Y16.232 Z-0.656 I0.675 J0.227
X94.356 Y17.134 Z-0.695 I-0.227 J0.675
X93.453 Y17.582 Z-0.734 I-0.675 J-0.227
X93.005 Y16.68 Z-0.774 I0.227 J-0.675
X93.908 Y16.232 Z-0.813 I0.675 J0.227
X94.356 Y17.134 Z-0.852 I-0.227 J0.675
X93.453 Y17.582 Z-0.891 I-0.675 J-0.227
X93.005 Y16.68 Z-0.93 I0.227 J-0.675
X93.908 Y16.232 Z-0.969 I0.675 J0.227
X94.393 Y16.907 Z-1. I-0.227 J0.675
X94.284 Y17.016 I-0.109 J0.
X94.175 Y16.907 I0. J-0.109
X94.313 Y16.77 I0.138 J0. F240
X94.45 Y16.907 I0. J0.138
X93.6 Y17.757 I-0.85 J0.
X92.75 Y16.907 I0. J-0.85
X93.6 Y16.057 I0.85 J0.
X94.45 Y16.907 I0. J0.85
X94.25 Y17.107 I-0.2 J0.
X94.097 Y17.035 I0. J-0.2
G1 X93.691 Y16.55
G3 X93.716 Y16.268 I0.153 J-0.128
X93.908 Y16.232 I0.128 J0.153
X94.356 Y17.134 Z-1.039 I-0.227 J0.675 F60
X93.453 Y17.582 Z-1.078 I-0.675 J-0.227
X93.005 Y16.68 Z-1.117 I0.227 J-0.675
X93.908 Y16.232 Z-1.156 I0.675 J0.227
X94.356 Y17.134 Z-1.195 I-0.227 J0.675
X93.453 Y17.582 Z-1.234 I-0.675 J-0.227
X93.005 Y16.68 Z-1.274 I0.227 J-0.675
X93.908 Y16.232 Z-1.313 I0.675 J0.227
X94.356 Y17.134 Z-1.352 I-0.227 J0.675
X93.453 Y17.582 Z-1.391 I-0.675 J-0.227
X93.005 Y16.68 Z-1.43 I0.227 J-0.675
X93.908 Y16.232 Z-1.469 I0.675 J0.227
X94.393 Y16.907 Z-1.5 I-0.227 J0.675
X94.284 Y17.016 I-0.109 J0.
X94.175 Y16.907 I0. J-0.109
X94.313 Y16.77 I0.138 J0. F240
X94.45 Y16.907 I0. J0.138
X93.6 Y17.757 I-0.85 J0.
X92.75 Y16.907 I0. J-0.85
X93.6 Y16.057 I0.85 J0.
X94.45 Y16.907 I0. J0.85
X94.417 Y16.94 I-0.033 J0.
X94.391 Y16.927 I0. J-0.033
G1 X94.31 Y16.818
X94.298 Y16.713
G3 X94.328 Y16.677 I0.033 J-0.003
X94.362 Y16.7 I0.003 J0.033
X94.393 Y16.907 Z-1.507 I-0.682 J0.207 F60
X93.68 Y17.62 Z-1.546 I-0.713 J0.
X92.968 Y16.907 Z-1.586 I0. J-0.713
X93.68 Y16.195 Z-1.625 I0.713 J0.
X94.393 Y16.907 Z-1.664 I0. J0.713
X93.68 Y17.62 Z-1.703 I-0.713 J0.
X92.968 Y16.907 Z-1.742 I0. J-0.713
X93.68 Y16.195 Z-1.781 I0.713 J0.
X94.393 Y16.907 Z-1.82 I0. J0.713
X94.284 Y17.016 I-0.109 J0.
X94.175 Y16.907 I0. J-0.109
X94.313 Y16.77 I0.138 J0. F240
X94.45 Y16.907 I0. J0.138
X93.6 Y17.757 I-0.85 J0.
X92.75 Y16.907 I0. J-0.85
X93.6 Y16.057 I0.85 J0.
X94.45 Y16.907 I0. J0.85
X94.432 Y16.979 Z-1.8 I-0.15 J0. F480
X94.397 Y17.021 Z-1.745 I-0.132 J-0.072
X94.381 Y17.033 Z-1.67 I-0.097 J-0.114
G0 Z2.
X108.618 Y19.361
G1 Z0.65 F120
G2 X108.6 Y19.368 Z0.576 I9.965 J25.526 F60
X108.551 Y19.387 Z0.522 I9.983 J25.519
X108.483 Y19.414 Z0.5 I10.032 J25.5
X107.349 Y19.894 Z0.457 I10.1 J25.473
G3 X107.018 Y19.768 Z0.443 I-0.103 J-0.228
X107.143 Y19.438 Z0.43 I0.228 J-0.103
X116.831 Y17.04 Z0.079 I11.44 J25.45
X117.096 Y17.274 Z0.065 I0.016 J0.249
X117.035 Y17.455 Z0.059 I-0.249 J0.016
X116.863 Y17.539 Z0.052 I-0.188 J-0.165
G2 X107.349 Y19.894 Z-0.292 I1.721 J27.348
G3 X107.018 Y19.768 Z-0.306 I-0.103 J-0.228
X107.143 Y19.438 Z-0.32 I0.228 J-0.103
X112.018 Y17.768 Z-0.5 I11.44 J25.45
X116.831 Y17.04 I6.565 J27.119 F240
X117.096 Y17.274 I0.016 J0.249
X117.035 Y17.455 I-0.249 J0.016
X116.863 Y17.539 I-0.188 J-0.165
G2 X107.349 Y19.894 I1.721 J27.348
G3 X107.018 Y19.768 I-0.103 J-0.228
X107.143 Y19.438 I0.228 J-0.103
X112.018 Y17.768 I11.44 J25.45
X116.831 Y17.04 Z-0.67 I6.565 J27.119 F60
X117.096 Y17.274 Z-0.684 I0.016 J0.249
X117.035 Y17.455 Z-0.691 I-0.249 J0.016
X116.863 Y17.539 Z-0.698 I-0.188 J-0.165
G2 X108.45 Y19.427 Z-1. I1.721 J27.348
X107.349 Y19.894 I10.133 J25.46 F240
G3 X107.018 Y19.768 I-0.103 J-0.228
X107.143 Y19.438 I0.228 J-0.103
X116.831 Y17.04 I11.44 J25.45
X117.096 Y17.274 I0.016 J0.249
X117.035 Y17.455 I-0.249 J0.016
X116.863 Y17.539 I-0.188 J-0.165
G2 X108.45 Y19.427 I1.721 J27.348
X107.349 Y19.894 Z-1.042 I10.133 J25.46 F60
G3 X107.018 Y19.768 Z-1.055 I-0.103 J-0.228
X107.143 Y19.438 Z-1.069 I0.228 J-0.103
X116.831 Y17.04 Z-1.42 I11.44 J25.45
X117.096 Y17.274 Z-1.433 I0.016 J0.249
X117.035 Y17.455 Z-1.44 I-0.249 J0.016
X116.863 Y17.539 Z-1.447 I-0.188 J-0.165
G2 X115.352 Y17.676 Z-1.5 I1.721 J27.348
X107.349 Y19.894 I3.231 J27.211 F240
G3 X107.018 Y19.768 I-0.103 J-0.228
X107.143 Y19.438 I0.228 J-0.103
X116.831 Y17.04 I11.44 J25.45
X117.096 Y17.274 I0.016 J0.249
X117.035 Y17.455 I-0.249 J0.016
X116.863 Y17.539 I-0.188 J-0.165
G2 X115.352 Y17.676 I1.721 J27.348
X107.349 Y19.894 Z-1.791 I3.231 J27.211 F60
G3 X107.018 Y19.768 Z-1.805 I-0.103 J-0.228
X107.143 Y19.438 Z-1.819 I0.228 J-0.103
X107.181 Y19.421 Z-1.82 I11.44 J25.45
X116.831 Y17.04 I11.402 J25.466 F240
X117.096 Y17.274 I0.016 J0.249
X117.035 Y17.455 I-0.249 J0.016
X116.863 Y17.539 I-0.188 J-0.165
G2 X107.349 Y19.894 I1.721 J27.348
G3 X107.018 Y19.768 I-0.103 J-0.228
X107.143 Y19.438 I0.228 J-0.103
X107.181 Y19.421 I11.44 J25.45
X107.254 Y19.409 Z-1.8 I0.061 J0.137 F480
X107.307 Y19.423 Z-1.745 I-0.012 J0.15
X107.324 Y19.433 Z-1.67 I-0.065 J0.135
G0 Z2.
X128.564 Y17.297
G1 Z0.65 F120
G3 X128.572 Y17.279 Z0.576 I0.643 J0.308 F60
X128.598 Y17.233 Z0.522 I0.634 J0.325
X128.639 Y17.173 Z0.5 I0.608 J0.371
X129.637 Y17.037 Z0.461 I0.567 J0.431
X129.919 Y17.604 Z0.438 I-0.431 J0.567
X129.206 Y18.317 Z0.399 I-0.713 J0.
X128.494 Y17.604 Z0.36 I0. J-0.713
X128.779 Y17.034 Z0.337 I0.712 J0.
X129.776 Y17.177 Z0.298 I0.427 J0.57
X129.919 Y17.604 Z0.282 I-0.57 J0.427
X129.206 Y18.317 Z0.243 I-0.713 J0.
X128.494 Y17.604 Z0.203 I0. J-0.713
X128.779 Y17.034 Z0.18 I0.712 J0.
X129.776 Y17.177 Z0.141 I0.427 J0.57
X129.919 Y17.604 Z0.125 I-0.57 J0.427
X129.206 Y18.317 Z0.086 I-0.713 J0.
X128.494 Y17.604 Z0.047 I0. J-0.713
X128.779 Y17.034 Z0.024 I0.712 J0.
X129.776 Y17.177 Z-0.015 I0.427 J0.57
X129.919 Y17.604 Z-0.031 I-0.57 J0.427
X129.206 Y18.317 Z-0.07 I-0.713 J0.
X128.494 Y17.604 Z-0.109 I0. J-0.713
X128.779 Y17.034 Z-0.132 I0.712 J0.
X129.776 Y17.177 Z-0.171 I0.427 J0.57
X129.919 Y17.604 Z-0.187 I-0.57 J0.427
X129.206 Y18.317 Z-0.226 I-0.713 J0.
X128.494 Y17.604 Z-0.266 I0. J-0.713
X128.779 Y17.034 Z-0.289 I0.712 J0.
X129.776 Y17.177 Z-0.328 I0.427 J0.57
X129.919 Y17.604 Z-0.344 I-0.57 J0.427
X129.206 Y18.317 Z-0.383 I-0.713 J0.
X128.494 Y17.604 Z-0.422 I0. J-0.713
X128.779 Y17.034 Z-0.445 I0.712 J0.
X129.776 Y17.177 Z-0.484 I0.427 J0.57
X129.919 Y17.604 Z-0.5 I-0.57 J0.427
X129.81 Y17.713 I-0.109 J0.
X129.701 Y17.604 I0. J-0.109
X129.839 Y17.466 I0.138 J0. F240
X129.976 Y17.604 I0. J0.138
X129.126 Y18.455 I-0.85 J0.
X128.276 Y17.604 I0. J-0.85
X129.126 Y16.754 I0.85 J0.
X129.976 Y17.604 I0. J0.85
X129.776 Y17.804 I-0.2 J0.
X129.623 Y17.733 I0. J-0.2
G1 X129.217 Y17.247
G3 X129.242 Y16.965 I0.153 J-0.128
X129.434 Y16.929 I0.128 J0.153
X129.919 Y17.604 Z-0.531 I-0.227 J0.675 F60
X129.206 Y18.317 Z-0.57 I-0.713 J0.
X128.494 Y17.604 Z-0.609 I0. J-0.713
X128.779 Y17.034 Z-0.632 I0.712 J0.
X129.776 Y17.177 Z-0.671 I0.427 J0.57
X129.919 Y17.604 Z-0.687 I-0.57 J0.427
X129.206 Y18.317 Z-0.726 I-0.713 J0.
X128.494 Y17.604 Z-0.766 I0. J-0.713
X128.779 Y17.034 Z-0.789 I0.712 J0.
X129.776 Y17.177 Z-0.828 I0.427 J0.57
X129.919 Y17.604 Z-0.844 I-0.57 J0.427
X129.206 Y18.317 Z-0.883 I-0.713 J0.
X128.494 Y17.604 Z-0.922 I0. J-0.713
X128.779 Y17.034 Z-0.945 I0.712 J0.
X129.776 Y17.177 Z-0.984 I0.427 J0.57
X129.919 Y17.604 Z-1. I-0.57 J0.427
X129.81 Y17.713 I-0.109 J0.
X129.701 Y17.604 I0. J-0.109
X129.839 Y17.466 I0.138 J0. F240
X129.976 Y17.604 I0. J0.138
X129.126 Y18.455 I-0.85 J0.
X128.276 Y17.604 I0. J-0.85
X129.126 Y16.754 I0.85 J0.
X129.976 Y17.604 I0. J0.85
X129.776 Y17.804 I-0.2 J0.
X129.623 Y17.733 I0. J-0.2
G1 X129.217 Y17.247
G3 X129.242 Y16.965 I0.153 J-0.128
X129.434 Y16.929 I0.128 J0.153
X129.919 Y17.604 Z-1.031 I-0.227 J0.675 F60
X129.206 Y18.317 Z-1.07 I-0.713 J0.
X128.494 Y17.604 Z-1.109 I0. J-0.713
X128.779 Y17.034 Z-1.132 I0.712 J0.
X129.776 Y17.177 Z-1.171 I0.427 J0.57
X129.919 Y17.604 Z-1.187 I-0.57 J0.427
X129.206 Y18.317 Z-1.226 I-0.713 J0.
X128.494 Y17.604 Z-1.266 I0. J-0.713
X128.779 Y17.034 Z-1.289 I0.712 J0.
X129.776 Y17.177 Z-1.328 I0.427 J0.57
X129.919 Y17.604 Z-1.344 I-0.57 J0.427
X129.206 Y18.317 Z-1.383 I-0.713 J0.
X128.494 Y17.604 Z-1.422 I0. J-0.713
X128.779 Y17.034 Z-1.445 I0.712 J0.
X129.776 Y17.177 Z-1.484 I0.427 J0.57
X129.919 Y17.604 Z-1.5 I-0.57 J0.427
X129.81 Y17.713 I-0.109 J0.
X129.701 Y17.604 I0. J-0.109
X129.839 Y17.466 I0.138 J0. F240
X129.976 Y17.604 I0. J0.138
X129.126 Y18.455 I-0.85 J0.
X128.276 Y17.604 I0. J-0.85
X129.126 Y16.754 I0.85 J0.
X129.976 Y17.604 I0. J0.85
X129.944 Y17.637 I-0.033 J0.
X129.917 Y17.624 I0. J-0.033
G1 X129.836 Y17.515
X129.824 Y17.41
G3 X129.854 Y17.374 I0.033 J-0.003
X129.888 Y17.397 I0.003 J0.033
X129.919 Y17.604 Z-1.507 I-0.682 J0.207 F60
X129.206 Y18.317 Z-1.546 I-0.713 J0.
X128.494 Y17.604 Z-1.586 I0. J-0.713
X128.779 Y17.034 Z-1.609 I0.712 J0.
X129.776 Y17.177 Z-1.648 I0.427 J0.57
X129.919 Y17.604 Z-1.664 I-0.57 J0.427
X129.206 Y18.317 Z-1.703 I-0.713 J0.
X128.494 Y17.604 Z-1.742 I0. J-0.713
X128.779 Y17.034 Z-1.765 I0.712 J0.
X129.776 Y17.177 Z-1.804 I0.427 J0.57
X129.919 Y17.604 Z-1.82 I-0.57 J0.427
X129.81 Y17.713 I-0.109 J0.
X129.701 Y17.604 I0. J-0.109
X129.839 Y17.466 I0.138 J0. F240
X129.976 Y17.604 I0. J0.138
X129.126 Y18.455 I-0.85 J0.
X128.276 Y17.604 I0. J-0.85
X129.126 Y16.754 I0.85 J0.
X129.976 Y17.604 I0. J0.85
X129.958 Y17.676 Z-1.8 I-0.15 J0. F480
X129.924 Y17.718 Z-1.745 I-0.132 J-0.072
X129.908 Y17.73 Z-1.67 I-0.097 J-0.114
G0 Z2.
X147.123 Y17.332
G1 Z0.65 F120
G3 X147.131 Y17.315 Z0.576 I0.643 J0.308 F60
X147.157 Y17.269 Z0.522 I0.634 J0.325
X147.198 Y17.209 Z0.5 I0.608 J0.371
X148.196 Y17.072 Z0.461 I0.567 J0.431
X148.478 Y17.64 Z0.438 I-0.431 J0.567
X147.765 Y18.352 Z0.399 I-0.713 J0.
X147.053 Y17.64 Z0.36 I0. J-0.713
X147.338 Y17.07 Z0.337 I0.712 J0.
X148.335 Y17.212 Z0.298 I0.427 J0.57
X148.478 Y17.64 Z0.282 I-0.57 J0.427
X147.765 Y18.352 Z0.243 I-0.713 J0.
X147.053 Y17.64 Z0.203 I0. J-0.713
X147.338 Y17.07 Z0.18 I0.712 J0.
X148.335 Y17.212 Z0.141 I0.427 J0.57
X148.478 Y17.64 Z0.125 I-0.57 J0.427
X147.765 Y18.352 Z0.086 I-0.713 J0.
X147.053 Y17.64 Z0.047 I0. J-0.713
X147.338 Y17.07 Z0.024 I0.712 J0.
X148.335 Y17.212 Z-0.015 I0.427 J0.57
X148.478 Y17.64 Z-0.031 I-0.57 J0.427
X147.765 Y18.352 Z-0.07 I-0.713 J0.
X147.053 Y17.64 Z-0.109 I0. J-0.713
X147.338 Y17.07 Z-0.132 I0.712 J0.
X148.335 Y17.212 Z-0.171 I0.427 J0.57
X148.478 Y17.64 Z-0.187 I-0.57 J0.427
X147.765 Y18.352 Z-0.226 I-0.713 J0.
X147.053 Y17.64 Z-0.266 I0. J-0.713
X147.338 Y17.07 Z-0.289 I0.712 J0.
X148.335 Y17.212 Z-0.328 I0.427 J0.57
X148.478 Y17.64 Z-0.344 I-0.57 J0.427
X147.765 Y18.352 Z-0.383 I-0.713 J0.
X147.053 Y17.64 Z-0.422 I0. J-0.713
X147.338 Y17.07 Z-0.445 I0.712 J0.
X148.335 Y17.212 Z-0.484 I0.427 J0.57
X148.478 Y17.64 Z-0.5 I-0.57 J0.427
X148.369 Y17.749 I-0.109 J0.
X148.26 Y17.64 I0. J-0.109
X148.398 Y17.502 I0.138 J0. F240
X148.535 Y17.64 I0. J0.138
X147.685 Y18.49 I-0.85 J0.
X146.835 Y17.64 I0. J-0.85
X147.685 Y16.789 I0.85 J0.
X148.535 Y17.64 I0. J0.85
X148.335 Y17.84 I-0.2 J0.
X148.182 Y17.768 I0. J-0.2
G1 X147.776 Y17.283
G3 X147.801 Y17.001 I0.153 J-0.128
X147.993 Y16.965 I0.128 J0.153
X148.478 Y17.64 Z-0.531 I-0.227 J0.675 F60
X147.765 Y18.352 Z-0.57 I-0.713 J0.
X147.053 Y17.64 Z-0.609 I0. J-0.713
X147.338 Y17.07 Z-0.632 I0.712 J0.
X148.335 Y17.212 Z-0.671 I0.427 J0.57
X148.478 Y17.64 Z-0.687 I-0.57 J0.427
X147.765 Y18.352 Z-0.726 I-0.713 J0.
X147.053 Y17.64 Z-0.766 I0. J-0.713
X147.338 Y17.07 Z-0.789 I0.712 J0.
X148.335 Y17.212 Z-0.828 I0.427 J0.57
X148.478 Y17.64 Z-0.844 I-0.57 J0.427
X147.765 Y18.352 Z-0.883 I-0.713 J0.
X147.053 Y17.64 Z-0.922 I0. J-0.713
X147.338 Y17.07 Z-0.945 I0.712 J0.
X148.335 Y17.212 Z-0.984 I0.427 J0.57
X148.478 Y17.64 Z-1. I-0.57 J0.427
X148.369 Y17.749 I-0.109 J0.
X148.26 Y17.64 I0. J-0.109
X148.398 Y17.502 I0.138 J0. F240
X148.535 Y17.64 I0. J0.138
X147.685 Y18.49 I-0.85 J0.
X146.835 Y17.64 I0. J-0.85
X147.685 Y16.789 I0.85 J0.
X148.535 Y17.64 I0. J0.85
X148.335 Y17.84 I-0.2 J0.
X148.182 Y17.768 I0. J-0.2
G1 X147.776 Y17.283
G3 X147.801 Y17.001 I0.153 J-0.128
X147.993 Y16.965 I0.128 J0.153
X148.478 Y17.64 Z-1.031 I-0.227 J0.675 F60
X147.765 Y18.352 Z-1.07 I-0.713 J0.
X147.053 Y17.64 Z-1.109 I0. J-0.713
X147.338 Y17.07 Z-1.132 I0.712 J0.
X148.335 Y17.212 Z-1.171 I0.427 J0.57
X148.478 Y17.64 Z-1.187 I-0.57 J0.427
X147.765 Y18.352 Z-1.226 I-0.713 J0.
X147.053 Y17.64 Z-1.266 I0. J-0.713
X147.338 Y17.07 Z-1.289 I0.712 J0.
X148.335 Y17.212 Z-1.328 I0.427 J0.57
X148.478 Y17.64 Z-1.344 I-0.57 J0.427
X147.765 Y18.352 Z-1.383 I-0.713 J0.
X147.053 Y17.64 Z-1.422 I0. J-0.713
X147.338 Y17.07 Z-1.445 I0.712 J0.
X148.335 Y17.212 Z-1.484 I0.427 J0.57
X148.478 Y17.64 Z-1.5 I-0.57 J0.427
X148.369 Y17.749 I-0.109 J0.
X148.26 Y17.64 I0. J-0.109
X148.398 Y17.502 I0.138 J0. F240
X148.535 Y17.64 I0. J0.138
X147.685 Y18.49 I-0.85 J0.
X146.835 Y17.64 I0. J-0.85
X147.685 Y16.789 I0.85 J0.
X148.535 Y17.64 I0. J0.85
X148.503 Y17.673 I-0.033 J0.
X148.476 Y17.66 I0. J-0.033
G1 X148.395 Y17.551
X148.383 Y17.445
G3 X148.413 Y17.41 I0.033 J-0.003
X148.447 Y17.433 I0.003 J0.033
X148.478 Y17.64 Z-1.507 I-0.682 J0.207 F60
X147.765 Y18.352 Z-1.546 I-0.713 J0.
X147.053 Y17.64 Z-1.586 I0. J-0.713
X147.338 Y17.07 Z-1.609 I0.712 J0.
X148.335 Y17.212 Z-1.648 I0.427 J0.57
X148.478 Y17.64 Z-1.664 I-0.57 J0.427
X147.765 Y18.352 Z-1.703 I-0.713 J0.
X147.053 Y17.64 Z-1.742 I0. J-0.713
X147.338 Y17.07 Z-1.765 I0.712 J0.
X148.335 Y17.212 Z-1.804 I0.427 J0.57
X148.478 Y17.64 Z-1.82 I-0.57 J0.427
X148.369 Y17.749 I-0.109 J0.
X148.26 Y17.64 I0. J-0.109
X148.398 Y17.502 I0.138 J0. F240
X148.535 Y17.64 I0. J0.138
X147.685 Y18.49 I-0.85 J0.
X146.835 Y17.64 I0. J-0.85
X147.685 Y16.789 I0.85 J0.
X148.535 Y17.64 I0. J0.85
X148.517 Y17.712 Z-1.8 I-0.15 J0. F480
X148.483 Y17.754 Z-1.745 I-0.132 J-0.072
X148.466 Y17.766 Z-1.67 I-0.097 J-0.114
G0 Z2.
X161.32 Y17.696
G1 Z0.65 F120
G2 X161.3 Y17.694 Z0.576 I-3.092 J27.228 F60
X161.248 Y17.688 Z0.522 I-3.072 J27.23
X161.176 Y17.68 Z0.5 I-3.02 J27.236
X159.949 Y17.575 Z0.457 I-2.948 J27.244
G3 X159.714 Y17.31 Z0.443 I0.015 J-0.25
X159.798 Y17.138 Z0.436 I0.25 J0.015
X159.98 Y17.076 Z0.43 I0.166 J0.187
X165.07 Y17.873 Z0.249 I-1.752 J27.847
X169.668 Y19.474 Z0.079 I-6.842 J27.051
X169.793 Y19.804 Z0.065 I-0.103 J0.228
X169.462 Y19.93 Z0.052 I-0.228 J-0.103
G2 X159.949 Y17.575 Z-0.292 I-11.235 J24.994
G3 X159.714 Y17.31 Z-0.306 I0.015 J-0.25
X159.798 Y17.138 Z-0.313 I0.25 J0.015
X159.98 Y17.076 Z-0.32 I0.166 J0.187
X165.07 Y17.873 Z-0.5 I-1.752 J27.847
X169.668 Y19.474 I-6.842 J27.051 F240
X169.793 Y19.804 I-0.103 J0.228
X169.462 Y19.93 I-0.228 J-0.103
G2 X159.949 Y17.575 I-11.235 J24.994
G3 X159.714 Y17.31 I0.015 J-0.25
X159.798 Y17.138 I0.25 J0.015
X159.98 Y17.076 I0.166 J0.187
X165.07 Y17.873 I-1.752 J27.847
X169.668 Y19.474 Z-0.67 I-6.842 J27.051 F60
X169.793 Y19.804 Z-0.684 I-0.103 J0.228
X169.462 Y19.93 Z-0.698 I-0.228 J-0.103
G2 X161.14 Y17.676 Z-1. I-11.235 J24.994
X159.949 Y17.575 I-2.912 J27.247 F240
G3 X159.714 Y17.31 I0.015 J-0.25
X159.798 Y17.138 I0.25 J0.015
X159.98 Y17.076 I0.166 J0.187
X169.668 Y19.474 I-1.752 J27.847
X169.793 Y19.804 I-0.103 J0.228
X169.462 Y19.93 I-0.228 J-0.103
G2 X161.14 Y17.676 I-11.235 J24.994
X159.949 Y17.575 Z-1.042 I-2.912 J27.247 F60
G3 X159.714 Y17.31 Z-1.055 I0.015 J-0.25
X159.798 Y17.138 Z-1.062 I0.25 J0.015
X159.98 Y17.076 Z-1.069 I0.166 J0.187
X169.668 Y19.474 Z-1.42 I-1.752 J27.847
X169.793 Y19.804 Z-1.433 I-0.103 J0.228
X169.462 Y19.93 Z-1.447 I-0.228 J-0.103
G2 X168.062 Y19.346 Z-1.5 I-11.235 J24.994
X159.949 Y17.575 I-9.834 J25.577 F240
G3 X159.714 Y17.31 I0.015 J-0.25
X159.798 Y17.138 I0.25 J0.015
X159.98 Y17.076 I0.166 J0.187
X169.668 Y19.474 I-1.752 J27.847
X169.793 Y19.804 I-0.103 J0.228
X169.462 Y19.93 I-0.228 J-0.103
G2 X168.062 Y19.346 I-11.235 J24.994
X159.949 Y17.575 Z-1.791 I-9.834 J25.577 F60
G3 X159.714 Y17.31 Z-1.805 I0.015 J-0.25
X159.798 Y17.138 Z-1.812 I0.25 J0.015
X159.98 Y17.076 Z-1.819 I0.166 J0.187
X160.021 Y17.078 Z-1.82 I-1.752 J27.847
X169.668 Y19.474 I-1.793 J27.845 F240
X169.793 Y19.804 I-0.103 J0.228
X169.462 Y19.93 I-0.228 J-0.103
G2 X159.949 Y17.575 I-11.235 J24.994
G3 X159.714 Y17.31 I0.015 J-0.25
X159.798 Y17.138 I0.25 J0.015
X159.98 Y17.076 I0.166 J0.187
X160.021 Y17.078 I-1.752 J27.847
X160.091 Y17.101 Z-1.8 I-0.01 J0.15 F480
X160.131 Y17.138 Z-1.745 I-0.08 J0.127
X160.142 Y17.155 Z-1.67 I-0.12 J0.09
G0 Z2.
X182.649 Y16.635
G1 Z0.65 F120
G3 X182.657 Y16.618 Z0.576 I0.643 J0.308 F60
X182.683 Y16.572 Z0.522 I0.634 J0.325
X182.724 Y16.512 Z0.5 I0.608 J0.371
X183.722 Y16.375 Z0.461 I0.567 J0.431
X183.859 Y17.374 Z0.422 I-0.431 J0.567
X182.861 Y17.51 Z0.383 I-0.567 J-0.431
X182.724 Y16.512 Z0.344 I0.431 J-0.567
X183.722 Y16.375 Z0.305 I0.567 J0.431
X183.859 Y17.374 Z0.266 I-0.431 J0.567
X182.861 Y17.51 Z0.226 I-0.567 J-0.431
X182.724 Y16.512 Z0.187 I0.431 J-0.567
X183.722 Y16.375 Z0.148 I0.567 J0.431
X183.859 Y17.374 Z0.109 I-0.431 J0.567
X182.861 Y17.51 Z0.07 I-0.567 J-0.431
X182.724 Y16.512 Z0.031 I0.431 J-0.567
X183.722 Y16.375 Z-0.008 I0.567 J0.431
X183.859 Y17.374 Z-0.047 I-0.431 J0.567
X182.861 Y17.51 Z-0.086 I-0.567 J-0.431
X182.724 Y16.512 Z-0.125 I0.431 J-0.567
X183.722 Y16.375 Z-0.164 I0.567 J0.431
X183.859 Y17.374 Z-0.203 I-0.431 J0.567
X182.861 Y17.51 Z-0.243 I-0.567 J-0.431
X182.724 Y16.512 Z-0.282 I0.431 J-0.567
X183.722 Y16.375 Z-0.321 I0.567 J0.431
X183.859 Y17.374 Z-0.36 I-0.431 J0.567
X182.861 Y17.51 Z-0.399 I-0.567 J-0.431
X182.724 Y16.512 Z-0.438 I0.431 J-0.567
X183.722 Y16.375 Z-0.477 I0.567 J0.431
X184.004 Y16.943 Z-0.5 I-0.431 J0.567
X183.895 Y17.052 I-0.109 J0.
X183.786 Y16.943 I0. J-0.109
X183.923 Y16.806 I0.137 J0. F240
X184.061 Y16.943 I0. J0.137
X183.211 Y17.793 I-0.85 J0.
X182.361 Y16.943 I0. J-0.85
X183.211 Y16.093 I0.85 J0.
X184.061 Y16.943 I0. J0.85
X183.861 Y17.143 I-0.2 J0.
X183.707 Y17.071 I0. J-0.2
G1 X183.302 Y16.585
G3 X183.327 Y16.304 I0.153 J-0.128
X183.519 Y16.268 I0.128 J0.153
X183.967 Y17.17 Z-0.539 I-0.227 J0.675 F60
X183.064 Y17.618 Z-0.578 I-0.675 J-0.227
X182.616 Y16.715 Z-0.617 I0.227 J-0.675
X183.519 Y16.268 Z-0.656 I0.675 J0.227
X183.967 Y17.17 Z-0.695 I-0.227 J0.675
X183.064 Y17.618 Z-0.734 I-0.675 J-0.227
X182.616 Y16.715 Z-0.774 I0.227 J-0.675
X183.519 Y16.268 Z-0.813 I0.675 J0.227
X183.967 Y17.17 Z-0.852 I-0.227 J0.675
X183.064 Y17.618 Z-0.891 I-0.675 J-0.227
X182.616 Y16.715 Z-0.93 I0.227 J-0.675
X183.519 Y16.268 Z-0.969 I0.675 J0.227
X184.004 Y16.943 Z-1. I-0.227 J0.675
X183.895 Y17.052 I-0.109 J0.
X183.786 Y16.943 I0. J-0.109
X183.923 Y16.806 I0.137 J0. F240
X184.061 Y16.943 I0. J0.137
X183.211 Y17.793 I-0.85 J0.
X182.361 Y16.943 I0. J-0.85
X183.211 Y16.093 I0.85 J0.
X184.061 Y16.943 I0. J0.85
X183.861 Y17.143 I-0.2 J0.
X183.707 Y17.071 I0. J-0.2
G1 X183.302 Y16.585
G3 X183.327 Y16.304 I0.153 J-0.128
X183.519 Y16.268 I0.128 J0.153
X183.967 Y17.17 Z-1.039 I-0.227 J0.675 F60
X183.064 Y17.618 Z-1.078 I-0.675 J-0.227
X182.616 Y16.715 Z-1.117 I0.227 J-0.675
X183.519 Y16.268 Z-1.156 I0.675 J0.227
X183.967 Y17.17 Z-1.195 I-0.227 J0.675
X183.064 Y17.618 Z-1.234 I-0.675 J-0.227
X182.616 Y16.715 Z-1.274 I0.227 J-0.675
X183.519 Y16.268 Z-1.313 I0.675 J0.227
X183.967 Y17.17 Z-1.352 I-0.227 J0.675
X183.064 Y17.618 Z-1.391 I-0.675 J-0.227
X182.616 Y16.715 Z-1.43 I0.227 J-0.675
X183.519 Y16.268 Z-1.469 I0.675 J0.227
X184.004 Y16.943 Z-1.5 I-0.227 J0.675
X183.895 Y17.052 I-0.109 J0.
X183.786 Y16.943 I0. J-0.109
X183.923 Y16.806 I0.137 J0. F240
X184.061 Y16.943 I0. J0.137
X183.211 Y17.793 I-0.85 J0.
X182.361 Y16.943 I0. J-0.85
X183.211 Y16.093 I0.85 J0.
X184.061 Y16.943 I0. J0.85
X184.028 Y16.976 I-0.033 J0.
X184.002 Y16.963 I0. J-0.033
G1 X183.921 Y16.854
X183.909 Y16.748
G3 X183.939 Y16.713 I0.033 J-0.003
X183.973 Y16.736 I0.003 J0.033
X183.499 Y17.625 Z-1.539 I-0.682 J0.207 F60
X182.61 Y17.15 Z-1.578 I-0.207 J-0.682
X183.084 Y16.261 Z-1.617 I0.682 J-0.207
X183.973 Y16.736 Z-1.656 I0.207 J0.682
X183.499 Y17.625 Z-1.695 I-0.682 J0.207
X182.61 Y17.15 Z-1.734 I-0.207 J-0.682
X183.084 Y16.261 Z-1.774 I0.682 J-0.207
X183.973 Y16.736 Z-1.813 I0.207 J0.682
X184.004 Y16.943 Z-1.82 I-0.682 J0.207
X183.895 Y17.052 I-0.109 J0.
X183.786 Y16.943 I0. J-0.109
X183.923 Y16.806 I0.137 J0. F240
X184.061 Y16.943 I0. J0.137
X183.211 Y17.793 I-0.85 J0.
X182.361 Y16.943 I0. J-0.85
X183.211 Y16.093 I0.85 J0.
X184.061 Y16.943 I0. J0.85
X184.042 Y17.015 Z-1.8 I-0.15 J0. F480
X184.008 Y17.057 Z-1.745 I-0.132 J-0.072
X183.992 Y17.069 Z-1.67 I-0.097 J-0.114
G0 Z2.
X182.911 Y34.254
G1 Z0.65 F120
Y34.261 Z0.605 F60
Y34.281 Z0.563
Y34.313 Z0.53
Y34.353 Z0.509
Y34.399 Z0.5
Y42.321 Z0.223
G3 X182.411 Y42.821 Z0.196 I-0.5 J0.
X181.911 Y42.321 Z0.168 I0. J-0.5
G1 Y23.322 Z-0.495
G3 X181.931 Y23.181 Z-0.5 I0.5 J0.
X182.552 Y22.842 I0.48 J0.141 F240
X182.911 Y23.322 I-0.141 J0.48
G1 Y42.321
G3 X182.411 Y42.821 I-0.5 J0.
X181.911 Y42.321 I0. J-0.5
G1 Y23.322
G3 X181.931 Y23.181 I0.5 J0.
X182.552 Y22.842 Z-0.527 I0.48 J0.141 F60
X182.911 Y23.322 Z-0.55 I-0.141 J0.48
G1 Y36.211 Z-1.
Y42.321 F240
G3 X182.411 Y42.821 I-0.5 J0.
X181.911 Y42.321 I0. J-0.5
G1 Y23.322
G3 X182.411 Y22.822 I0.5 J0.
X182.911 Y23.322 I0. J0.5
G1 Y36.211
Y42.321 Z-1.213 F60
G3 X182.411 Y42.821 Z-1.241 I-0.5 J0.
X181.911 Y42.321 Z-1.268 I0. J-0.5
G1 Y35.684 Z-1.5
Y23.322 F240
G3 X182.411 Y22.822 I0.5 J0.
X182.911 Y23.322 I0. J0.5
G1 Y36.211
Y42.321
G3 X182.411 Y42.821 I-0.5 J0.
X181.911 Y42.321 I0. J-0.5
G1 Y35.684
Y26.521 Z-1.82 F60
Y23.322 F240
G3 X182.411 Y22.822 I0.5 J0.
X182.911 Y23.322 I0. J0.5
G1 Y42.321
G3 X182.411 Y42.821 I-0.5 J0.
X181.911 Y42.321 I0. J-0.5
G1 Y26.521
G3 X181.929 Y26.449 Z-1.8 I0.15 J0. F480
X181.964 Y26.406 Z-1.745 I0.132 J0.072
X181.98 Y26.395 Z-1.67 I0.097 J0.114
G0 Z2.
X182.649 Y48.393
G1 Z0.65 F120
G3 X182.657 Y48.375 Z0.576 I0.643 J0.308 F60
X182.683 Y48.329 Z0.522 I0.634 J0.325
X182.724 Y48.269 Z0.5 I0.608 J0.371
X183.722 Y48.133 Z0.461 I0.567 J0.431
X183.859 Y49.131 Z0.422 I-0.431 J0.567
X182.861 Y49.268 Z0.383 I-0.567 J-0.431
X182.724 Y48.269 Z0.344 I0.431 J-0.567
X183.722 Y48.133 Z0.305 I0.567 J0.431
X183.859 Y49.131 Z0.266 I-0.431 J0.567
X182.861 Y49.268 Z0.226 I-0.567 J-0.431
X182.724 Y48.269 Z0.187 I0.431 J-0.567
X183.722 Y48.133 Z0.148 I0.567 J0.431
X183.859 Y49.131 Z0.109 I-0.431 J0.567
X182.861 Y49.268 Z0.07 I-0.567 J-0.431
X182.724 Y48.269 Z0.031 I0.431 J-0.567
X183.722 Y48.133 Z-0.008 I0.567 J0.431
X183.859 Y49.131 Z-0.047 I-0.431 J0.567
X182.861 Y49.268 Z-0.086 I-0.567 J-0.431
X182.724 Y48.269 Z-0.125 I0.431 J-0.567
X183.722 Y48.133 Z-0.164 I0.567 J0.431
X183.859 Y49.131 Z-0.203 I-0.431 J0.567
X182.861 Y49.268 Z-0.243 I-0.567 J-0.431
X182.724 Y48.269 Z-0.282 I0.431 J-0.567
X183.722 Y48.133 Z-0.321 I0.567 J0.431
X183.859 Y49.131 Z-0.36 I-0.431 J0.567
X182.861 Y49.268 Z-0.399 I-0.567 J-0.431
X182.724 Y48.269 Z-0.438 I0.431 J-0.567
X183.722 Y48.133 Z-0.477 I0.567 J0.431
X184.004 Y48.7 Z-0.5 I-0.431 J0.567
X183.895 Y48.809 I-0.109 J0.
X183.786 Y48.7 I0. J-0.109
X183.923 Y48.563 I0.137 J0. F240
X184.061 Y48.7 I0. J0.137
X183.211 Y49.55 I-0.85 J0.
X182.361 Y48.7 I0. J-0.85
X183.211 Y47.85 I0.85 J0.
X184.061 Y48.7 I0. J0.85
X183.861 Y48.9 I-0.2 J0.
X183.707 Y48.828 I0. J-0.2
G1 X183.302 Y48.343
G3 X183.327 Y48.061 I0.153 J-0.128
X183.519 Y48.025 I0.128 J0.153
X183.967 Y48.928 Z-0.539 I-0.227 J0.675 F60
X183.064 Y49.375 Z-0.578 I-0.675 J-0.227
X182.616 Y48.473 Z-0.617 I0.227 J-0.675
X183.519 Y48.025 Z-0.656 I0.675 J0.227
X183.967 Y48.928 Z-0.695 I-0.227 J0.675
X183.064 Y49.375 Z-0.734 I-0.675 J-0.227
X182.616 Y48.473 Z-0.774 I0.227 J-0.675
X183.519 Y48.025 Z-0.813 I0.675 J0.227
X183.967 Y48.928 Z-0.852 I-0.227 J0.675
X183.064 Y49.375 Z-0.891 I-0.675 J-0.227
X182.616 Y48.473 Z-0.93 I0.227 J-0.675
X183.519 Y48.025 Z-0.969 I0.675 J0.227
X184.004 Y48.7 Z-1. I-0.227 J0.675
X183.895 Y48.809 I-0.109 J0.
X183.786 Y48.7 I0. J-0.109
X183.923 Y48.563 I0.137 J0. F240
X184.061 Y48.7 I0. J0.137
X183.211 Y49.55 I-0.85 J0.
X182.361 Y48.7 I0. J-0.85
X183.211 Y47.85 I0.85 J0.
X184.061 Y48.7 I0. J0.85
X183.861 Y48.9 I-0.2 J0.
X183.707 Y48.828 I0. J-0.2
G1 X183.302 Y48.343
G3 X183.327 Y48.061 I0.153 J-0.128
X183.519 Y48.025 I0.128 J0.153
X183.967 Y48.928 Z-1.039 I-0.227 J0.675 F60
X183.064 Y49.375 Z-1.078 I-0.675 J-0.227
X182.616 Y48.473 Z-1.117 I0.227 J-0.675
X183.519 Y48.025 Z-1.156 I0.675 J0.227
X183.967 Y48.928 Z-1.195 I-0.227 J0.675
X183.064 Y49.375 Z-1.234 I-0.675 J-0.227
X182.616 Y48.473 Z-1.274 I0.227 J-0.675
X183.519 Y48.025 Z-1.313 I0.675 J0.227
X183.967 Y48.928 Z-1.352 I-0.227 J0.675
X183.064 Y49.375 Z-1.391 I-0.675 J-0.227
X182.616 Y48.473 Z-1.43 I0.227 J-0.675
X183.519 Y48.025 Z-1.469 I0.675 J0.227
X184.004 Y48.7 Z-1.5 I-0.227 J0.675
X183.895 Y48.809 I-0.109 J0.
X183.786 Y48.7 I0. J-0.109
X183.923 Y48.563 I0.137 J0. F240
X184.061 Y48.7 I0. J0.137
X183.211 Y49.55 I-0.85 J0.
X182.361 Y48.7 I0. J-0.85
X183.211 Y47.85 I0.85 J0.
X184.061 Y48.7 I0. J0.85
X184.028 Y48.733 I-0.033 J0.
X184.002 Y48.72 I0. J-0.033
G1 X183.921 Y48.611
X183.909 Y48.506
G3 X183.939 Y48.47 I0.033 J-0.003
X183.973 Y48.493 I0.003 J0.033
X184.004 Y48.7 Z-1.507 I-0.682 J0.207 F60
X183.291 Y49.413 Z-1.546 I-0.712 J0.
X182.579 Y48.7 Z-1.586 I0. J-0.712
X183.291 Y47.988 Z-1.625 I0.712 J0.
X184.004 Y48.7 Z-1.664 I0. J0.712
X183.291 Y49.413 Z-1.703 I-0.712 J0.
X182.579 Y48.7 Z-1.742 I0. J-0.712
X183.291 Y47.988 Z-1.781 I0.712 J0.
X184.004 Y48.7 Z-1.82 I0. J0.712
X183.895 Y48.809 I-0.109 J0.
X183.786 Y48.7 I0. J-0.109
X183.923 Y48.563 I0.137 J0. F240
X184.061 Y48.7 I0. J0.137
X183.211 Y49.55 I-0.85 J0.
X182.361 Y48.7 I0. J-0.85
X183.211 Y47.85 I0.85 J0.
X184.061 Y48.7 I0. J0.85
X184.042 Y48.772 Z-1.8 I-0.15 J0. F480
X184.008 Y48.814 Z-1.745 I-0.132 J-0.072
X183.992 Y48.826 Z-1.67 I-0.097 J-0.114
G0 Z2.
X93.038 Y48.357
G1 Z0.65 F120
G3 X93.046 Y48.34 Z0.576 I0.643 J0.308 F60
X93.072 Y48.294 Z0.522 I0.634 J0.325
X93.113 Y48.234 Z0.5 I0.608 J0.371
X94.111 Y48.097 Z0.461 I0.567 J0.431
X94.248 Y49.095 Z0.422 I-0.431 J0.567
X93.25 Y49.232 Z0.383 I-0.567 J-0.431
X93.113 Y48.234 Z0.344 I0.431 J-0.567
X94.111 Y48.097 Z0.305 I0.567 J0.431
X94.248 Y49.095 Z0.266 I-0.431 J0.567
X93.25 Y49.232 Z0.226 I-0.567 J-0.431
X93.113 Y48.234 Z0.187 I0.431 J-0.567
X94.111 Y48.097 Z0.148 I0.567 J0.431
X94.248 Y49.095 Z0.109 I-0.431 J0.567
X93.25 Y49.232 Z0.07 I-0.567 J-0.431
X93.113 Y48.234 Z0.031 I0.431 J-0.567
X94.111 Y48.097 Z-0.008 I0.567 J0.431
X94.248 Y49.095 Z-0.047 I-0.431 J0.567
X93.25 Y49.232 Z-0.086 I-0.567 J-0.431
X93.113 Y48.234 Z-0.125 I0.431 J-0.567
X94.111 Y48.097 Z-0.164 I0.567 J0.431
X94.248 Y49.095 Z-0.203 I-0.431 J0.567
X93.25 Y49.232 Z-0.243 I-0.567 J-0.431
X93.113 Y48.234 Z-0.282 I0.431 J-0.567
X94.111 Y48.097 Z-0.321 I0.567 J0.431
X94.248 Y49.095 Z-0.36 I-0.431 J0.567
X93.25 Y49.232 Z-0.399 I-0.567 J-0.431
X93.113 Y48.234 Z-0.438 I0.431 J-0.567
X94.111 Y48.097 Z-0.477 I0.567 J0.431
X94.393 Y48.665 Z-0.5 I-0.431 J0.567
X94.284 Y48.774 I-0.109 J0.
X94.175 Y48.665 I0. J-0.109
X94.313 Y48.527 I0.138 J0. F240
X94.45 Y48.665 I0. J0.138
X93.6 Y49.515 I-0.85 J0.
X92.75 Y48.665 I0. J-0.85
X93.6 Y47.814 I0.85 J0.
X94.45 Y48.665 I0. J0.85
X94.25 Y48.865 I-0.2 J0.
X94.097 Y48.793 I0. J-0.2
G1 X93.691 Y48.307
G3 X93.716 Y48.025 I0.153 J-0.128
X93.908 Y47.989 I0.128 J0.153
X94.356 Y48.892 Z-0.539 I-0.227 J0.675 F60
X93.453 Y49.34 Z-0.578 I-0.675 J-0.227
X93.005 Y48.437 Z-0.617 I0.227 J-0.675
X93.908 Y47.989 Z-0.656 I0.675 J0.227
X94.356 Y48.892 Z-0.695 I-0.227 J0.675
X93.453 Y49.34 Z-0.734 I-0.675 J-0.227
X93.005 Y48.437 Z-0.774 I0.227 J-0.675
X93.908 Y47.989 Z-0.813 I0.675 J0.227
X94.356 Y48.892 Z-0.852 I-0.227 J0.675
X93.453 Y49.34 Z-0.891 I-0.675 J-0.227
X93.005 Y48.437 Z-0.93 I0.227 J-0.675
X93.908 Y47.989 Z-0.969 I0.675 J0.227
X94.393 Y48.665 Z-1. I-0.227 J0.675
X94.284 Y48.774 I-0.109 J0.
X94.175 Y48.665 I0. J-0.109
X94.313 Y48.527 I0.138 J0. F240
X94.45 Y48.665 I0. J0.138
X93.6 Y49.515 I-0.85 J0.
X92.75 Y48.665 I0. J-0.85
X93.6 Y47.814 I0.85 J0.
X94.45 Y48.665 I0. J0.85
X94.25 Y48.865 I-0.2 J0.
X94.097 Y48.793 I0. J-0.2
G1 X93.691 Y48.307
G3 X93.716 Y48.025 I0.153 J-0.128
X93.908 Y47.989 I0.128 J0.153
X94.356 Y48.892 Z-1.039 I-0.227 J0.675 F60
X93.453 Y49.34 Z-1.078 I-0.675 J-0.227
X93.005 Y48.437 Z-1.117 I0.227 J-0.675
X93.908 Y47.989 Z-1.156 I0.675 J0.227
X94.356 Y48.892 Z-1.195 I-0.227 J0.675
X93.453 Y49.34 Z-1.234 I-0.675 J-0.227
X93.005 Y48.437 Z-1.274 I0.227 J-0.675
X93.908 Y47.989 Z-1.313 I0.675 J0.227
X94.356 Y48.892 Z-1.352 I-0.227 J0.675
X93.453 Y49.34 Z-1.391 I-0.675 J-0.227
X93.005 Y48.437 Z-1.43 I0.227 J-0.675
X93.908 Y47.989 Z-1.469 I0.675 J0.227
X94.393 Y48.665 Z-1.5 I-0.227 J0.675
X94.284 Y48.774 I-0.109 J0.
X94.175 Y48.665 I0. J-0.109
X94.313 Y48.527 I0.138 J0. F240
X94.45 Y48.665 I0. J0.138
X93.6 Y49.515 I-0.85 J0.
X92.75 Y48.665 I0. J-0.85
X93.6 Y47.814 I0.85 J0.
X94.45 Y48.665 I0. J0.85
X94.417 Y48.697 I-0.033 J0.
X94.391 Y48.684 I0. J-0.033
G1 X94.31 Y48.575
X94.298 Y48.47
G3 X94.328 Y48.434 I0.033 J-0.003
X94.362 Y48.457 I0.003 J0.033
X94.393 Y48.665 Z-1.507 I-0.682 J0.207 F60
X93.68 Y49.377 Z-1.546 I-0.713 J0.
X92.968 Y48.665 Z-1.586 I0. J-0.713
X93.68 Y47.952 Z-1.625 I0.713 J0.
X94.393 Y48.665 Z-1.664 I0. J0.713
X93.68 Y49.377 Z-1.703 I-0.713 J0.
X92.968 Y48.665 Z-1.742 I0. J-0.713
X93.68 Y47.952 Z-1.781 I0.713 J0.
X94.393 Y48.665 Z-1.82 I0. J0.713
X94.284 Y48.774 I-0.109 J0.
X94.175 Y48.665 I0. J-0.109
X94.313 Y48.527 I0.138 J0. F240
X94.45 Y48.665 I0. J0.138
X93.6 Y49.515 I-0.85 J0.
X92.75 Y48.665 I0. J-0.85
X93.6 Y47.814 I0.85 J0.
X94.45 Y48.665 I0. J0.85
X94.432 Y48.736 Z-1.8 I-0.15 J0. F480
X94.397 Y48.779 Z-1.745 I-0.132 J-0.072
X94.381 Y48.791 Z-1.67 I-0.097 J-0.114
G0 Z2.
X81.088 Y63.342
G1 Z0.65 F120
G3 X81.096 Y63.325 Z0.576 I0.643 J0.308 F60
X81.122 Y63.279 Z0.522 I0.634 J0.325
X81.163 Y63.219 Z0.5 I0.608 J0.371
X82.161 Y63.083 Z0.461 I0.567 J0.431
X82.298 Y64.081 Z0.422 I-0.431 J0.567
X81.3 Y64.217 Z0.383 I-0.567 J-0.431
X81.163 Y63.219 Z0.344 I0.431 J-0.567
X82.161 Y63.083 Z0.305 I0.567 J0.431
X82.298 Y64.081 Z0.266 I-0.431 J0.567
X81.3 Y64.217 Z0.226 I-0.567 J-0.431
X81.163 Y63.219 Z0.187 I0.431 J-0.567
X82.161 Y63.083 Z0.148 I0.567 J0.431
X82.298 Y64.081 Z0.109 I-0.431 J0.567
X81.3 Y64.217 Z0.07 I-0.567 J-0.431
X81.163 Y63.219 Z0.031 I0.431 J-0.567
X82.161 Y63.083 Z-0.008 I0.567 J0.431
X82.298 Y64.081 Z-0.047 I-0.431 J0.567
X81.3 Y64.217 Z-0.086 I-0.567 J-0.431
X81.163 Y63.219 Z-0.125 I0.431 J-0.567
X82.161 Y63.083 Z-0.164 I0.567 J0.431
X82.298 Y64.081 Z-0.203 I-0.431 J0.567
X81.3 Y64.217 Z-0.243 I-0.567 J-0.431
X81.163 Y63.219 Z-0.282 I0.431 J-0.567
X82.161 Y63.083 Z-0.321 I0.567 J0.431
X82.298 Y64.081 Z-0.36 I-0.431 J0.567
X81.3 Y64.217 Z-0.399 I-0.567 J-0.431
X81.163 Y63.219 Z-0.438 I0.431 J-0.567
X82.161 Y63.083 Z-0.477 I0.567 J0.431
X82.443 Y63.65 Z-0.5 I-0.431 J0.567
X82.334 Y63.759 I-0.109 J0.
X82.225 Y63.65 I0. J-0.109
X82.363 Y63.513 I0.138 J0. F240
X82.5 Y63.65 I0. J0.138
X81.65 Y64.5 I-0.85 J0.
X80.8 Y63.65 I0. J-0.85
X81.65 Y62.8 I0.85 J0.
X82.5 Y63.65 I0. J0.85
X82.3 Y63.85 I-0.2 J0.
X82.147 Y63.778 I0. J-0.2
G1 X81.741 Y63.293
G3 X81.766 Y63.011 I0.153 J-0.128
X81.958 Y62.975 I0.128 J0.153
X82.406 Y63.877 Z-0.539 I-0.227 J0.675 F60
X81.503 Y64.325 Z-0.578 I-0.675 J-0.227
X81.055 Y63.423 Z-0.617 I0.227 J-0.675
X81.958 Y62.975 Z-0.656 I0.675 J0.227
X82.406 Y63.877 Z-0.695 I-0.227 J0.675
X81.503 Y64.325 Z-0.734 I-0.675 J-0.227
X81.055 Y63.423 Z-0.774 I0.227 J-0.675
X81.958 Y62.975 Z-0.813 I0.675 J0.227
X82.406 Y63.877 Z-0.852 I-0.227 J0.675
X81.503 Y64.325 Z-0.891 I-0.675 J-0.227
X81.055 Y63.423 Z-0.93 I0.227 J-0.675
X81.958 Y62.975 Z-0.969 I0.675 J0.227
X82.443 Y63.65 Z-1. I-0.227 J0.675
X82.334 Y63.759 I-0.109 J0.
X82.225 Y63.65 I0. J-0.109
X82.363 Y63.513 I0.138 J0. F240
X82.5 Y63.65 I0. J0.138
X81.65 Y64.5 I-0.85 J0.
X80.8 Y63.65 I0. J-0.85
X81.65 Y62.8 I0.85 J0.
X82.5 Y63.65 I0. J0.85
X82.3 Y63.85 I-0.2 J0.
X82.147 Y63.778 I0. J-0.2
G1 X81.741 Y63.293
G3 X81.766 Y63.011 I0.153 J-0.128
X81.958 Y62.975 I0.128 J0.153
X82.406 Y63.877 Z-1.039 I-0.227 J0.675 F60
X81.503 Y64.325 Z-1.078 I-0.675 J-0.227
X81.055 Y63.423 Z-1.117 I0.227 J-0.675
X81.958 Y62.975 Z-1.156 I0.675 J0.227
X82.406 Y63.877 Z-1.195 I-0.227 J0.675
X81.503 Y64.325 Z-1.234 I-0.675 J-0.227
X81.055 Y63.423 Z-1.274 I0.227 J-0.675
X81.958 Y62.975 Z-1.313 I0.675 J0.227
X82.406 Y63.877 Z-1.352 I-0.227 J0.675
X81.503 Y64.325 Z-1.391 I-0.675 J-0.227
X81.055 Y63.423 Z-1.43 I0.227 J-0.675
X81.958 Y62.975 Z-1.469 I0.675 J0.227
X82.443 Y63.65 Z-1.5 I-0.227 J0.675
X82.334 Y63.759 I-0.109 J0.
X82.225 Y63.65 I0. J-0.109
X82.363 Y63.513 I0.138 J0. F240
X82.5 Y63.65 I0. J0.138
X81.65 Y64.5 I-0.85 J0.
X80.8 Y63.65 I0. J-0.85
X81.65 Y62.8 I0.85 J0.
X82.5 Y63.65 I0. J0.85
X82.467 Y63.683 I-0.033 J0.
X82.441 Y63.67 I0. J-0.033
G1 X82.36 Y63.561
X82.348 Y63.456
G3 X82.378 Y63.42 I0.033 J-0.003
X82.412 Y63.443 I0.003 J0.033
X82.443 Y63.65 Z-1.507 I-0.682 J0.207 F60
X81.73 Y64.363 Z-1.546 I-0.713 J0.
X81.018 Y63.65 Z-1.586 I0. J-0.713
X81.73 Y62.938 Z-1.625 I0.713 J0.
X82.443 Y63.65 Z-1.664 I0. J0.713
X81.73 Y64.363 Z-1.703 I-0.713 J0.
X81.018 Y63.65 Z-1.742 I0. J-0.713
X81.73 Y62.938 Z-1.781 I0.713 J0.
X82.443 Y63.65 Z-1.82 I0. J0.713
X82.334 Y63.759 I-0.109 J0.
X82.225 Y63.65 I0. J-0.109
X82.363 Y63.513 I0.138 J0. F240
X82.5 Y63.65 I0. J0.138
X81.65 Y64.5 I-0.85 J0.
X80.8 Y63.65 I0. J-0.85
X81.65 Y62.8 I0.85 J0.
X82.5 Y63.65 I0. J0.85
X82.482 Y63.722 Z-1.8 I-0.15 J0. F480
X82.447 Y63.764 Z-1.745 I-0.132 J-0.072
X82.431 Y63.776 Z-1.67 I-0.097 J-0.114
G0 Z2.
X49.388 Y63.342
G1 Z0.65 F120
G3 X49.396 Y63.325 Z0.576 I0.643 J0.308 F60
X49.422 Y63.279 Z0.522 I0.634 J0.325
X49.463 Y63.219 Z0.5 I0.608 J0.371
X50.461 Y63.083 Z0.461 I0.567 J0.431
X50.598 Y64.081 Z0.422 I-0.431 J0.567
X49.6 Y64.217 Z0.383 I-0.567 J-0.431
X49.463 Y63.219 Z0.344 I0.431 J-0.567
X50.461 Y63.083 Z0.305 I0.567 J0.431
X50.598 Y64.081 Z0.266 I-0.431 J0.567
X49.6 Y64.217 Z0.226 I-0.567 J-0.431
X49.463 Y63.219 Z0.187 I0.431 J-0.567
X50.461 Y63.083 Z0.148 I0.567 J0.431
X50.598 Y64.081 Z0.109 I-0.431 J0.567
X49.6 Y64.217 Z0.07 I-0.567 J-0.431
X49.463 Y63.219 Z0.031 I0.431 J-0.567
X50.461 Y63.083 Z-0.008 I0.567 J0.431
X50.598 Y64.081 Z-0.047 I-0.431 J0.567
X49.6 Y64.217 Z-0.086 I-0.567 J-0.431
X49.463 Y63.219 Z-0.125 I0.431 J-0.567
X50.461 Y63.083 Z-0.164 I0.567 J0.431
X50.598 Y64.081 Z-0.203 I-0.431 J0.567
X49.6 Y64.217 Z-0.243 I-0.567 J-0.431
X49.463 Y63.219 Z-0.282 I0.431 J-0.567
X50.461 Y63.083 Z-0.321 I0.567 J0.431
X50.598 Y64.081 Z-0.36 I-0.431 J0.567
X49.6 Y64.217 Z-0.399 I-0.567 J-0.431
X49.463 Y63.219 Z-0.438 I0.431 J-0.567
X50.461 Y63.083 Z-0.477 I0.567 J0.431
X50.743 Y63.65 Z-0.5 I-0.431 J0.567
X50.634 Y63.759 I-0.109 J0.
X50.525 Y63.65 I0. J-0.109
X50.662 Y63.513 I0.137 J0. F240
X50.8 Y63.65 I0. J0.137
X49.95 Y64.5 I-0.85 J0.
X49.1 Y63.65 I0. J-0.85
X49.95 Y62.8 I0.85 J0.
X50.8 Y63.65 I0. J0.85
X50.6 Y63.85 I-0.2 J0.
X50.447 Y63.778 I0. J-0.2
G1 X50.041 Y63.293
G3 X50.066 Y63.011 I0.153 J-0.128
X50.258 Y62.975 I0.128 J0.153
X50.706 Y63.877 Z-0.539 I-0.227 J0.675 F60
X49.803 Y64.325 Z-0.578 I-0.675 J-0.227
X49.355 Y63.423 Z-0.617 I0.227 J-0.675
X50.258 Y62.975 Z-0.656 I0.675 J0.227
X50.706 Y63.877 Z-0.695 I-0.227 J0.675
X49.803 Y64.325 Z-0.734 I-0.675 J-0.227
X49.355 Y63.423 Z-0.774 I0.227 J-0.675
X50.258 Y62.975 Z-0.813 I0.675 J0.227
X50.706 Y63.877 Z-0.852 I-0.227 J0.675
X49.803 Y64.325 Z-0.891 I-0.675 J-0.227
X49.355 Y63.423 Z-0.93 I0.227 J-0.675
X50.258 Y62.975 Z-0.969 I0.675 J0.227
X50.743 Y63.65 Z-1. I-0.227 J0.675
X50.634 Y63.759 I-0.109 J0.
X50.525 Y63.65 I0. J-0.109
X50.662 Y63.513 I0.137 J0. F240
X50.8 Y63.65 I0. J0.137
X49.95 Y64.5 I-0.85 J0.
X49.1 Y63.65 I0. J-0.85
X49.95 Y62.8 I0.85 J0.
X50.8 Y63.65 I0. J0.85
X50.6 Y63.85 I-0.2 J0.
X50.447 Y63.778 I0. J-0.2
G1 X50.041 Y63.293
G3 X50.066 Y63.011 I0.153 J-0.128
X50.258 Y62.975 I0.128 J0.153
X50.706 Y63.877 Z-1.039 I-0.227 J0.675 F60
X49.803 Y64.325 Z-1.078 I-0.675 J-0.227
X49.355 Y63.423 Z-1.117 I0.227 J-0.675
X50.258 Y62.975 Z-1.156 I0.675 J0.227
X50.706 Y63.877 Z-1.195 I-0.227 J0.675
X49.803 Y64.325 Z-1.234 I-0.675 J-0.227
X49.355 Y63.423 Z-1.274 I0.227 J-0.675
X50.258 Y62.975 Z-1.313 I0.675 J0.227
X50.706 Y63.877 Z-1.352 I-0.227 J0.675
X49.803 Y64.325 Z-1.391 I-0.675 J-0.227
X49.355 Y63.423 Z-1.43 I0.227 J-0.675
X50.258 Y62.975 Z-1.469 I0.675 J0.227
X50.743 Y63.65 Z-1.5 I-0.227 J0.675
X50.634 Y63.759 I-0.109 J0.
X50.525 Y63.65 I0. J-0.109
X50.662 Y63.513 I0.137 J0. F240
X50.8 Y63.65 I0. J0.137
X49.95 Y64.5 I-0.85 J0.
X49.1 Y63.65 I0. J-0.85
X49.95 Y62.8 I0.85 J0.
X50.8 Y63.65 I0. J0.85
X50.767 Y63.683 I-0.033 J0.
X50.741 Y63.67 I0. J-0.033
G1 X50.66 Y63.561
X50.648 Y63.456
G3 X50.678 Y63.42 I0.033 J-0.003
X50.712 Y63.443 I0.003 J0.033
X50.238 Y64.332 Z-1.539 I-0.682 J0.207 F60
X49.349 Y63.857 Z-1.578 I-0.207 J-0.682
X49.823 Y62.968 Z-1.617 I0.682 J-0.207
X50.712 Y63.443 Z-1.656 I0.207 J0.682
X50.238 Y64.332 Z-1.695 I-0.682 J0.207
X49.349 Y63.857 Z-1.734 I-0.207 J-0.682
X49.823 Y62.968 Z-1.774 I0.682 J-0.207
X50.712 Y63.443 Z-1.813 I0.207 J0.682
X50.743 Y63.65 Z-1.82 I-0.682 J0.207
X50.634 Y63.759 I-0.109 J0.
X50.525 Y63.65 I0. J-0.109
X50.662 Y63.513 I0.137 J0. F240
X50.8 Y63.65 I0. J0.137
X49.95 Y64.5 I-0.85 J0.
X49.1 Y63.65 I0. J-0.85
X49.95 Y62.8 I0.85 J0.
X50.8 Y63.65 I0. J0.85
X50.782 Y63.722 Z-1.8 I-0.15 J0. F480
X50.747 Y63.764 Z-1.745 I-0.132 J-0.072
X50.731 Y63.776 Z-1.67 I-0.097 J-0.114
G0 Z2.
X36.888 Y63.142
G1 Z0.65 F120
G3 X36.896 Y63.125 Z0.576 I0.643 J0.308 F60
X36.922 Y63.079 Z0.522 I0.634 J0.325
X36.963 Y63.019 Z0.5 I0.608 J0.371
X37.961 Y62.883 Z0.461 I0.567 J0.431
X38.098 Y63.881 Z0.422 I-0.431 J0.567
X37.1 Y64.017 Z0.383 I-0.567 J-0.431
X36.963 Y63.019 Z0.344 I0.431 J-0.567
X37.961 Y62.883 Z0.305 I0.567 J0.431
X38.098 Y63.881 Z0.266 I-0.431 J0.567
X37.1 Y64.017 Z0.226 I-0.567 J-0.431
X36.963 Y63.019 Z0.187 I0.431 J-0.567
X37.961 Y62.883 Z0.148 I0.567 J0.431
X38.098 Y63.881 Z0.109 I-0.431 J0.567
X37.1 Y64.017 Z0.07 I-0.567 J-0.431
X36.963 Y63.019 Z0.031 I0.431 J-0.567
X37.961 Y62.883 Z-0.008 I0.567 J0.431
X38.098 Y63.881 Z-0.047 I-0.431 J0.567
X37.1 Y64.017 Z-0.086 I-0.567 J-0.431
X36.963 Y63.019 Z-0.125 I0.431 J-0.567
X37.961 Y62.883 Z-0.164 I0.567 J0.431
X38.098 Y63.881 Z-0.203 I-0.431 J0.567
X37.1 Y64.017 Z-0.243 I-0.567 J-0.431
X36.963 Y63.019 Z-0.282 I0.431 J-0.567
X37.961 Y62.883 Z-0.321 I0.567 J0.431
X38.098 Y63.881 Z-0.36 I-0.431 J0.567
X37.1 Y64.017 Z-0.399 I-0.567 J-0.431
X36.963 Y63.019 Z-0.438 I0.431 J-0.567
X37.961 Y62.883 Z-0.477 I0.567 J0.431
X38.243 Y63.45 Z-0.5 I-0.431 J0.567
X38.134 Y63.559 I-0.109 J0.
X38.025 Y63.45 I0. J-0.109
X38.162 Y63.313 I0.137 J0. F240
X38.3 Y63.45 I0. J0.137
X37.45 Y64.3 I-0.85 J0.
X36.6 Y63.45 I0. J-0.85
X37.45 Y62.6 I0.85 J0.
X38.3 Y63.45 I0. J0.85
X38.1 Y63.65 I-0.2 J0.
X37.947 Y63.578 I0. J-0.2
G1 X37.541 Y63.093
G3 X37.566 Y62.811 I0.153 J-0.128
X37.758 Y62.775 I0.128 J0.153
X38.206 Y63.677 Z-0.539 I-0.227 J0.675 F60
X37.303 Y64.125 Z-0.578 I-0.675 J-0.227
X36.855 Y63.223 Z-0.617 I0.227 J-0.675
X37.758 Y62.775 Z-0.656 I0.675 J0.227
X38.206 Y63.677 Z-0.695 I-0.227 J0.675
X37.303 Y64.125 Z-0.734 I-0.675 J-0.227
X36.855 Y63.223 Z-0.774 I0.227 J-0.675
X37.758 Y62.775 Z-0.813 I0.675 J0.227
X38.206 Y63.677 Z-0.852 I-0.227 J0.675
X37.303 Y64.125 Z-0.891 I-0.675 J-0.227
X36.855 Y63.223 Z-0.93 I0.227 J-0.675
X37.758 Y62.775 Z-0.969 I0.675 J0.227
X38.243 Y63.45 Z-1. I-0.227 J0.675
X38.134 Y63.559 I-0.109 J0.
X38.025 Y63.45 I0. J-0.109
X38.162 Y63.313 I0.137 J0. F240
X38.3 Y63.45 I0. J0.137
X37.45 Y64.3 I-0.85 J0.
X36.6 Y63.45 I0. J-0.85
X37.45 Y62.6 I0.85 J0.
X38.3 Y63.45 I0. J0.85
X38.1 Y63.65 I-0.2 J0.
X37.947 Y63.578 I0. J-0.2
G1 X37.541 Y63.093
G3 X37.566 Y62.811 I0.153 J-0.128
X37.758 Y62.775 I0.128 J0.153
X38.206 Y63.677 Z-1.039 I-0.227 J0.675 F60
X37.303 Y64.125 Z-1.078 I-0.675 J-0.227
X36.855 Y63.223 Z-1.117 I0.227 J-0.675
X37.758 Y62.775 Z-1.156 I0.675 J0.227
X38.206 Y63.677 Z-1.195 I-0.227 J0.675
X37.303 Y64.125 Z-1.234 I-0.675 J-0.227
X36.855 Y63.223 Z-1.274 I0.227 J-0.675
X37.758 Y62.775 Z-1.313 I0.675 J0.227
X38.206 Y63.677 Z-1.352 I-0.227 J0.675
X37.303 Y64.125 Z-1.391 I-0.675 J-0.227
X36.855 Y63.223 Z-1.43 I0.227 J-0.675
X37.758 Y62.775 Z-1.469 I0.675 J0.227
X38.243 Y63.45 Z-1.5 I-0.227 J0.675
X38.134 Y63.559 I-0.109 J0.
X38.025 Y63.45 I0. J-0.109
X38.162 Y63.313 I0.137 J0. F240
X38.3 Y63.45 I0. J0.137
X37.45 Y64.3 I-0.85 J0.
X36.6 Y63.45 I0. J-0.85
X37.45 Y62.6 I0.85 J0.
X38.3 Y63.45 I0. J0.85
X38.267 Y63.483 I-0.033 J0.
X38.241 Y63.47 I0. J-0.033
G1 X38.16 Y63.361
X38.148 Y63.256
G3 X38.178 Y63.22 I0.033 J-0.003
X38.212 Y63.243 I0.003 J0.033
X37.737 Y64.132 Z-1.539 I-0.682 J0.207 F60
X36.849 Y63.657 Z-1.578 I-0.207 J-0.682
X37.323 Y62.768 Z-1.617 I0.682 J-0.207
X38.212 Y63.243 Z-1.656 I0.207 J0.682
X37.737 Y64.132 Z-1.695 I-0.682 J0.207
X36.849 Y63.657 Z-1.734 I-0.207 J-0.682
X37.323 Y62.768 Z-1.774 I0.682 J-0.207
X38.212 Y63.243 Z-1.813 I0.207 J0.682
X38.243 Y63.45 Z-1.82 I-0.682 J0.207
X38.134 Y63.559 I-0.109 J0.
X38.025 Y63.45 I0. J-0.109
X38.162 Y63.313 I0.137 J0. F240
X38.3 Y63.45 I0. J0.137
X37.45 Y64.3 I-0.85 J0.
X36.6 Y63.45 I0. J-0.85
X37.45 Y62.6 I0.85 J0.
X38.3 Y63.45 I0. J0.85
X38.282 Y63.522 Z-1.8 I-0.15 J0. F480
X38.247 Y63.564 Z-1.745 I-0.132 J-0.072
X38.231 Y63.576 Z-1.67 I-0.097 J-0.114
G0 Z2.
X36.288 Y43.542
G1 Z0.65 F120
G3 X36.296 Y43.525 Z0.576 I0.643 J0.308 F60
X36.322 Y43.479 Z0.522 I0.634 J0.325
X36.363 Y43.419 Z0.5 I0.608 J0.371
X37.361 Y43.283 Z0.461 I0.567 J0.431
X37.498 Y44.281 Z0.422 I-0.431 J0.567
X36.5 Y44.417 Z0.383 I-0.567 J-0.431
X36.363 Y43.419 Z0.344 I0.431 J-0.567
X37.361 Y43.283 Z0.305 I0.567 J0.431
X37.498 Y44.281 Z0.266 I-0.431 J0.567
X36.5 Y44.417 Z0.226 I-0.567 J-0.431
X36.363 Y43.419 Z0.187 I0.431 J-0.567
X37.361 Y43.283 Z0.148 I0.567 J0.431
X37.498 Y44.281 Z0.109 I-0.431 J0.567
X36.5 Y44.417 Z0.07 I-0.567 J-0.431
X36.363 Y43.419 Z0.031 I0.431 J-0.567
X37.361 Y43.283 Z-0.008 I0.567 J0.431
X37.498 Y44.281 Z-0.047 I-0.431 J0.567
X36.5 Y44.417 Z-0.086 I-0.567 J-0.431
X36.363 Y43.419 Z-0.125 I0.431 J-0.567
X37.361 Y43.283 Z-0.164 I0.567 J0.431
X37.498 Y44.281 Z-0.203 I-0.431 J0.567
X36.5 Y44.417 Z-0.243 I-0.567 J-0.431
X36.363 Y43.419 Z-0.282 I0.431 J-0.567
X37.361 Y43.283 Z-0.321 I0.567 J0.431
X37.498 Y44.281 Z-0.36 I-0.431 J0.567
X36.5 Y44.417 Z-0.399 I-0.567 J-0.431
X36.363 Y43.419 Z-0.438 I0.431 J-0.567
X37.361 Y43.283 Z-0.477 I0.567 J0.431
X37.643 Y43.85 Z-0.5 I-0.431 J0.567
X37.534 Y43.959 I-0.109 J0.
X37.425 Y43.85 I0. J-0.109
X37.563 Y43.712 I0.138 J0. F240
X37.7 Y43.85 I0. J0.138
X36.85 Y44.7 I-0.85 J0.
X36. Y43.85 I0. J-0.85
X36.85 Y43. I0.85 J0.
X37.7 Y43.85 I0. J0.85
X37.5 Y44.05 I-0.2 J0.
X37.347 Y43.978 I0. J-0.2
G1 X36.941 Y43.493
G3 X36.966 Y43.211 I0.153 J-0.128
X37.158 Y43.175 I0.128 J0.153
X37.606 Y44.077 Z-0.539 I-0.227 J0.675 F60
X36.703 Y44.525 Z-0.578 I-0.675 J-0.227
X36.255 Y43.623 Z-0.617 I0.227 J-0.675
X37.158 Y43.175 Z-0.656 I0.675 J0.227
X37.606 Y44.077 Z-0.695 I-0.227 J0.675
X36.703 Y44.525 Z-0.734 I-0.675 J-0.227
X36.255 Y43.623 Z-0.774 I0.227 J-0.675
X37.158 Y43.175 Z-0.813 I0.675 J0.227
X37.606 Y44.077 Z-0.852 I-0.227 J0.675
X36.703 Y44.525 Z-0.891 I-0.675 J-0.227
X36.255 Y43.623 Z-0.93 I0.227 J-0.675
X37.158 Y43.175 Z-0.969 I0.675 J0.227
X37.643 Y43.85 Z-1. I-0.227 J0.675
X37.534 Y43.959 I-0.109 J0.
X37.425 Y43.85 I0. J-0.109
X37.563 Y43.712 I0.138 J0. F240
X37.7 Y43.85 I0. J0.138
X36.85 Y44.7 I-0.85 J0.
X36. Y43.85 I0. J-0.85
X36.85 Y43. I0.85 J0.
X37.7 Y43.85 I0. J0.85
X37.5 Y44.05 I-0.2 J0.
X37.347 Y43.978 I0. J-0.2
G1 X36.941 Y43.493
G3 X36.966 Y43.211 I0.153 J-0.128
X37.158 Y43.175 I0.128 J0.153
X37.606 Y44.077 Z-1.039 I-0.227 J0.675 F60
X36.703 Y44.525 Z-1.078 I-0.675 J-0.227
X36.255 Y43.623 Z-1.117 I0.227 J-0.675
X37.158 Y43.175 Z-1.156 I0.675 J0.227
X37.606 Y44.077 Z-1.195 I-0.227 J0.675
X36.703 Y44.525 Z-1.234 I-0.675 J-0.227
X36.255 Y43.623 Z-1.274 I0.227 J-0.675
X37.158 Y43.175 Z-1.313 I0.675 J0.227
X37.606 Y44.077 Z-1.352 I-0.227 J0.675
X36.703 Y44.525 Z-1.391 I-0.675 J-0.227
X36.255 Y43.623 Z-1.43 I0.227 J-0.675
X37.158 Y43.175 Z-1.469 I0.675 J0.227
X37.643 Y43.85 Z-1.5 I-0.227 J0.675
X37.534 Y43.959 I-0.109 J0.
X37.425 Y43.85 I0. J-0.109
X37.563 Y43.712 I0.138 J0. F240
X37.7 Y43.85 I0. J0.138
X36.85 Y44.7 I-0.85 J0.
X36. Y43.85 I0. J-0.85
X36.85 Y43. I0.85 J0.
X37.7 Y43.85 I0. J0.85
X37.667 Y43.883 I-0.033 J0.
X37.641 Y43.87 I0. J-0.033
G1 X37.56 Y43.761
X37.548 Y43.656
G3 X37.578 Y43.62 I0.033 J-0.003
X37.612 Y43.643 I0.003 J0.033
X37.643 Y43.85 Z-1.507 I-0.682 J0.207 F60
X36.93 Y44.562 Z-1.546 I-0.712 J0.
X36.218 Y43.85 Z-1.586 I0. J-0.712
X36.93 Y43.138 Z-1.625 I0.712 J0.
X37.643 Y43.85 Z-1.664 I0. J0.712
X36.93 Y44.562 Z-1.703 I-0.712 J0.
X36.218 Y43.85 Z-1.742 I0. J-0.712
X36.93 Y43.138 Z-1.781 I0.712 J0.
X37.643 Y43.85 Z-1.82 I0. J0.712
X37.534 Y43.959 I-0.109 J0.
X37.425 Y43.85 I0. J-0.109
X37.563 Y43.712 I0.138 J0. F240
X37.7 Y43.85 I0. J0.138
X36.85 Y44.7 I-0.85 J0.
X36. Y43.85 I0. J-0.85
X36.85 Y43. I0.85 J0.
X37.7 Y43.85 I0. J0.85
X37.682 Y43.922 Z-1.8 I-0.15 J0. F480
X37.647 Y43.964 Z-1.745 I-0.132 J-0.072
X37.631 Y43.976 Z-1.67 I-0.097 J-0.114
G0 Z2.
X36.288 Y13.042
G1 Z0.65 F120
G3 X36.296 Y13.025 Z0.576 I0.643 J0.308 F60
X36.322 Y12.979 Z0.522 I0.634 J0.325
X36.363 Y12.919 Z0.5 I0.608 J0.371
X37.361 Y12.783 Z0.461 I0.567 J0.431
X37.498 Y13.781 Z0.422 I-0.431 J0.567
X36.5 Y13.917 Z0.383 I-0.567 J-0.431
X36.363 Y12.919 Z0.344 I0.431 J-0.567
X37.361 Y12.783 Z0.305 I0.567 J0.431
X37.498 Y13.781 Z0.266 I-0.431 J0.567
X36.5 Y13.917 Z0.226 I-0.567 J-0.431
X36.363 Y12.919 Z0.187 I0.431 J-0.567
X37.361 Y12.783 Z0.148 I0.567 J0.431
X37.498 Y13.781 Z0.109 I-0.431 J0.567
X36.5 Y13.917 Z0.07 I-0.567 J-0.431
X36.363 Y12.919 Z0.031 I0.431 J-0.567
X37.361 Y12.783 Z-0.008 I0.567 J0.431
X37.498 Y13.781 Z-0.047 I-0.431 J0.567
X36.5 Y13.917 Z-0.086 I-0.567 J-0.431
X36.363 Y12.919 Z-0.125 I0.431 J-0.567
X37.361 Y12.783 Z-0.164 I0.567 J0.431
X37.498 Y13.781 Z-0.203 I-0.431 J0.567
X36.5 Y13.917 Z-0.243 I-0.567 J-0.431
X36.363 Y12.919 Z-0.282 I0.431 J-0.567
X37.361 Y12.783 Z-0.321 I0.567 J0.431
X37.498 Y13.781 Z-0.36 I-0.431 J0.567
X36.5 Y13.917 Z-0.399 I-0.567 J-0.431
X36.363 Y12.919 Z-0.438 I0.431 J-0.567
X37.361 Y12.783 Z-0.477 I0.567 J0.431
X37.643 Y13.35 Z-0.5 I-0.431 J0.567
X37.534 Y13.459 I-0.109 J0.
X37.425 Y13.35 I0. J-0.109
X37.563 Y13.212 I0.138 J0. F240
X37.7 Y13.35 I0. J0.138
X36.85 Y14.2 I-0.85 J0.
X36. Y13.35 I0. J-0.85
X36.85 Y12.5 I0.85 J0.
X37.7 Y13.35 I0. J0.85
X37.5 Y13.55 I-0.2 J0.
X37.347 Y13.478 I0. J-0.2
G1 X36.941 Y12.993
G3 X36.966 Y12.711 I0.153 J-0.128
X37.158 Y12.675 I0.128 J0.153
X37.606 Y13.577 Z-0.539 I-0.227 J0.675 F60
X36.703 Y14.025 Z-0.578 I-0.675 J-0.227
X36.255 Y13.123 Z-0.617 I0.227 J-0.675
X37.158 Y12.675 Z-0.656 I0.675 J0.227
X37.606 Y13.577 Z-0.695 I-0.227 J0.675
X36.703 Y14.025 Z-0.734 I-0.675 J-0.227
X36.255 Y13.123 Z-0.774 I0.227 J-0.675
X37.158 Y12.675 Z-0.813 I0.675 J0.227
X37.606 Y13.577 Z-0.852 I-0.227 J0.675
X36.703 Y14.025 Z-0.891 I-0.675 J-0.227
X36.255 Y13.123 Z-0.93 I0.227 J-0.675
X37.158 Y12.675 Z-0.969 I0.675 J0.227
X37.643 Y13.35 Z-1. I-0.227 J0.675
X37.534 Y13.459 I-0.109 J0.
X37.425 Y13.35 I0. J-0.109
X37.563 Y13.212 I0.138 J0. F240
X37.7 Y13.35 I0. J0.138
X36.85 Y14.2 I-0.85 J0.
X36. Y13.35 I0. J-0.85
X36.85 Y12.5 I0.85 J0.
X37.7 Y13.35 I0. J0.85
X37.5 Y13.55 I-0.2 J0.
X37.347 Y13.478 I0. J-0.2
G1 X36.941 Y12.993
G3 X36.966 Y12.711 I0.153 J-0.128
X37.158 Y12.675 I0.128 J0.153
X37.606 Y13.577 Z-1.039 I-0.227 J0.675 F60
X36.703 Y14.025 Z-1.078 I-0.675 J-0.227
X36.255 Y13.123 Z-1.117 I0.227 J-0.675
X37.158 Y12.675 Z-1.156 I0.675 J0.227
X37.606 Y13.577 Z-1.195 I-0.227 J0.675
X36.703 Y14.025 Z-1.234 I-0.675 J-0.227
X36.255 Y13.123 Z-1.274 I0.227 J-0.675
X37.158 Y12.675 Z-1.313 I0.675 J0.227
X37.606 Y13.577 Z-1.352 I-0.227 J0.675
X36.703 Y14.025 Z-1.391 I-0.675 J-0.227
X36.255 Y13.123 Z-1.43 I0.227 J-0.675
X37.158 Y12.675 Z-1.469 I0.675 J0.227
X37.643 Y13.35 Z-1.5 I-0.227 J0.675
X37.534 Y13.459 I-0.109 J0.
X37.425 Y13.35 I0. J-0.109
X37.563 Y13.212 I0.138 J0. F240
X37.7 Y13.35 I0. J0.138
X36.85 Y14.2 I-0.85 J0.
X36. Y13.35 I0. J-0.85
X36.85 Y12.5 I0.85 J0.
X37.7 Y13.35 I0. J0.85
X37.667 Y13.383 I-0.033 J0.
X37.641 Y13.37 I0. J-0.033
G1 X37.56 Y13.261
X37.548 Y13.156
G3 X37.578 Y13.12 I0.033 J-0.003
X37.612 Y13.143 I0.003 J0.033
X37.643 Y13.35 Z-1.507 I-0.682 J0.207 F60
X36.93 Y14.062 Z-1.546 I-0.712 J0.
X36.218 Y13.35 Z-1.586 I0. J-0.712
X36.93 Y12.638 Z-1.625 I0.712 J0.
X37.643 Y13.35 Z-1.664 I0. J0.712
X36.93 Y14.062 Z-1.703 I-0.712 J0.
X36.218 Y13.35 Z-1.742 I0. J-0.712
X36.93 Y12.638 Z-1.781 I0.712 J0.
X37.643 Y13.35 Z-1.82 I0. J0.712
X37.534 Y13.459 I-0.109 J0.
X37.425 Y13.35 I0. J-0.109
X37.563 Y13.212 I0.138 J0. F240
X37.7 Y13.35 I0. J0.138
X36.85 Y14.2 I-0.85 J0.
X36. Y13.35 I0. J-0.85
X36.85 Y12.5 I0.85 J0.
X37.7 Y13.35 I0. J0.85
X37.682 Y13.422 Z-1.8 I-0.15 J0. F480
X37.647 Y13.464 Z-1.745 I-0.132 J-0.072
X37.631 Y13.476 Z-1.67 I-0.097 J-0.114
G0 Z2.
X49.988 Y13.139
G1 Z0.65 F120
G3 X49.996 Y13.121 Z0.576 I0.643 J0.308 F60
X50.022 Y13.075 Z0.522 I0.634 J0.325
X50.063 Y13.015 Z0.5 I0.608 J0.371
X51.061 Y12.879 Z0.461 I0.567 J0.431
X51.198 Y13.877 Z0.422 I-0.431 J0.567
X50.2 Y14.014 Z0.383 I-0.567 J-0.431
X50.063 Y13.015 Z0.344 I0.431 J-0.567
X51.061 Y12.879 Z0.305 I0.567 J0.431
X51.198 Y13.877 Z0.266 I-0.431 J0.567
X50.2 Y14.014 Z0.226 I-0.567 J-0.431
X50.063 Y13.015 Z0.187 I0.431 J-0.567
X51.061 Y12.879 Z0.148 I0.567 J0.431
X51.198 Y13.877 Z0.109 I-0.431 J0.567
X50.2 Y14.014 Z0.07 I-0.567 J-0.431
X50.063 Y13.015 Z0.031 I0.431 J-0.567
X51.061 Y12.879 Z-0.008 I0.567 J0.431
X51.198 Y13.877 Z-0.047 I-0.431 J0.567
X50.2 Y14.014 Z-0.086 I-0.567 J-0.431
X50.063 Y13.015 Z-0.125 I0.431 J-0.567
X51.061 Y12.879 Z-0.164 I0.567 J0.431
X51.198 Y13.877 Z-0.203 I-0.431 J0.567
X50.2 Y14.014 Z-0.243 I-0.567 J-0.431
X50.063 Y13.015 Z-0.282 I0.431 J-0.567
X51.061 Y12.879 Z-0.321 I0.567 J0.431
X51.198 Y13.877 Z-0.36 I-0.431 J0.567
X50.2 Y14.014 Z-0.399 I-0.567 J-0.431
X50.063 Y13.015 Z-0.438 I0.431 J-0.567
X51.061 Y12.879 Z-0.477 I0.567 J0.431
X51.343 Y13.446 Z-0.5 I-0.431 J0.567
X51.234 Y13.555 I-0.109 J0.
X51.125 Y13.446 I0. J-0.109
X51.263 Y13.309 I0.138 J0. F240
X51.4 Y13.446 I0. J0.138
X50.55 Y14.296 I-0.85 J0.
X49.7 Y13.446 I0. J-0.85
X50.55 Y12.596 I0.85 J0.
X51.4 Y13.446 I0. J0.85
X51.2 Y13.646 I-0.2 J0.
X51.047 Y13.574 I0. J-0.2
G1 X50.641 Y13.089
G3 X50.666 Y12.807 I0.153 J-0.128
X50.858 Y12.771 I0.128 J0.153
X51.306 Y13.673 Z-0.539 I-0.227 J0.675 F60
X50.403 Y14.121 Z-0.578 I-0.675 J-0.227
X49.955 Y13.219 Z-0.617 I0.227 J-0.675
X50.858 Y12.771 Z-0.656 I0.675 J0.227
X51.306 Y13.673 Z-0.695 I-0.227 J0.675
X50.403 Y14.121 Z-0.734 I-0.675 J-0.227
X49.955 Y13.219 Z-0.774 I0.227 J-0.675
X50.858 Y12.771 Z-0.813 I0.675 J0.227
X51.306 Y13.673 Z-0.852 I-0.227 J0.675
X50.403 Y14.121 Z-0.891 I-0.675 J-0.227
X49.955 Y13.219 Z-0.93 I0.227 J-0.675
X50.858 Y12.771 Z-0.969 I0.675 J0.227
X51.343 Y13.446 Z-1. I-0.227 J0.675
X51.234 Y13.555 I-0.109 J0.
X51.125 Y13.446 I0. J-0.109
X51.263 Y13.309 I0.138 J0. F240
X51.4 Y13.446 I0. J0.138
X50.55 Y14.296 I-0.85 J0.
X49.7 Y13.446 I0. J-0.85
X50.55 Y12.596 I0.85 J0.
X51.4 Y13.446 I0. J0.85
X51.2 Y13.646 I-0.2 J0.
X51.047 Y13.574 I0. J-0.2
G1 X50.641 Y13.089
G3 X50.666 Y12.807 I0.153 J-0.128
X50.858 Y12.771 I0.128 J0.153
X51.306 Y13.673 Z-1.039 I-0.227 J0.675 F60
X50.403 Y14.121 Z-1.078 I-0.675 J-0.227
X49.955 Y13.219 Z-1.117 I0.227 J-0.675
X50.858 Y12.771 Z-1.156 I0.675 J0.227
X51.306 Y13.673 Z-1.195 I-0.227 J0.675
X50.403 Y14.121 Z-1.234 I-0.675 J-0.227
X49.955 Y13.219 Z-1.274 I0.227 J-0.675
X50.858 Y12.771 Z-1.313 I0.675 J0.227
X51.306 Y13.673 Z-1.352 I-0.227 J0.675
X50.403 Y14.121 Z-1.391 I-0.675 J-0.227
X49.955 Y13.219 Z-1.43 I0.227 J-0.675
X50.858 Y12.771 Z-1.469 I0.675 J0.227
X51.343 Y13.446 Z-1.5 I-0.227 J0.675
X51.234 Y13.555 I-0.109 J0.
X51.125 Y13.446 I0. J-0.109
X51.263 Y13.309 I0.138 J0. F240
X51.4 Y13.446 I0. J0.138
X50.55 Y14.296 I-0.85 J0.
X49.7 Y13.446 I0. J-0.85
X50.55 Y12.596 I0.85 J0.
X51.4 Y13.446 I0. J0.85
X51.367 Y13.479 I-0.033 J0.
X51.341 Y13.466 I0. J-0.033
G1 X51.26 Y13.357
X51.248 Y13.252
G3 X51.278 Y13.216 I0.033 J-0.003
X51.312 Y13.239 I0.003 J0.033
X50.838 Y14.128 Z-1.539 I-0.682 J0.207 F60
X49.949 Y13.653 Z-1.578 I-0.207 J-0.682
X50.423 Y12.764 Z-1.617 I0.682 J-0.207
X51.312 Y13.239 Z-1.656 I0.207 J0.682
X50.838 Y14.128 Z-1.695 I-0.682 J0.207
X49.949 Y13.653 Z-1.734 I-0.207 J-0.682
X50.423 Y12.764 Z-1.774 I0.682 J-0.207
X51.312 Y13.239 Z-1.813 I0.207 J0.682
X51.343 Y13.446 Z-1.82 I-0.682 J0.207
X51.234 Y13.555 I-0.109 J0.
X51.125 Y13.446 I0. J-0.109
X51.263 Y13.309 I0.138 J0. F240
X51.4 Y13.446 I0. J0.138
X50.55 Y14.296 I-0.85 J0.
X49.7 Y13.446 I0. J-0.85
X50.55 Y12.596 I0.85 J0.
X51.4 Y13.446 I0. J0.85
X51.382 Y13.518 Z-1.8 I-0.15 J0. F480
X51.347 Y13.56 Z-1.745 I-0.132 J-0.072
X51.331 Y13.572 Z-1.67 I-0.097 J-0.114
G0 Z2.
X64.915 Y6.557
G1 Z0.65 F120
G3 X64.907 Y6.575 Z0.576 I-0.643 J-0.308 F60
X64.881 Y6.621 Z0.522 I-0.634 J-0.325
X64.84 Y6.681 Z0.5 I-0.608 J-0.371
X63.842 Y6.817 Z0.461 I-0.567 J-0.431
X63.705 Y5.819 Z0.422 I0.431 J-0.567
X64.703 Y5.682 Z0.383 I0.567 J0.431
X64.84 Y6.681 Z0.344 I-0.431 J0.567
X63.842 Y6.817 Z0.305 I-0.567 J-0.431
X63.705 Y5.819 Z0.266 I0.431 J-0.567
X64.703 Y5.682 Z0.226 I0.567 J0.431
X64.84 Y6.681 Z0.187 I-0.431 J0.567
X63.842 Y6.817 Z0.148 I-0.567 J-0.431
X63.705 Y5.819 Z0.109 I0.431 J-0.567
X64.703 Y5.682 Z0.07 I0.567 J0.431
X64.84 Y6.681 Z0.031 I-0.431 J0.567
X63.842 Y6.817 Z-0.008 I-0.567 J-0.431
X63.705 Y5.819 Z-0.047 I0.431 J-0.567
X64.703 Y5.682 Z-0.086 I0.567 J0.431
X64.84 Y6.681 Z-0.125 I-0.431 J0.567
X63.842 Y6.817 Z-0.164 I-0.567 J-0.431
X63.705 Y5.819 Z-0.203 I0.431 J-0.567
X64.703 Y5.682 Z-0.243 I0.567 J0.431
X64.84 Y6.681 Z-0.282 I-0.431 J0.567
X63.842 Y6.817 Z-0.321 I-0.567 J-0.431
X63.705 Y5.819 Z-0.36 I0.431 J-0.567
X64.703 Y5.682 Z-0.399 I0.567 J0.431
X64.84 Y6.681 Z-0.438 I-0.431 J0.567
X63.842 Y6.817 Z-0.477 I-0.567 J-0.431
X63.56 Y6.25 Z-0.5 I0.431 J-0.567
X63.912 Y5.897 I0.352 J0. F240
X64.265 Y6.25 I0. J0.352
X63.2 Y7.315 I-1.065 J0.
X62.135 Y6.25 I0. J-1.065
X63.912 Y4.472 I1.778 J0.
X65.69 Y6.25 I0. J1.778
X63.2 Y8.74 I-2.49 J0.
X60.71 Y6.25 I0. J-2.49
X63.2 Y3.76 I2.49 J0.
X65.69 Y6.25 I0. J2.49
X65.556 Y6.439 I-0.2 J0.
G1 X64.175 Y6.924
G3 X64.045 Y6.925 I-0.066 J-0.189
X63.597 Y6.023 Z-0.539 I0.227 J-0.675 F60
X64.5 Y5.575 Z-0.578 I0.675 J0.227
X64.948 Y6.477 Z-0.617 I-0.227 J0.675
X64.045 Y6.925 Z-0.656 I-0.675 J-0.227
X63.597 Y6.023 Z-0.695 I0.227 J-0.675
X64.5 Y5.575 Z-0.734 I0.675 J0.227
X64.948 Y6.477 Z-0.774 I-0.227 J0.675
X64.045 Y6.925 Z-0.813 I-0.675 J-0.227
X63.597 Y6.023 Z-0.852 I0.227 J-0.675
X64.5 Y5.575 Z-0.891 I0.675 J0.227
X64.948 Y6.477 Z-0.93 I-0.227 J0.675
X64.045 Y6.925 Z-0.969 I-0.675 J-0.227
X63.56 Y6.25 Z-1. I0.227 J-0.675
X63.912 Y5.897 I0.352 J0. F240
X64.265 Y6.25 I0. J0.352
X63.2 Y7.315 I-1.065 J0.
X62.135 Y6.25 I0. J-1.065
X63.912 Y4.472 I1.778 J0.
X65.69 Y6.25 I0. J1.778
X63.2 Y8.74 I-2.49 J0.
X60.71 Y6.25 I0. J-2.49
X63.2 Y3.76 I2.49 J0.
X65.69 Y6.25 I0. J2.49
X65.556 Y6.439 I-0.2 J0.
G1 X64.175 Y6.924
G3 X64.045 Y6.925 I-0.066 J-0.189
X63.597 Y6.023 Z-1.039 I0.227 J-0.675 F60
X64.5 Y5.575 Z-1.078 I0.675 J0.227
X64.948 Y6.477 Z-1.117 I-0.227 J0.675
X64.045 Y6.925 Z-1.156 I-0.675 J-0.227
X63.597 Y6.023 Z-1.195 I0.227 J-0.675
X64.5 Y5.575 Z-1.234 I0.675 J0.227
X64.948 Y6.477 Z-1.274 I-0.227 J0.675
X64.045 Y6.925 Z-1.313 I-0.675 J-0.227
X63.597 Y6.023 Z-1.352 I0.227 J-0.675
X64.5 Y5.575 Z-1.391 I0.675 J0.227
X64.948 Y6.477 Z-1.43 I-0.227 J0.675
X64.045 Y6.925 Z-1.469 I-0.675 J-0.227
X63.56 Y6.25 Z-1.5 I0.227 J-0.675
X63.912 Y5.897 I0.352 J0. F240
X64.265 Y6.25 I0. J0.352
X63.2 Y7.315 I-1.065 J0.
X62.135 Y6.25 I0. J-1.065
X63.912 Y4.472 I1.778 J0.
X65.69 Y6.25 I0. J1.778
X63.2 Y8.74 I-2.49 J0.
X60.71 Y6.25 I0. J-2.49
X63.2 Y3.76 I2.49 J0.
X65.69 Y6.25 I0. J2.49
X65.667 Y6.304 I-0.075 J0.
X65.611 Y6.325 I-0.052 J-0.054
G1 X64.629 Y6.276
X63.68 Y6.508
G3 X63.591 Y6.457 I-0.018 J-0.073
X63.56 Y6.25 Z-1.507 I0.682 J-0.207 F60
X64.272 Y5.537 Z-1.546 I0.712 J0.
X64.985 Y6.25 Z-1.586 I0. J0.712
X64.272 Y6.962 Z-1.625 I-0.712 J0.
X63.56 Y6.25 Z-1.664 I0. J-0.712
X64.272 Y5.537 Z-1.703 I0.712 J0.
X64.985 Y6.25 Z-1.742 I0. J0.712
X64.272 Y6.962 Z-1.781 I-0.712 J0.
X63.56 Y6.25 Z-1.82 I0. J-0.712
X63.912 Y5.897 I0.352 J0. F240
X64.265 Y6.25 I0. J0.352
X63.2 Y7.315 I-1.065 J0.
X62.135 Y6.25 I0. J-1.065
X63.912 Y4.472 I1.778 J0.
X65.69 Y6.25 I0. J1.778
X63.2 Y8.74 I-2.49 J0.
X60.71 Y6.25 I0. J-2.49
X63.2 Y3.76 I2.49 J0.
X65.69 Y6.25 I0. J2.49
X65.672 Y6.322 Z-1.8 I-0.15 J0. F480
X65.637 Y6.364 Z-1.745 I-0.132 J-0.072
X65.621 Y6.376 Z-1.67 I-0.097 J-0.114
G0 Z2.
X80.488 Y13.139
G1 Z0.65 F120
G3 X80.496 Y13.121 Z0.576 I0.643 J0.308 F60
X80.522 Y13.075 Z0.522 I0.634 J0.325
X80.563 Y13.015 Z0.5 I0.608 J0.371
X81.561 Y12.879 Z0.461 I0.567 J0.431
X81.698 Y13.877 Z0.422 I-0.431 J0.567
X80.7 Y14.014 Z0.383 I-0.567 J-0.431
X80.563 Y13.015 Z0.344 I0.431 J-0.567
X81.561 Y12.879 Z0.305 I0.567 J0.431
X81.698 Y13.877 Z0.266 I-0.431 J0.567
X80.7 Y14.014 Z0.226 I-0.567 J-0.431
X80.563 Y13.015 Z0.187 I0.431 J-0.567
X81.561 Y12.879 Z0.148 I0.567 J0.431
X81.698 Y13.877 Z0.109 I-0.431 J0.567
X80.7 Y14.014 Z0.07 I-0.567 J-0.431
X80.563 Y13.015 Z0.031 I0.431 J-0.567
X81.561 Y12.879 Z-0.008 I0.567 J0.431
X81.698 Y13.877 Z-0.047 I-0.431 J0.567
X80.7 Y14.014 Z-0.086 I-0.567 J-0.431
X80.563 Y13.015 Z-0.125 I0.431 J-0.567
X81.561 Y12.879 Z-0.164 I0.567 J0.431
X81.698 Y13.877 Z-0.203 I-0.431 J0.567
X80.7 Y14.014 Z-0.243 I-0.567 J-0.431
X80.563 Y13.015 Z-0.282 I0.431 J-0.567
X81.561 Y12.879 Z-0.321 I0.567 J0.431
X81.698 Y13.877 Z-0.36 I-0.431 J0.567
X80.7 Y14.014 Z-0.399 I-0.567 J-0.431
X80.563 Y13.015 Z-0.438 I0.431 J-0.567
X81.561 Y12.879 Z-0.477 I0.567 J0.431
X81.843 Y13.446 Z-0.5 I-0.431 J0.567
X81.734 Y13.555 I-0.109 J0.
X81.625 Y13.446 I0. J-0.109
X81.762 Y13.309 I0.137 J0. F240
X81.9 Y13.446 I0. J0.138
X81.05 Y14.296 I-0.85 J0.
X80.2 Y13.446 I0. J-0.85
X81.05 Y12.596 I0.85 J0.
X81.9 Y13.446 I0. J0.85
X81.7 Y13.646 I-0.2 J0.
X81.547 Y13.574 I0. J-0.2
G1 X81.141 Y13.089
G3 X81.166 Y12.807 I0.153 J-0.128
X81.358 Y12.771 I0.128 J0.153
X81.806 Y13.673 Z-0.539 I-0.227 J0.675 F60
X80.903 Y14.121 Z-0.578 I-0.675 J-0.227
X80.455 Y13.219 Z-0.617 I0.227 J-0.675
X81.358 Y12.771 Z-0.656 I0.675 J0.227
X81.806 Y13.673 Z-0.695 I-0.227 J0.675
X80.903 Y14.121 Z-0.734 I-0.675 J-0.227
X80.455 Y13.219 Z-0.774 I0.227 J-0.675
X81.358 Y12.771 Z-0.813 I0.675 J0.227
X81.806 Y13.673 Z-0.852 I-0.227 J0.675
X80.903 Y14.121 Z-0.891 I-0.675 J-0.227
X80.455 Y13.219 Z-0.93 I0.227 J-0.675
X81.358 Y12.771 Z-0.969 I0.675 J0.227
X81.843 Y13.446 Z-1. I-0.227 J0.675
X81.734 Y13.555 I-0.109 J0.
X81.625 Y13.446 I0. J-0.109
X81.762 Y13.309 I0.137 J0. F240
X81.9 Y13.446 I0. J0.138
X81.05 Y14.296 I-0.85 J0.
X80.2 Y13.446 I0. J-0.85
X81.05 Y12.596 I0.85 J0.
X81.9 Y13.446 I0. J0.85
X81.7 Y13.646 I-0.2 J0.
X81.547 Y13.574 I0. J-0.2
G1 X81.141 Y13.089
G3 X81.166 Y12.807 I0.153 J-0.128
X81.358 Y12.771 I0.128 J0.153
X81.806 Y13.673 Z-1.039 I-0.227 J0.675 F60
X80.903 Y14.121 Z-1.078 I-0.675 J-0.227
X80.455 Y13.219 Z-1.117 I0.227 J-0.675
X81.358 Y12.771 Z-1.156 I0.675 J0.227
X81.806 Y13.673 Z-1.195 I-0.227 J0.675
X80.903 Y14.121 Z-1.234 I-0.675 J-0.227
X80.455 Y13.219 Z-1.274 I0.227 J-0.675
X81.358 Y12.771 Z-1.313 I0.675 J0.227
X81.806 Y13.673 Z-1.352 I-0.227 J0.675
X80.903 Y14.121 Z-1.391 I-0.675 J-0.227
X80.455 Y13.219 Z-1.43 I0.227 J-0.675
X81.358 Y12.771 Z-1.469 I0.675 J0.227
X81.843 Y13.446 Z-1.5 I-0.227 J0.675
X81.734 Y13.555 I-0.109 J0.
X81.625 Y13.446 I0. J-0.109
X81.762 Y13.309 I0.137 J0. F240
X81.9 Y13.446 I0. J0.138
X81.05 Y14.296 I-0.85 J0.
X80.2 Y13.446 I0. J-0.85
X81.05 Y12.596 I0.85 J0.
X81.9 Y13.446 I0. J0.85
X81.867 Y13.479 I-0.033 J0.
X81.841 Y13.466 I0. J-0.033
G1 X81.76 Y13.357
X81.748 Y13.252
G3 X81.778 Y13.216 I0.033 J-0.003
X81.812 Y13.239 I0.003 J0.033
X81.843 Y13.446 Z-1.507 I-0.682 J0.207 F60
X81.13 Y14.159 Z-1.546 I-0.713 J0.
X80.418 Y13.446 Z-1.586 I0. J-0.713
X81.13 Y12.734 Z-1.625 I0.713 J0.
X81.843 Y13.446 Z-1.664 I0. J0.713
X81.13 Y14.159 Z-1.703 I-0.713 J0.
X80.418 Y13.446 Z-1.742 I0. J-0.713
X81.13 Y12.734 Z-1.781 I0.713 J0.
X81.843 Y13.446 Z-1.82 I0. J0.713
X81.734 Y13.555 I-0.109 J0.
X81.625 Y13.446 I0. J-0.109
X81.762 Y13.309 I0.137 J0. F240
X81.9 Y13.446 I0. J0.138
X81.05 Y14.296 I-0.85 J0.
X80.2 Y13.446 I0. J-0.85
X81.05 Y12.596 I0.85 J0.
X81.9 Y13.446 I0. J0.85
X81.882 Y13.518 Z-1.8 I-0.15 J0. F480
X81.847 Y13.56 Z-1.745 I-0.132 J-0.072
X81.831 Y13.572 Z-1.67 I-0.097 J-0.114
G0 Z2.
X5.788 Y13.042
G1 Z0.65 F120
G3 X5.796 Y13.025 Z0.576 I0.643 J0.308 F60
X5.822 Y12.979 Z0.522 I0.634 J0.325
X5.863 Y12.919 Z0.5 I0.608 J0.371
X6.861 Y12.783 Z0.461 I0.567 J0.431
X6.998 Y13.781 Z0.422 I-0.431 J0.567
X6. Y13.917 Z0.383 I-0.567 J-0.431
X5.863 Y12.919 Z0.344 I0.431 J-0.567
X6.861 Y12.783 Z0.305 I0.567 J0.431
X6.998 Y13.781 Z0.266 I-0.431 J0.567
X6. Y13.917 Z0.226 I-0.567 J-0.431
X5.863 Y12.919 Z0.187 I0.431 J-0.567
X6.861 Y12.783 Z0.148 I0.567 J0.431
X6.998 Y13.781 Z0.109 I-0.431 J0.567
X6. Y13.917 Z0.07 I-0.567 J-0.431
X5.863 Y12.919 Z0.031 I0.431 J-0.567
X6.861 Y12.783 Z-0.008 I0.567 J0.431
X6.998 Y13.781 Z-0.047 I-0.431 J0.567
X6. Y13.917 Z-0.086 I-0.567 J-0.431
X5.863 Y12.919 Z-0.125 I0.431 J-0.567
X6.861 Y12.783 Z-0.164 I0.567 J0.431
X6.998 Y13.781 Z-0.203 I-0.431 J0.567
X6. Y13.917 Z-0.243 I-0.567 J-0.431
X5.863 Y12.919 Z-0.282 I0.431 J-0.567
X6.861 Y12.783 Z-0.321 I0.567 J0.431
X6.998 Y13.781 Z-0.36 I-0.431 J0.567
X6. Y13.917 Z-0.399 I-0.567 J-0.431
X5.863 Y12.919 Z-0.438 I0.431 J-0.567
X6.861 Y12.783 Z-0.477 I0.567 J0.431
X7.143 Y13.35 Z-0.5 I-0.431 J0.567
X7.034 Y13.459 I-0.109 J0.
X6.925 Y13.35 I0. J-0.109
X7.063 Y13.213 I0.137 J0. F240
X7.2 Y13.35 I0. J0.137
X6.35 Y14.2 I-0.85 J0.
X5.5 Y13.35 I0. J-0.85
X6.35 Y12.5 I0.85 J0.
X7.2 Y13.35 I0. J0.85
X7. Y13.55 I-0.2 J0.
X6.847 Y13.478 I0. J-0.2
G1 X6.441 Y12.993
G3 X6.466 Y12.711 I0.153 J-0.128
X6.658 Y12.675 I0.128 J0.153
X7.106 Y13.577 Z-0.539 I-0.227 J0.675 F60
X6.203 Y14.025 Z-0.578 I-0.675 J-0.227
X5.755 Y13.123 Z-0.617 I0.227 J-0.675
X6.658 Y12.675 Z-0.656 I0.675 J0.227
X7.106 Y13.577 Z-0.695 I-0.227 J0.675
X6.203 Y14.025 Z-0.734 I-0.675 J-0.227
X5.755 Y13.123 Z-0.774 I0.227 J-0.675
X6.658 Y12.675 Z-0.813 I0.675 J0.227
X7.106 Y13.577 Z-0.852 I-0.227 J0.675
X6.203 Y14.025 Z-0.891 I-0.675 J-0.227
X5.755 Y13.123 Z-0.93 I0.227 J-0.675
X6.658 Y12.675 Z-0.969 I0.675 J0.227
X7.143 Y13.35 Z-1. I-0.227 J0.675
X7.034 Y13.459 I-0.109 J0.
X6.925 Y13.35 I0. J-0.109
X7.063 Y13.213 I0.137 J0. F240
X7.2 Y13.35 I0. J0.137
X6.35 Y14.2 I-0.85 J0.
X5.5 Y13.35 I0. J-0.85
X6.35 Y12.5 I0.85 J0.
X7.2 Y13.35 I0. J0.85
X7. Y13.55 I-0.2 J0.
X6.847 Y13.478 I0. J-0.2
G1 X6.441 Y12.993
G3 X6.466 Y12.711 I0.153 J-0.128
X6.658 Y12.675 I0.128 J0.153
X7.106 Y13.577 Z-1.039 I-0.227 J0.675 F60
X6.203 Y14.025 Z-1.078 I-0.675 J-0.227
X5.755 Y13.123 Z-1.117 I0.227 J-0.675
X6.658 Y12.675 Z-1.156 I0.675 J0.227
X7.106 Y13.577 Z-1.195 I-0.227 J0.675
X6.203 Y14.025 Z-1.234 I-0.675 J-0.227
X5.755 Y13.123 Z-1.274 I0.227 J-0.675
X6.658 Y12.675 Z-1.313 I0.675 J0.227
X7.106 Y13.577 Z-1.352 I-0.227 J0.675
X6.203 Y14.025 Z-1.391 I-0.675 J-0.227
X5.755 Y13.123 Z-1.43 I0.227 J-0.675
X6.658 Y12.675 Z-1.469 I0.675 J0.227
X7.143 Y13.35 Z-1.5 I-0.227 J0.675
X7.034 Y13.459 I-0.109 J0.
X6.925 Y13.35 I0. J-0.109
X7.063 Y13.213 I0.137 J0. F240
X7.2 Y13.35 I0. J0.137
X6.35 Y14.2 I-0.85 J0.
X5.5 Y13.35 I0. J-0.85
X6.35 Y12.5 I0.85 J0.
X7.2 Y13.35 I0. J0.85
X7.167 Y13.383 I-0.033 J0.
X7.141 Y13.37 I0. J-0.033
G1 X7.06 Y13.261
X7.048 Y13.156
G3 X7.078 Y13.12 I0.033 J-0.003
X7.112 Y13.143 I0.003 J0.033
X6.638 Y14.032 Z-1.539 I-0.682 J0.207 F60
X5.749 Y13.557 Z-1.578 I-0.207 J-0.682
X6.223 Y12.668 Z-1.617 I0.682 J-0.207
X7.112 Y13.143 Z-1.656 I0.207 J0.682
X6.638 Y14.032 Z-1.695 I-0.682 J0.207
X5.749 Y13.557 Z-1.734 I-0.207 J-0.682
X6.223 Y12.668 Z-1.774 I0.682 J-0.207
X7.112 Y13.143 Z-1.813 I0.207 J0.682
X7.143 Y13.35 Z-1.82 I-0.682 J0.207
X7.034 Y13.459 I-0.109 J0.
X6.925 Y13.35 I0. J-0.109
X7.063 Y13.213 I0.137 J0. F240
X7.2 Y13.35 I0. J0.137
X6.35 Y14.2 I-0.85 J0.
X5.5 Y13.35 I0. J-0.85
X6.35 Y12.5 I0.85 J0.
X7.2 Y13.35 I0. J0.85
X7.182 Y13.422 Z-1.8 I-0.15 J0. F480
X7.147 Y13.464 Z-1.745 I-0.132 J-0.072
X7.131 Y13.476 Z-1.67 I-0.097 J-0.114
G0 Z2.
X5.788 Y43.542
G1 Z0.65 F120
G3 X5.796 Y43.525 Z0.576 I0.643 J0.308 F60
X5.822 Y43.479 Z0.522 I0.634 J0.325
X5.863 Y43.419 Z0.5 I0.608 J0.371
X6.861 Y43.283 Z0.461 I0.567 J0.431
X6.998 Y44.281 Z0.422 I-0.431 J0.567
X6. Y44.417 Z0.383 I-0.567 J-0.431
X5.863 Y43.419 Z0.344 I0.431 J-0.567
X6.861 Y43.283 Z0.305 I0.567 J0.431
X6.998 Y44.281 Z0.266 I-0.431 J0.567
X6. Y44.417 Z0.226 I-0.567 J-0.431
X5.863 Y43.419 Z0.187 I0.431 J-0.567
X6.861 Y43.283 Z0.148 I0.567 J0.431
X6.998 Y44.281 Z0.109 I-0.431 J0.567
X6. Y44.417 Z0.07 I-0.567 J-0.431
X5.863 Y43.419 Z0.031 I0.431 J-0.567
X6.861 Y43.283 Z-0.008 I0.567 J0.431
X6.998 Y44.281 Z-0.047 I-0.431 J0.567
X6. Y44.417 Z-0.086 I-0.567 J-0.431
X5.863 Y43.419 Z-0.125 I0.431 J-0.567
X6.861 Y43.283 Z-0.164 I0.567 J0.431
X6.998 Y44.281 Z-0.203 I-0.431 J0.567
X6. Y44.417 Z-0.243 I-0.567 J-0.431
X5.863 Y43.419 Z-0.282 I0.431 J-0.567
X6.861 Y43.283 Z-0.321 I0.567 J0.431
X6.998 Y44.281 Z-0.36 I-0.431 J0.567
X6. Y44.417 Z-0.399 I-0.567 J-0.431
X5.863 Y43.419 Z-0.438 I0.431 J-0.567
X6.861 Y43.283 Z-0.477 I0.567 J0.431
X7.143 Y43.85 Z-0.5 I-0.431 J0.567
X7.034 Y43.959 I-0.109 J0.
X6.925 Y43.85 I0. J-0.109
X7.063 Y43.712 I0.137 J0. F240
X7.2 Y43.85 I0. J0.137
X6.35 Y44.7 I-0.85 J0.
X5.5 Y43.85 I0. J-0.85
X6.35 Y43. I0.85 J0.
X7.2 Y43.85 I0. J0.85
X7. Y44.05 I-0.2 J0.
X6.847 Y43.978 I0. J-0.2
G1 X6.441 Y43.493
G3 X6.466 Y43.211 I0.153 J-0.128
X6.658 Y43.175 I0.128 J0.153
X7.106 Y44.077 Z-0.539 I-0.227 J0.675 F60
X6.203 Y44.525 Z-0.578 I-0.675 J-0.227
X5.755 Y43.623 Z-0.617 I0.227 J-0.675
X6.658 Y43.175 Z-0.656 I0.675 J0.227
X7.106 Y44.077 Z-0.695 I-0.227 J0.675
X6.203 Y44.525 Z-0.734 I-0.675 J-0.227
X5.755 Y43.623 Z-0.774 I0.227 J-0.675
X6.658 Y43.175 Z-0.813 I0.675 J0.227
X7.106 Y44.077 Z-0.852 I-0.227 J0.675
X6.203 Y44.525 Z-0.891 I-0.675 J-0.227
X5.755 Y43.623 Z-0.93 I0.227 J-0.675
X6.658 Y43.175 Z-0.969 I0.675 J0.227
X7.143 Y43.85 Z-1. I-0.227 J0.675
X7.034 Y43.959 I-0.109 J0.
X6.925 Y43.85 I0. J-0.109
X7.063 Y43.712 I0.137 J0. F240
X7.2 Y43.85 I0. J0.137
X6.35 Y44.7 I-0.85 J0.
X5.5 Y43.85 I0. J-0.85
X6.35 Y43. I0.85 J0.
X7.2 Y43.85 I0. J0.85
X7. Y44.05 I-0.2 J0.
X6.847 Y43.978 I0. J-0.2
G1 X6.441 Y43.493
G3 X6.466 Y43.211 I0.153 J-0.128
X6.658 Y43.175 I0.128 J0.153
X7.106 Y44.077 Z-1.039 I-0.227 J0.675 F60
X6.203 Y44.525 Z-1.078 I-0.675 J-0.227
X5.755 Y43.623 Z-1.117 I0.227 J-0.675
X6.658 Y43.175 Z-1.156 I0.675 J0.227
X7.106 Y44.077 Z-1.195 I-0.227 J0.675
X6.203 Y44.525 Z-1.234 I-0.675 J-0.227
X5.755 Y43.623 Z-1.274 I0.227 J-0.675
X6.658 Y43.175 Z-1.313 I0.675 J0.227
X7.106 Y44.077 Z-1.352 I-0.227 J0.675
X6.203 Y44.525 Z-1.391 I-0.675 J-0.227
X5.755 Y43.623 Z-1.43 I0.227 J-0.675
X6.658 Y43.175 Z-1.469 I0.675 J0.227
X7.143 Y43.85 Z-1.5 I-0.227 J0.675
X7.034 Y43.959 I-0.109 J0.
X6.925 Y43.85 I0. J-0.109
X7.063 Y43.712 I0.137 J0. F240
X7.2 Y43.85 I0. J0.137
X6.35 Y44.7 I-0.85 J0.
X5.5 Y43.85 I0. J-0.85
X6.35 Y43. I0.85 J0.
X7.2 Y43.85 I0. J0.85
X7.167 Y43.883 I-0.033 J0.
X7.141 Y43.87 I0. J-0.033
G1 X7.06 Y43.761
X7.048 Y43.656
G3 X7.078 Y43.62 I0.033 J-0.003
X7.112 Y43.643 I0.003 J0.033
X6.637 Y44.532 Z-1.539 I-0.682 J0.207 F60
X5.749 Y44.057 Z-1.578 I-0.207 J-0.682
X6.223 Y43.168 Z-1.617 I0.682 J-0.207
X7.112 Y43.643 Z-1.656 I0.207 J0.682
X6.637 Y44.532 Z-1.695 I-0.682 J0.207
X5.749 Y44.057 Z-1.734 I-0.207 J-0.682
X6.223 Y43.168 Z-1.774 I0.682 J-0.207
X7.112 Y43.643 Z-1.813 I0.207 J0.682
X7.143 Y43.85 Z-1.82 I-0.682 J0.207
X7.034 Y43.959 I-0.109 J0.
X6.925 Y43.85 I0. J-0.109
X7.063 Y43.712 I0.137 J0. F240
X7.2 Y43.85 I0. J0.137
X6.35 Y44.7 I-0.85 J0.
X5.5 Y43.85 I0. J-0.85
X6.35 Y43. I0.85 J0.
X7.2 Y43.85 I0. J0.85
X7.182 Y43.922 Z-1.8 I-0.15 J0. F480
X7.147 Y43.964 Z-1.745 I-0.132 J-0.072
X7.131 Y43.976 Z-1.67 I-0.097 J-0.114
G0 Z2.
X5.188 Y63.142
G1 Z0.65 F120
G3 X5.196 Y63.125 Z0.576 I0.643 J0.308 F60
X5.222 Y63.079 Z0.522 I0.634 J0.325
X5.263 Y63.019 Z0.5 I0.608 J0.371
X6.261 Y62.883 Z0.461 I0.567 J0.431
X6.398 Y63.881 Z0.422 I-0.431 J0.567
X5.4 Y64.017 Z0.383 I-0.567 J-0.431
X5.263 Y63.019 Z0.344 I0.431 J-0.567
X6.261 Y62.883 Z0.305 I0.567 J0.431
X6.398 Y63.881 Z0.266 I-0.431 J0.567
X5.4 Y64.017 Z0.226 I-0.567 J-0.431
X5.263 Y63.019 Z0.187 I0.431 J-0.567
X6.261 Y62.883 Z0.148 I0.567 J0.431
X6.398 Y63.881 Z0.109 I-0.431 J0.567
X5.4 Y64.017 Z0.07 I-0.567 J-0.431
X5.263 Y63.019 Z0.031 I0.431 J-0.567
X6.261 Y62.883 Z-0.008 I0.567 J0.431
X6.398 Y63.881 Z-0.047 I-0.431 J0.567
X5.4 Y64.017 Z-0.086 I-0.567 J-0.431
X5.263 Y63.019 Z-0.125 I0.431 J-0.567
X6.261 Y62.883 Z-0.164 I0.567 J0.431
X6.398 Y63.881 Z-0.203 I-0.431 J0.567
X5.4 Y64.017 Z-0.243 I-0.567 J-0.431
X5.263 Y63.019 Z-0.282 I0.431 J-0.567
X6.261 Y62.883 Z-0.321 I0.567 J0.431
X6.398 Y63.881 Z-0.36 I-0.431 J0.567
X5.4 Y64.017 Z-0.399 I-0.567 J-0.431
X5.263 Y63.019 Z-0.438 I0.431 J-0.567
X6.261 Y62.883 Z-0.477 I0.567 J0.431
X6.543 Y63.45 Z-0.5 I-0.431 J0.567
X6.434 Y63.559 I-0.109 J0.
X6.325 Y63.45 I0. J-0.109
X6.463 Y63.313 I0.138 J0. F240
X6.6 Y63.45 I0. J0.138
X5.75 Y64.3 I-0.85 J0.
X4.9 Y63.45 I0. J-0.85
X5.75 Y62.6 I0.85 J0.
X6.6 Y63.45 I0. J0.85
X6.4 Y63.65 I-0.2 J0.
X6.247 Y63.578 I0. J-0.2
G1 X5.841 Y63.093
G3 X5.866 Y62.811 I0.153 J-0.128
X6.058 Y62.775 I0.128 J0.153
X6.506 Y63.677 Z-0.539 I-0.227 J0.675 F60
X5.603 Y64.125 Z-0.578 I-0.675 J-0.227
X5.155 Y63.223 Z-0.617 I0.227 J-0.675
X6.058 Y62.775 Z-0.656 I0.675 J0.227
X6.506 Y63.677 Z-0.695 I-0.227 J0.675
X5.603 Y64.125 Z-0.734 I-0.675 J-0.227
X5.155 Y63.223 Z-0.774 I0.227 J-0.675
X6.058 Y62.775 Z-0.813 I0.675 J0.227
X6.506 Y63.677 Z-0.852 I-0.227 J0.675
X5.603 Y64.125 Z-0.891 I-0.675 J-0.227
X5.155 Y63.223 Z-0.93 I0.227 J-0.675
X6.058 Y62.775 Z-0.969 I0.675 J0.227
X6.543 Y63.45 Z-1. I-0.227 J0.675
X6.434 Y63.559 I-0.109 J0.
X6.325 Y63.45 I0. J-0.109
X6.463 Y63.313 I0.138 J0. F240
X6.6 Y63.45 I0. J0.138
X5.75 Y64.3 I-0.85 J0.
X4.9 Y63.45 I0. J-0.85
X5.75 Y62.6 I0.85 J0.
X6.6 Y63.45 I0. J0.85
X6.4 Y63.65 I-0.2 J0.
X6.247 Y63.578 I0. J-0.2
G1 X5.841 Y63.093
G3 X5.866 Y62.811 I0.153 J-0.128
X6.058 Y62.775 I0.128 J0.153
X6.506 Y63.677 Z-1.039 I-0.227 J0.675 F60
X5.603 Y64.125 Z-1.078 I-0.675 J-0.227
X5.155 Y63.223 Z-1.117 I0.227 J-0.675
X6.058 Y62.775 Z-1.156 I0.675 J0.227
X6.506 Y63.677 Z-1.195 I-0.227 J0.675
X5.603 Y64.125 Z-1.234 I-0.675 J-0.227
X5.155 Y63.223 Z-1.274 I0.227 J-0.675
X6.058 Y62.775 Z-1.313 I0.675 J0.227
X6.506 Y63.677 Z-1.352 I-0.227 J0.675
X5.603 Y64.125 Z-1.391 I-0.675 J-0.227
X5.155 Y63.223 Z-1.43 I0.227 J-0.675
X6.058 Y62.775 Z-1.469 I0.675 J0.227
X6.543 Y63.45 Z-1.5 I-0.227 J0.675
X6.434 Y63.559 I-0.109 J0.
X6.325 Y63.45 I0. J-0.109
X6.463 Y63.313 I0.138 J0. F240
X6.6 Y63.45 I0. J0.138
X5.75 Y64.3 I-0.85 J0.
X4.9 Y63.45 I0. J-0.85
X5.75 Y62.6 I0.85 J0.
X6.6 Y63.45 I0. J0.85
X6.567 Y63.483 I-0.033 J0.
X6.541 Y63.47 I0. J-0.033
G1 X6.46 Y63.361
X6.448 Y63.256
G3 X6.478 Y63.22 I0.033 J-0.003
X6.512 Y63.243 I0.003 J0.033
X6.037 Y64.132 Z-1.539 I-0.682 J0.207 F60
X5.149 Y63.657 Z-1.578 I-0.207 J-0.682
X5.623 Y62.768 Z-1.617 I0.682 J-0.207
X6.512 Y63.243 Z-1.656 I0.207 J0.682
X6.037 Y64.132 Z-1.695 I-0.682 J0.207
X5.149 Y63.657 Z-1.734 I-0.207 J-0.682
X5.623 Y62.768 Z-1.774 I0.682 J-0.207
X6.512 Y63.243 Z-1.813 I0.207 J0.682
X6.543 Y63.45 Z-1.82 I-0.682 J0.207
X6.434 Y63.559 I-0.109 J0.
X6.325 Y63.45 I0. J-0.109
X6.463 Y63.313 I0.138 J0. F240
X6.6 Y63.45 I0. J0.138
X5.75 Y64.3 I-0.85 J0.
X4.9 Y63.45 I0. J-0.85
X5.75 Y62.6 I0.85 J0.
X6.6 Y63.45 I0. J0.85
X6.582 Y63.522 Z-1.8 I-0.15 J0. F480
X6.547 Y63.564 Z-1.745 I-0.132 J-0.072
X6.531 Y63.576 Z-1.67 I-0.097 J-0.114
G0 Z5.

(Outside contours)
G64
X90.7 Y36.996
Z4.
Z1.5
G1 Z-0.35 F60
X90.707 Z-0.396
X90.729 Z-0.438
X90.762 Z-0.471
X90.804 Z-0.493
X90.85 Z-0.5
X91. F120
G2 X91.15 Y36.847 I0. J-0.15
G3 X91.37 Y36.316 I0.75 J0. F240
X90.839 Y36.536 I-0.53 J-0.53
G1 X90.4
G3 X89.65 Y35.786 I0. J-0.75
G1 Y29.786
G3 X90.4 Y29.036 I0.75 J0.
G1 X90.839
G3 X91.367 Y29.253 I0. J0.75
X91.15 Y28.725 I0.533 J-0.528
G1 Y24.847
G3 X91.37 Y24.316 I0.75 J0.
X90.839 Y24.536 I-0.53 J-0.53
G1 X90.4
G3 X89.65 Y23.786 I0. J-0.75
G1 Y14.576
G3 Y14.561 I0.75 J0.
G1 X89.661 Y14.043
G3 X89.662 Y14.013 I0.75 J0.015
G1 X89.693 Y13.512
G3 X89.695 Y13.478 I0.749 J0.046
G1 X89.747 Y12.992
G3 X89.752 Y12.956 I0.746 J0.08
G1 X89.826 Y12.486
G3 X89.833 Y12.446 I0.741 J0.116
G1 X89.93 Y11.991
G3 X89.941 Y11.948 I0.734 J0.156
G1 X90.062 Y11.508
G3 X90.075 Y11.463 I0.723 J0.199
G1 X90.222 Y11.037
G3 X90.238 Y10.993 I0.709 J0.243
G1 X90.395 Y10.615
G3 X90.414 Y10.573 I0.693 J0.287
G1 X90.594 Y10.205
G3 X90.616 Y10.163 I0.674 J0.33
G1 X90.819 Y9.807
G3 X90.844 Y9.766 I0.652 J0.371
G1 X91.072 Y9.42
G3 X91.099 Y9.382 I0.627 J0.412
G1 X91.352 Y9.046
G3 X91.381 Y9.009 I0.599 J0.451
G1 X91.659 Y8.684
G3 X91.691 Y8.648 I0.57 J0.487
G1 X92.028 Y8.301
G3 X92.062 Y8.268 I0.538 J0.522
G1 X92.432 Y7.932
G3 X92.466 Y7.903 I0.504 J0.555
G1 X92.87 Y7.577
G3 X92.903 Y7.552 I0.47 J0.584
G1 X93.342 Y7.237
G3 X93.374 Y7.215 I0.437 J0.609
G1 X93.849 Y6.91
G3 X93.879 Y6.891 I0.406 J0.631
G1 X94.388 Y6.597
G3 X94.416 Y6.581 I0.376 J0.649
G1 X94.955 Y6.299
G3 X94.982 Y6.285 I0.348 J0.664
G1 X95.606 Y5.99
G3 X95.634 Y5.977 I0.321 J0.678
G1 X96.286 Y5.7
G3 X96.312 Y5.69 I0.293 J0.69
G1 X96.989 Y5.431
G3 X97.012 Y5.423 I0.268 J0.701
G1 X97.712 Y5.182
G3 X97.733 Y5.175 I0.244 J0.709
G1 X98.453 Y4.951
G3 X98.474 Y4.944 I0.223 J0.716
G1 X99.351 Y4.7
G3 X99.371 Y4.694 I0.202 J0.722
G1 X100.267 Y4.471
G3 X100.286 Y4.467 I0.181 J0.728
G1 X101.198 Y4.265
G3 X101.215 Y4.262 I0.162 J0.732
G1 X102.137 Y4.08
G3 X102.152 Y4.077 I0.145 J0.736
G1 X103.08 Y3.914
G3 X103.094 Y3.912 I0.13 J0.739
G1 X104.024 Y3.767
G3 X104.038 Y3.765 I0.116 J0.741
G1 X105.131 Y3.615
G3 X105.145 Y3.614 I0.102 J0.743
G1 X106.227 Y3.485
G3 X106.239 Y3.484 I0.088 J0.745
G1 X107.303 Y3.375
G3 X107.313 Y3.374 I0.076 J0.746
G1 X108.352 Y3.283
X108.361 Y3.282
X109.168 Y3.221
X109.175 Y3.22
X109.959 Y3.168
X109.966
X110.722 Y3.124
X110.729
X111.461 Y3.089
X111.469 Y3.088
X112.183 Y3.062
X112.193 Y3.061
X113.108 Y3.039
G3 X113.12 I0.018 J0.75
G1 X114.022 Y3.031
G3 X114.034 I0.006 J0.75
G1 X114.934 Y3.038
G3 X114.948 I-0.006 J0.75
G1 X116.068 Y3.068
G3 X116.084 I-0.02 J0.75
G1 X117.206 Y3.122
G3 X117.222 Y3.123 I-0.036 J0.749
G1 X118.343 Y3.2
G3 X118.36 Y3.202 I-0.052 J0.748
G1 X119.475 Y3.305
G3 X119.493 Y3.307 I-0.069 J0.747
G1 X120.6 Y3.437
G3 X120.619 Y3.439 I-0.087 J0.745
G1 X121.715 Y3.596
G3 X121.736 Y3.599 I-0.106 J0.742
G1 X122.815 Y3.784
G3 X122.835 Y3.787 I-0.126 J0.739
G1 X123.671 Y3.953
G3 X123.688 Y3.957 I-0.146 J0.736
G1 X124.511 Y4.14
G3 X124.53 Y4.145 I-0.163 J0.732
G1 X125.338 Y4.347
G3 X125.358 Y4.352 I-0.182 J0.728
G1 X126.149 Y4.573
G3 X126.17 Y4.579 I-0.202 J0.722
G1 X126.944 Y4.82
G3 X126.966 Y4.827 I-0.223 J0.716
G1 X127.72 Y5.088
G3 X127.743 Y5.097 I-0.245 J0.709
G1 X128.476 Y5.377
G3 X128.501 Y5.387 I-0.268 J0.7
G1 X129.209 Y5.688
G3 X129.235 Y5.7 I-0.293 J0.69
G1 X129.919 Y6.021
G3 X129.947 Y6.035 I-0.319 J0.679
G1 X130.604 Y6.378
G3 X130.633 Y6.394 I-0.347 J0.665
G1 X131.263 Y6.759
G3 X131.293 Y6.778 I-0.376 J0.649
G1 X131.894 Y7.165
G3 X131.923 Y7.184 I-0.406 J0.631
G1 X132.373 Y7.504
G3 X132.398 Y7.523 I-0.435 J0.611
G1 X132.828 Y7.857
G3 X132.854 Y7.878 I-0.46 J0.592
G1 X133.264 Y8.226
G3 X133.291 Y8.251 I-0.486 J0.571
G1 X133.678 Y8.614
G3 X133.704 Y8.639 I-0.513 J0.547
G1 X134.07 Y9.017
G3 X134.096 Y9.045 I-0.539 J0.522
G1 X134.439 Y9.438
G3 X134.465 Y9.47 I-0.565 J0.493
G1 X134.783 Y9.877
G3 X134.805 Y9.906 I-0.591 J0.462
G1 X135.101 Y10.325
G3 X135.121 Y10.355 I-0.613 J0.433
G1 X135.393 Y10.782
G3 X135.409 Y10.809 I-0.633 J0.403
G1 X135.659 Y11.24
G3 X135.676 Y11.271 I-0.649 J0.376
G1 X135.97 Y11.837
G3 X135.985 Y11.869 I-0.666 J0.346
G1 X136.243 Y12.428
G3 X136.256 Y12.458 I-0.681 J0.314
G1 X136.479 Y13.004
G3 X136.491 Y13.034 I-0.694 J0.284
G1 X136.663 Y13.513
G3 X136.673 Y13.543 I-0.706 J0.254
G1 X136.818 Y14.007
G3 X136.827 Y14.038 I-0.716 J0.223
G1 X136.947 Y14.489
G3 X136.955 Y14.524 I-0.725 J0.193
G1 X137.049 Y14.962
G3 X137.056 Y14.996 I-0.733 J0.157
G1 X137.127 Y15.422
G3 X137.132 Y15.459 I-0.74 J0.123
G1 X137.18 Y15.873
G3 X137.184 Y15.913 I-0.745 J0.086
G1 X137.213 Y16.387
G3 X137.214 Y16.433 I-0.749 J0.046
G1 Y16.893
G3 X137.213 Y16.937 I-0.75 J0.
G1 X137.187 Y17.384
G3 X137.183 Y17.429 I-0.749 J-0.044
G1 X137.131 Y17.864
G3 X137.124 Y17.909 I-0.745 J-0.089
G1 X137.033 Y18.413
G3 X137.023 Y18.46 I-0.738 J-0.133
G1 X136.901 Y18.951
G3 X136.889 Y18.993 I-0.728 J-0.181
G1 X136.74 Y19.472
G3 X136.727 Y19.51 I-0.716 J-0.223
G1 X136.553 Y19.979
G3 X136.541 Y20.011 I-0.703 J-0.261
G1 X136.346 Y20.472
G3 X136.334 Y20.499 I-0.691 J-0.292
G1 X136.12 Y20.955
G3 X136.103 Y20.989 I-0.679 J-0.319
G1 X132.241 Y28.253
G3 X131.798 Y28.618 I-0.662 J-0.352
X132.37 Y28.673 I0.22 J0.717
G1 X132.758 Y28.879
G3 X133.123 Y29.322 I-0.352 J0.662
X133.068 Y29.893 I-0.717 J0.219
G1 X131.19 Y33.425
G3 X130.176 Y33.735 I-0.662 J-0.352
G1 X117.814 Y27.163
G3 X117.091 Y24.796 I0.822 J-1.545
G1 X117.47 Y24.084
G2 X117.366 Y23.746 I-0.221 J-0.117
G1 X116.969 Y23.534
G3 X116.659 Y22.52 I0.352 J-0.662
G1 X117.593 Y20.763
G3 X118.035 Y20.398 I0.662 J0.352
X117.559 Y20.145 I0.091 J-0.745
X117.504 Y20.717 I-0.717 J0.219
G1 X116.57 Y22.473
G3 X116.127 Y22.838 I-0.662 J-0.352
X115.556 Y22.783 I-0.219 J-0.717
G1 X114.539 Y22.242
G2 X114.383 Y22.216 I-0.117 J0.221
X106.31 Y25.073 I3.588 J22.972
X106.187 Y25.32 I0.125 J0.216
G1 X108.75 Y46.197
G3 X108.56 Y47.231 I-1.737 J0.215
G1 X103.217 Y57.278
G3 X102.203 Y57.588 I-0.662 J-0.352
G1 X99.598 Y56.203
G3 X99.288 Y55.189 I0.352 J-0.662
G1 X101.161 Y51.667
G3 X101.604 Y51.301 I0.662 J0.352
X101.129 Y51.05 I0.09 J-0.745
X101.073 Y51.62 I-0.718 J0.218
G1 X99.2 Y55.142
G3 X98.186 Y55.452 I-0.662 J-0.352
G1 X90.578 Y51.407
G3 X89.65 Y49.862 I0.822 J-1.545
G1 Y41.786
G3 X90.4 Y41.036 I0.75 J0.
G1 X90.839
G3 X91.367 Y41.253 I0. J0.75
X91.15 Y40.725 I0.533 J-0.528
G1 Y36.847
G2 X91. Y36.696 I-0.15 J0. F480
G1 X90.85
X90.804 Z-0.493
X90.762 Z-0.471
X90.729 Z-0.438
X90.707 Z-0.396
X90.7 Z-0.35
G0 Z1.
Y36.996
G1 Z-0.85 F60
X90.707 Z-0.896
X90.729 Z-0.938
X90.762 Z-0.971
X90.804 Z-0.993
X90.85 Z-1.
X91. F120
G2 X91.15 Y36.847 I0. J-0.15
G3 X91.37 Y36.316 I0.75 J0. F240
X90.839 Y36.536 I-0.53 J-0.53
G1 X90.4
G3 X89.65 Y35.786 I0. J-0.75
G1 Y29.786
G3 X90.4 Y29.036 I0.75 J0.
G1 X90.839
G3 X91.367 Y29.253 I0. J0.75
X91.15 Y28.725 I0.533 J-0.528
G1 Y24.847
G3 X91.37 Y24.316 I0.75 J0.
X90.839 Y24.536 I-0.53 J-0.53
G1 X90.4
G3 X89.65 Y23.786 I0. J-0.75
G1 Y14.576
G3 Y14.561 I0.75 J0.
G1 X89.661 Y14.043
G3 X89.662 Y14.013 I0.75 J0.015
G1 X89.693 Y13.512
G3 X89.695 Y13.478 I0.749 J0.046
G1 X89.747 Y12.992
G3 X89.752 Y12.956 I0.746 J0.08
G1 X89.826 Y12.486
G3 X89.833 Y12.446 I0.741 J0.116
G1 X89.93 Y11.991
G3 X89.941 Y11.948 I0.734 J0.156
G1 X90.062 Y11.508
G3 X90.075 Y11.463 I0.723 J0.199
G1 X90.222 Y11.037
G3 X90.238 Y10.993 I0.709 J0.243
G1 X90.395 Y10.615
G3 X90.414 Y10.573 I0.693 J0.287
G1 X90.594 Y10.205
G3 X90.616 Y10.163 I0.674 J0.33
G1 X90.819 Y9.807
G3 X90.844 Y9.766 I0.652 J0.371
G1 X91.072 Y9.42
G3 X91.099 Y9.382 I0.627 J0.412
G1 X91.352 Y9.046
G3 X91.381 Y9.009 I0.599 J0.451
G1 X91.659 Y8.684
G3 X91.691 Y8.648 I0.57 J0.487
G1 X92.028 Y8.301
G3 X92.062 Y8.268 I0.538 J0.522
G1 X92.432 Y7.932
G3 X92.466 Y7.903 I0.504 J0.555
G1 X92.87 Y7.577
G3 X92.903 Y7.552 I0.47 J0.584
G1 X93.342 Y7.237
G3 X93.374 Y7.215 I0.437 J0.609
G1 X93.849 Y6.91
G3 X93.879 Y6.891 I0.406 J0.631
G1 X94.388 Y6.597
G3 X94.416 Y6.581 I0.376 J0.649
G1 X94.955 Y6.299
G3 X94.982 Y6.285 I0.348 J0.664
G1 X95.606 Y5.99
G3 X95.634 Y5.977 I0.321 J0.678
G1 X96.286 Y5.7
G3 X96.312 Y5.69 I0.293 J0.69
G1 X96.989 Y5.431
G3 X97.012 Y5.423 I0.268 J0.701
G1 X97.712 Y5.182
G3 X97.733 Y5.175 I0.244 J0.709
G1 X98.453 Y4.951
G3 X98.474 Y4.944 I0.223 J0.716
G1 X99.351 Y4.7
G3 X99.371 Y4.694 I0.202 J0.722
G1 X100.267 Y4.471
G3 X100.286 Y4.467 I0.181 J0.728
G1 X101.198 Y4.265
G3 X101.215 Y4.262 I0.162 J0.732
G1 X102.137 Y4.08
G3 X102.152 Y4.077 I0.145 J0.736
G1 X103.08 Y3.914
G3 X103.094 Y3.912 I0.13 J0.739
G1 X104.024 Y3.767
G3 X104.038 Y3.765 I0.116 J0.741
G1 X105.131 Y3.615
G3 X105.145 Y3.614 I0.102 J0.743
G1 X106.227 Y3.485
G3 X106.239 Y3.484 I0.088 J0.745
G1 X107.303 Y3.375
G3 X107.313 Y3.374 I0.076 J0.746
G1 X108.352 Y3.283
X108.361 Y3.282
X109.168 Y3.221
X109.175 Y3.22
X109.959 Y3.168
X109.966
X110.722 Y3.124
X110.729
X111.461 Y3.089
X111.469 Y3.088
X112.183 Y3.062
X112.193 Y3.061
X113.108 Y3.039
G3 X113.12 I0.018 J0.75
G1 X114.022 Y3.031
G3 X114.034 I0.006 J0.75
G1 X114.934 Y3.038
G3 X114.948 I-0.006 J0.75
G1 X116.068 Y3.068
G3 X116.084 I-0.02 J0.75
G1 X117.206 Y3.122
G3 X117.222 Y3.123 I-0.036 J0.749
G1 X118.343 Y3.2
G3 X118.36 Y3.202 I-0.052 J0.748
G1 X119.475 Y3.305
G3 X119.493 Y3.307 I-0.069 J0.747
G1 X120.6 Y3.437
G3 X120.619 Y3.439 I-0.087 J0.745
G1 X121.715 Y3.596
G3 X121.736 Y3.599 I-0.106 J0.742
G1 X122.815 Y3.784
G3 X122.835 Y3.787 I-0.126 J0.739
G1 X123.671 Y3.953
G3 X123.688 Y3.957 I-0.146 J0.736
G1 X124.511 Y4.14
G3 X124.53 Y4.145 I-0.163 J0.732
G1 X125.338 Y4.347
G3 X125.358 Y4.352 I-0.182 J0.728
G1 X126.149 Y4.573
G3 X126.17 Y4.579 I-0.202 J0.722
G1 X126.944 Y4.82
G3 X126.966 Y4.827 I-0.223 J0.716
G1 X127.72 Y5.088
G3 X127.743 Y5.097 I-0.245 J0.709
G1 X128.476 Y5.377
G3 X128.501 Y5.387 I-0.268 J0.7
G1 X129.209 Y5.688
G3 X129.235 Y5.7 I-0.293 J0.69
G1 X129.919 Y6.021
G3 X129.947 Y6.035 I-0.319 J0.679
G1 X130.604 Y6.378
G3 X130.633 Y6.394 I-0.347 J0.665
G1 X131.263 Y6.759
G3 X131.293 Y6.778 I-0.376 J0.649
G1 X131.894 Y7.165
G3 X131.923 Y7.184 I-0.406 J0.631
G1 X132.373 Y7.504
G3 X132.398 Y7.523 I-0.435 J0.611
G1 X132.828 Y7.857
G3 X132.854 Y7.878 I-0.46 J0.592
G1 X133.264 Y8.226
G3 X133.291 Y8.251 I-0.486 J0.571
G1 X133.678 Y8.614
G3 X133.704 Y8.639 I-0.513 J0.547
G1 X134.07 Y9.017
G3 X134.096 Y9.045 I-0.539 J0.522
G1 X134.439 Y9.438
G3 X134.465 Y9.47 I-0.565 J0.493
G1 X134.783 Y9.877
G3 X134.805 Y9.906 I-0.591 J0.462
G1 X135.101 Y10.325
G3 X135.121 Y10.355 I-0.613 J0.433
G1 X135.393 Y10.782
G3 X135.409 Y10.809 I-0.633 J0.403
G1 X135.659 Y11.24
G3 X135.676 Y11.271 I-0.649 J0.376
G1 X135.97 Y11.837
G3 X135.985 Y11.869 I-0.666 J0.346
G1 X136.243 Y12.428
G3 X136.256 Y12.458 I-0.681 J0.314
G1 X136.479 Y13.004
G3 X136.491 Y13.034 I-0.694 J0.284
G1 X136.663 Y13.513
G3 X136.673 Y13.543 I-0.706 J0.254
G1 X136.818 Y14.007
G3 X136.827 Y14.038 I-0.716 J0.223
G1 X136.947 Y14.489
G3 X136.955 Y14.524 I-0.725 J0.193
G1 X137.049 Y14.962
G3 X137.056 Y14.996 I-0.733 J0.157
G1 X137.127 Y15.422
G3 X137.132 Y15.459 I-0.74 J0.123
G1 X137.18 Y15.873
G3 X137.184 Y15.913 I-0.745 J0.086
G1 X137.213 Y16.387
G3 X137.214 Y16.433 I-0.749 J0.046
G1 Y16.893
G3 X137.213 Y16.937 I-0.75 J0.
G1 X137.187 Y17.384
G3 X137.183 Y17.429 I-0.749 J-0.044
G1 X137.131 Y17.864
G3 X137.124 Y17.909 I-0.745 J-0.089
G1 X137.033 Y18.413
G3 X137.023 Y18.46 I-0.738 J-0.133
G1 X136.901 Y18.951
G3 X136.889 Y18.993 I-0.728 J-0.181
G1 X136.74 Y19.472
G3 X136.727 Y19.51 I-0.716 J-0.223
G1 X136.553 Y19.979
G3 X136.541 Y20.011 I-0.703 J-0.261
G1 X136.346 Y20.472
G3 X136.334 Y20.499 I-0.691 J-0.292
G1 X136.12 Y20.955
G3 X136.103 Y20.989 I-0.679 J-0.319
G1 X132.241 Y28.253
G3 X131.798 Y28.618 I-0.662 J-0.352
X132.37 Y28.673 I0.22 J0.717
G1 X132.758 Y28.879
G3 X133.123 Y29.322 I-0.352 J0.662
X133.068 Y29.893 I-0.717 J0.219
G1 X131.19 Y33.425
G3 X130.176 Y33.735 I-0.662 J-0.352
G1 X117.814 Y27.163
G3 X117.091 Y24.796 I0.822 J-1.545
G1 X117.47 Y24.084
G2 X117.366 Y23.746 I-0.221 J-0.117
G1 X116.969 Y23.534
G3 X116.659 Y22.52 I0.352 J-0.662
G1 X117.593 Y20.763
G3 X118.035 Y20.398 I0.662 J0.352
X117.559 Y20.145 I0.091 J-0.745
X117.504 Y20.717 I-0.717 J0.219
G1 X116.57 Y22.473
G3 X116.127 Y22.838 I-0.662 J-0.352
X115.556 Y22.783 I-0.219 J-0.717
G1 X114.539 Y22.242
G2 X114.383 Y22.216 I-0.117 J0.221
X106.31 Y25.073 I3.588 J22.972
X106.187 Y25.32 I0.125 J0.216
G1 X108.75 Y46.197
G3 X108.56 Y47.231 I-1.737 J0.215
G1 X103.217 Y57.278
G3 X102.203 Y57.588 I-0.662 J-0.352
G1 X99.598 Y56.203
G3 X99.288 Y55.189 I0.352 J-0.662
G1 X101.161 Y51.667
G3 X101.604 Y51.301 I0.662 J0.352
X101.129 Y51.05 I0.09 J-0.745
X101.073 Y51.62 I-0.718 J0.218
G1 X99.2 Y55.142
G3 X98.186 Y55.452 I-0.662 J-0.352
G1 X90.578 Y51.407
G3 X89.65 Y49.862 I0.822 J-1.545
G1 Y41.786
G3 X90.4 Y41.036 I0.75 J0.
G1 X90.839
G3 X91.367 Y41.253 I0. J0.75
X91.15 Y40.725 I0.533 J-0.528
G1 Y36.847
G2 X91. Y36.696 I-0.15 J0. F480
G1 X90.85
X90.804 Z-0.993
X90.762 Z-0.971
X90.729 Z-0.938
X90.707 Z-0.896
X90.7 Z-0.85
G0 Z1.
Y36.996
G1 Z-1.35 F60
X90.707 Z-1.396
X90.729 Z-1.438
X90.762 Z-1.471
X90.804 Z-1.493
X90.85 Z-1.5
X91. F120
G2 X91.15 Y36.847 I0. J-0.15
G3 X91.37 Y36.316 I0.75 J0. F240
X90.839 Y36.536 I-0.53 J-0.53
G1 X90.4
G3 X89.65 Y35.786 I0. J-0.75
G1 Y29.786
G3 X90.4 Y29.036 I0.75 J0.
G1 X90.839
G3 X91.367 Y29.253 I0. J0.75
X91.15 Y28.725 I0.533 J-0.528
G1 Y24.847
G3 X91.37 Y24.316 I0.75 J0.
X90.839 Y24.536 I-0.53 J-0.53
G1 X90.4
G3 X89.65 Y23.786 I0. J-0.75
G1 Y14.576
G3 Y14.561 I0.75 J0.
G1 X89.661 Y14.043
G3 X89.662 Y14.013 I0.75 J0.015
G1 X89.693 Y13.512
G3 X89.695 Y13.478 I0.749 J0.046
G1 X89.747 Y12.992
G3 X89.752 Y12.956 I0.746 J0.08
G1 X89.826 Y12.486
G3 X89.833 Y12.446 I0.741 J0.116
G1 X89.93 Y11.991
G3 X89.941 Y11.948 I0.734 J0.156
G1 X90.062 Y11.508
G3 X90.075 Y11.463 I0.723 J0.199
G1 X90.222 Y11.037
G3 X90.238 Y10.993 I0.709 J0.243
G1 X90.395 Y10.615
G3 X90.414 Y10.573 I0.693 J0.287
G1 X90.594 Y10.205
G3 X90.616 Y10.163 I0.674 J0.33
G1 X90.819 Y9.807
G3 X90.844 Y9.766 I0.652 J0.371
G1 X91.072 Y9.42
G3 X91.099 Y9.382 I0.627 J0.412
G1 X91.352 Y9.046
G3 X91.381 Y9.009 I0.599 J0.451
G1 X91.659 Y8.684
G3 X91.691 Y8.648 I0.57 J0.487
G1 X92.028 Y8.301
G3 X92.062 Y8.268 I0.538 J0.522
G1 X92.432 Y7.932
G3 X92.466 Y7.903 I0.504 J0.555
G1 X92.87 Y7.577
G3 X92.903 Y7.552 I0.47 J0.584
G1 X93.342 Y7.237
G3 X93.374 Y7.215 I0.437 J0.609
G1 X93.849 Y6.91
G3 X93.879 Y6.891 I0.406 J0.631
G1 X94.388 Y6.597
G3 X94.416 Y6.581 I0.376 J0.649
G1 X94.955 Y6.299
G3 X94.982 Y6.285 I0.348 J0.664
G1 X95.606 Y5.99
G3 X95.634 Y5.977 I0.321 J0.678
G1 X96.286 Y5.7
G3 X96.312 Y5.69 I0.293 J0.69
G1 X96.989 Y5.431
G3 X97.012 Y5.423 I0.268 J0.701
G1 X97.712 Y5.182
G3 X97.733 Y5.175 I0.244 J0.709
G1 X98.453 Y4.951
G3 X98.474 Y4.944 I0.223 J0.716
G1 X99.351 Y4.7
G3 X99.371 Y4.694 I0.202 J0.722
G1 X100.267 Y4.471
G3 X100.286 Y4.467 I0.181 J0.728
G1 X101.198 Y4.265
G3 X101.215 Y4.262 I0.162 J0.732
G1 X102.137 Y4.08
G3 X102.152 Y4.077 I0.145 J0.736
G1 X103.08 Y3.914
G3 X103.094 Y3.912 I0.13 J0.739
G1 X104.024 Y3.767
G3 X104.038 Y3.765 I0.116 J0.741
G1 X105.131 Y3.615
G3 X105.145 Y3.614 I0.102 J0.743
G1 X106.227 Y3.485
G3 X106.239 Y3.484 I0.088 J0.745
G1 X107.303 Y3.375
G3 X107.313 Y3.374 I0.076 J0.746
G1 X108.352 Y3.283
X108.361 Y3.282
X109.168 Y3.221
X109.175 Y3.22
X109.959 Y3.168
X109.966
X110.722 Y3.124
X110.729
X111.461 Y3.089
X111.469 Y3.088
X112.183 Y3.062
X112.193 Y3.061
X113.108 Y3.039
G3 X113.12 I0.018 J0.75
G1 X114.022 Y3.031
G3 X114.034 I0.006 J0.75
G1 X114.934 Y3.038
G3 X114.948 I-0.006 J0.75
G1 X116.068 Y3.068
G3 X116.084 I-0.02 J0.75
G1 X117.206 Y3.122
G3 X117.222 Y3.123 I-0.036 J0.749
G1 X118.343 Y3.2
G3 X118.36 Y3.202 I-0.052 J0.748
G1 X119.475 Y3.305
G3 X119.493 Y3.307 I-0.069 J0.747
G1 X120.6 Y3.437
G3 X120.619 Y3.439 I-0.087 J0.745
G1 X121.715 Y3.596
G3 X121.736 Y3.599 I-0.106 J0.742
G1 X122.815 Y3.784
G3 X122.835 Y3.787 I-0.126 J0.739
G1 X123.671 Y3.953
G3 X123.688 Y3.957 I-0.146 J0.736
G1 X124.511 Y4.14
G3 X124.53 Y4.145 I-0.163 J0.732
G1 X125.338 Y4.347
G3 X125.358 Y4.352 I-0.182 J0.728
G1 X126.149 Y4.573
G3 X126.17 Y4.579 I-0.202 J0.722
G1 X126.944 Y4.82
G3 X126.966 Y4.827 I-0.223 J0.716
G1 X127.72 Y5.088
G3 X127.743 Y5.097 I-0.245 J0.709
G1 X128.476 Y5.377
G3 X128.501 Y5.387 I-0.268 J0.7
G1 X129.209 Y5.688
G3 X129.235 Y5.7 I-0.293 J0.69
G1 X129.919 Y6.021
G3 X129.947 Y6.035 I-0.319 J0.679
G1 X130.604 Y6.378
G3 X130.633 Y6.394 I-0.347 J0.665
G1 X131.263 Y6.759
G3 X131.293 Y6.778 I-0.376 J0.649
G1 X131.894 Y7.165
G3 X131.923 Y7.184 I-0.406 J0.631
G1 X132.373 Y7.504
G3 X132.398 Y7.523 I-0.435 J0.611
G1 X132.828 Y7.857
G3 X132.854 Y7.878 I-0.46 J0.592
G1 X133.264 Y8.226
G3 X133.291 Y8.251 I-0.486 J0.571
G1 X133.678 Y8.614
G3 X133.704 Y8.639 I-0.513 J0.547
G1 X134.07 Y9.017
G3 X134.096 Y9.045 I-0.539 J0.522
G1 X134.439 Y9.438
G3 X134.465 Y9.47 I-0.565 J0.493
G1 X134.783 Y9.877
G3 X134.805 Y9.906 I-0.591 J0.462
G1 X135.101 Y10.325
G3 X135.121 Y10.355 I-0.613 J0.433
G1 X135.393 Y10.782
G3 X135.409 Y10.809 I-0.633 J0.403
G1 X135.659 Y11.24
G3 X135.676 Y11.271 I-0.649 J0.376
G1 X135.97 Y11.837
G3 X135.985 Y11.869 I-0.666 J0.346
G1 X136.243 Y12.428
G3 X136.256 Y12.458 I-0.681 J0.314
G1 X136.479 Y13.004
G3 X136.491 Y13.034 I-0.694 J0.284
G1 X136.663 Y13.513
G3 X136.673 Y13.543 I-0.706 J0.254
G1 X136.818 Y14.007
G3 X136.827 Y14.038 I-0.716 J0.223
G1 X136.947 Y14.489
G3 X136.955 Y14.524 I-0.725 J0.193
G1 X137.049 Y14.962
G3 X137.056 Y14.996 I-0.733 J0.157
G1 X137.127 Y15.422
G3 X137.132 Y15.459 I-0.74 J0.123
G1 X137.18 Y15.873
G3 X137.184 Y15.913 I-0.745 J0.086
G1 X137.213 Y16.387
G3 X137.214 Y16.433 I-0.749 J0.046
G1 Y16.893
G3 X137.213 Y16.937 I-0.75 J0.
G1 X137.187 Y17.384
G3 X137.183 Y17.429 I-0.749 J-0.044
G1 X137.131 Y17.864
G3 X137.124 Y17.909 I-0.745 J-0.089
G1 X137.033 Y18.413
G3 X137.023 Y18.46 I-0.738 J-0.133
G1 X136.901 Y18.951
G3 X136.889 Y18.993 I-0.728 J-0.181
G1 X136.74 Y19.472
G3 X136.727 Y19.51 I-0.716 J-0.223
G1 X136.553 Y19.979
G3 X136.541 Y20.011 I-0.703 J-0.261
G1 X136.346 Y20.472
G3 X136.334 Y20.499 I-0.691 J-0.292
G1 X136.12 Y20.955
G3 X136.103 Y20.989 I-0.679 J-0.319
G1 X132.241 Y28.253
G3 X131.798 Y28.618 I-0.662 J-0.352
X132.37 Y28.673 I0.22 J0.717
G1 X132.758 Y28.879
G3 X133.123 Y29.322 I-0.352 J0.662
X133.068 Y29.893 I-0.717 J0.219
G1 X131.19 Y33.425
G3 X130.176 Y33.735 I-0.662 J-0.352
G1 X117.814 Y27.163
G3 X117.091 Y24.796 I0.822 J-1.545
G1 X117.47 Y24.084
G2 X117.366 Y23.746 I-0.221 J-0.117
G1 X116.969 Y23.534
G3 X116.659 Y22.52 I0.352 J-0.662
G1 X117.593 Y20.763
G3 X118.035 Y20.398 I0.662 J0.352
X117.559 Y20.145 I0.091 J-0.745
X117.504 Y20.717 I-0.717 J0.219
G1 X116.57 Y22.473
G3 X116.127 Y22.838 I-0.662 J-0.352
X115.556 Y22.783 I-0.219 J-0.717
G1 X114.539 Y22.242
G2 X114.383 Y22.216 I-0.117 J0.221
X106.31 Y25.073 I3.588 J22.972
X106.187 Y25.32 I0.125 J0.216
G1 X108.75 Y46.197
G3 X108.56 Y47.231 I-1.737 J0.215
G1 X103.217 Y57.278
G3 X102.203 Y57.588 I-0.662 J-0.352
G1 X99.598 Y56.203
G3 X99.288 Y55.189 I0.352 J-0.662
G1 X101.161 Y51.667
G3 X101.604 Y51.301 I0.662 J0.352
X101.129 Y51.05 I0.09 J-0.745
X101.073 Y51.62 I-0.718 J0.218
G1 X99.2 Y55.142
G3 X98.186 Y55.452 I-0.662 J-0.352
G1 X90.578 Y51.407
G3 X89.65 Y49.862 I0.822 J-1.545
G1 Y41.786
G3 X90.4 Y41.036 I0.75 J0.
G1 X90.839
G3 X91.367 Y41.253 I0. J0.75
X91.15 Y40.725 I0.533 J-0.528
G1 Y36.847
G2 X91. Y36.696 I-0.15 J0. F480
G1 X90.85
X90.804 Z-1.493
X90.762 Z-1.471
X90.729 Z-1.438
X90.707 Z-1.396
X90.7 Z-1.35
G0 Z1.
Y36.996
G1 Z-1.67 F60
X90.707 Z-1.716
X90.729 Z-1.758
X90.762 Z-1.791
X90.804 Z-1.813
X90.85 Z-1.82
X91. F120
G2 X91.15 Y36.847 I0. J-0.15
G3 X91.37 Y36.316 I0.75 J0. F240
X90.839 Y36.536 I-0.53 J-0.53
G1 X90.4
G3 X89.65 Y35.786 I0. J-0.75
G1 Y29.786
G3 X90.4 Y29.036 I0.75 J0.
G1 X90.839
G3 X91.367 Y29.253 I0. J0.75
X91.15 Y28.725 I0.533 J-0.528
G1 Y24.847
G3 X91.37 Y24.316 I0.75 J0.
X90.839 Y24.536 I-0.53 J-0.53
G1 X90.4
G3 X89.65 Y23.786 I0. J-0.75
G1 Y14.576
G3 Y14.561 I0.75 J0.
G1 X89.661 Y14.043
G3 X89.662 Y14.013 I0.75 J0.015
G1 X89.693 Y13.512
G3 X89.695 Y13.478 I0.749 J0.046
G1 X89.747 Y12.992
G3 X89.752 Y12.956 I0.746 J0.08
G1 X89.826 Y12.486
G3 X89.833 Y12.446 I0.741 J0.116
G1 X89.93 Y11.991
G3 X89.941 Y11.948 I0.734 J0.156
G1 X90.062 Y11.508
G3 X90.075 Y11.463 I0.723 J0.199
G1 X90.222 Y11.037
G3 X90.238 Y10.993 I0.709 J0.243
G1 X90.395 Y10.615
G3 X90.414 Y10.573 I0.693 J0.287
G1 X90.594 Y10.205
G3 X90.616 Y10.163 I0.674 J0.33
G1 X90.819 Y9.807
G3 X90.844 Y9.766 I0.652 J0.371
G1 X91.072 Y9.42
G3 X91.099 Y9.382 I0.627 J0.412
G1 X91.352 Y9.046
G3 X91.381 Y9.009 I0.599 J0.451
G1 X91.659 Y8.684
G3 X91.691 Y8.648 I0.57 J0.487
G1 X92.028 Y8.301
G3 X92.062 Y8.268 I0.538 J0.522
G1 X92.432 Y7.932
G3 X92.466 Y7.903 I0.504 J0.555
G1 X92.87 Y7.577
G3 X92.903 Y7.552 I0.47 J0.584
G1 X93.342 Y7.237
G3 X93.374 Y7.215 I0.437 J0.609
G1 X93.849 Y6.91
G3 X93.879 Y6.891 I0.406 J0.631
G1 X94.388 Y6.597
G3 X94.416 Y6.581 I0.376 J0.649
G1 X94.955 Y6.299
G3 X94.982 Y6.285 I0.348 J0.664
G1 X95.606 Y5.99
G3 X95.634 Y5.977 I0.321 J0.678
G1 X96.286 Y5.7
G3 X96.312 Y5.69 I0.293 J0.69
G1 X96.989 Y5.431
G3 X97.012 Y5.423 I0.268 J0.701
G1 X97.712 Y5.182
G3 X97.733 Y5.175 I0.244 J0.709
G1 X98.453 Y4.951
G3 X98.474 Y4.944 I0.223 J0.716
G1 X99.351 Y4.7
G3 X99.371 Y4.694 I0.202 J0.722
G1 X100.267 Y4.471
G3 X100.286 Y4.467 I0.181 J0.728
G1 X101.198 Y4.265
G3 X101.215 Y4.262 I0.162 J0.732
G1 X102.137 Y4.08
G3 X102.152 Y4.077 I0.145 J0.736
G1 X103.08 Y3.914
G3 X103.094 Y3.912 I0.13 J0.739
G1 X104.024 Y3.767
G3 X104.038 Y3.765 I0.116 J0.741
G1 X105.131 Y3.615
G3 X105.145 Y3.614 I0.102 J0.743
G1 X106.227 Y3.485
G3 X106.239 Y3.484 I0.088 J0.745
G1 X107.303 Y3.375
G3 X107.313 Y3.374 I0.076 J0.746
G1 X108.352 Y3.283
X108.361 Y3.282
X109.168 Y3.221
X109.175 Y3.22
X109.959 Y3.168
X109.966
X110.722 Y3.124
X110.729
X111.461 Y3.089
X111.469 Y3.088
X112.183 Y3.062
X112.193 Y3.061
X113.108 Y3.039
G3 X113.12 I0.018 J0.75
G1 X114.022 Y3.031
G3 X114.034 I0.006 J0.75
G1 X114.934 Y3.038
G3 X114.948 I-0.006 J0.75
G1 X116.068 Y3.068
G3 X116.084 I-0.02 J0.75
G1 X117.206 Y3.122
G3 X117.222 Y3.123 I-0.036 J0.749
G1 X118.343 Y3.2
G3 X118.36 Y3.202 I-0.052 J0.748
G1 X119.475 Y3.305
G3 X119.493 Y3.307 I-0.069 J0.747
G1 X120.6 Y3.437
G3 X120.619 Y3.439 I-0.087 J0.745
G1 X121.715 Y3.596
G3 X121.736 Y3.599 I-0.106 J0.742
G1 X122.815 Y3.784
G3 X122.835 Y3.787 I-0.126 J0.739
G1 X123.671 Y3.953
G3 X123.688 Y3.957 I-0.146 J0.736
G1 X124.511 Y4.14
G3 X124.53 Y4.145 I-0.163 J0.732
G1 X125.338 Y4.347
G3 X125.358 Y4.352 I-0.182 J0.728
G1 X126.149 Y4.573
G3 X126.17 Y4.579 I-0.202 J0.722
G1 X126.944 Y4.82
G3 X126.966 Y4.827 I-0.223 J0.716
G1 X127.72 Y5.088
G3 X127.743 Y5.097 I-0.245 J0.709
G1 X128.476 Y5.377
G3 X128.501 Y5.387 I-0.268 J0.7
G1 X129.209 Y5.688
G3 X129.235 Y5.7 I-0.293 J0.69
G1 X129.919 Y6.021
G3 X129.947 Y6.035 I-0.319 J0.679
G1 X130.604 Y6.378
G3 X130.633 Y6.394 I-0.347 J0.665
G1 X131.263 Y6.759
G3 X131.293 Y6.778 I-0.376 J0.649
G1 X131.894 Y7.165
G3 X131.923 Y7.184 I-0.406 J0.631
G1 X132.373 Y7.504
G3 X132.398 Y7.523 I-0.435 J0.611
G1 X132.828 Y7.857
G3 X132.854 Y7.878 I-0.46 J0.592
G1 X133.264 Y8.226
G3 X133.291 Y8.251 I-0.486 J0.571
G1 X133.678 Y8.614
G3 X133.704 Y8.639 I-0.513 J0.547
G1 X134.07 Y9.017
G3 X134.096 Y9.045 I-0.539 J0.522
G1 X134.439 Y9.438
G3 X134.465 Y9.47 I-0.565 J0.493
G1 X134.783 Y9.877
G3 X134.805 Y9.906 I-0.591 J0.462
G1 X135.101 Y10.325
G3 X135.121 Y10.355 I-0.613 J0.433
G1 X135.393 Y10.782
G3 X135.409 Y10.809 I-0.633 J0.403
G1 X135.659 Y11.24
G3 X135.676 Y11.271 I-0.649 J0.376
G1 X135.97 Y11.837
G3 X135.985 Y11.869 I-0.666 J0.346
G1 X136.243 Y12.428
G3 X136.256 Y12.458 I-0.681 J0.314
G1 X136.479 Y13.004
G3 X136.491 Y13.034 I-0.694 J0.284
G1 X136.663 Y13.513
G3 X136.673 Y13.543 I-0.706 J0.254
G1 X136.818 Y14.007
G3 X136.827 Y14.038 I-0.716 J0.223
G1 X136.947 Y14.489
G3 X136.955 Y14.524 I-0.725 J0.193
G1 X137.049 Y14.962
G3 X137.056 Y14.996 I-0.733 J0.157
G1 X137.127 Y15.422
G3 X137.132 Y15.459 I-0.74 J0.123
G1 X137.18 Y15.873
G3 X137.184 Y15.913 I-0.745 J0.086
G1 X137.213 Y16.387
G3 X137.214 Y16.433 I-0.749 J0.046
G1 Y16.893
G3 X137.213 Y16.937 I-0.75 J0.
G1 X137.187 Y17.384
G3 X137.183 Y17.429 I-0.749 J-0.044
G1 X137.131 Y17.864
G3 X137.124 Y17.909 I-0.745 J-0.089
G1 X137.033 Y18.413
G3 X137.023 Y18.46 I-0.738 J-0.133
G1 X136.901 Y18.951
G3 X136.889 Y18.993 I-0.728 J-0.181
G1 X136.74 Y19.472
G3 X136.727 Y19.51 I-0.716 J-0.223
G1 X136.553 Y19.979
G3 X136.541 Y20.011 I-0.703 J-0.261
G1 X136.346 Y20.472
G3 X136.334 Y20.499 I-0.691 J-0.292
G1 X136.12 Y20.955
G3 X136.103 Y20.989 I-0.679 J-0.319
G1 X132.241 Y28.253
G3 X131.798 Y28.618 I-0.662 J-0.352
X132.37 Y28.673 I0.22 J0.717
G1 X132.758 Y28.879
G3 X133.123 Y29.322 I-0.352 J0.662
X133.068 Y29.893 I-0.717 J0.219
G1 X131.19 Y33.425
G3 X130.176 Y33.735 I-0.662 J-0.352
G1 X117.814 Y27.163
G3 X117.091 Y24.796 I0.822 J-1.545
G1 X117.47 Y24.084
G2 X117.366 Y23.746 I-0.221 J-0.117
G1 X116.969 Y23.534
G3 X116.659 Y22.52 I0.352 J-0.662
G1 X117.593 Y20.763
G3 X118.035 Y20.398 I0.662 J0.352
X117.559 Y20.145 I0.091 J-0.745
X117.504 Y20.717 I-0.717 J0.219
G1 X116.57 Y22.473
G3 X116.127 Y22.838 I-0.662 J-0.352
X115.556 Y22.783 I-0.219 J-0.717
G1 X114.539 Y22.242
G2 X114.383 Y22.216 I-0.117 J0.221
X106.31 Y25.073 I3.588 J22.972
X106.187 Y25.32 I0.125 J0.216
G1 X108.75 Y46.197
G3 X108.56 Y47.231 I-1.737 J0.215
G1 X103.217 Y57.278
G3 X102.203 Y57.588 I-0.662 J-0.352
G1 X99.598 Y56.203
G3 X99.288 Y55.189 I0.352 J-0.662
G1 X101.161 Y51.667
G3 X101.604 Y51.301 I0.662 J0.352
X101.129 Y51.05 I0.09 J-0.745
X101.073 Y51.62 I-0.718 J0.218
G1 X99.2 Y55.142
G3 X98.186 Y55.452 I-0.662 J-0.352
G1 X90.578 Y51.407
G3 X89.65 Y49.862 I0.822 J-1.545
G1 Y41.786
G3 X90.4 Y41.036 I0.75 J0.
G1 X90.839
G3 X91.367 Y41.253 I0. J0.75
X91.15 Y40.725 I0.533 J-0.528
G1 Y36.847
G2 X91. Y36.696 I-0.15 J0. F480
G1 X90.85
X90.804 Z-1.813
X90.762 Z-1.791
X90.729 Z-1.758
X90.707 Z-1.716
X90.7 Z-1.67
G0 Z1.5
X86.6 Y26.374
G1 Z-0.35 F60
X86.593 Z-0.396
X86.571 Z-0.438
X86.538 Z-0.471
X86.496 Z-0.493
X86.45 Z-0.5
X86.3 F120
G2 X86.15 Y26.524 I0. J0.15
G1 Y62.896 F240
G3 X80.4 Y68.646 I-5.75 J0.
G1 X75.8
G3 X75.05 Y67.896 I0. J-0.75
G1 Y64.896
G3 X75.8 Y64.146 I0.75 J0.
G1 X77.55
G2 X77.8 Y63.896 I0. J-0.25
G1 Y44.896
