(frame-2mm-bit)
(Machine)
(  vendor: Stepcraft)
(  model: 600)
(  description: stepcraft uccnc)
(T1  D=2. CR=0. - ZMIN=-2.25 - flat end mill)
G90
G0 G53 Z0.

(Holes)
T1 M6 (flat end mill D=2. Solid Carbide-End Mill O2,0mm)
(Fishtail, Diamond toothed)
S20000 M3
G64
G54
G43 H1
G0 X71.275 Y72.767
Z15.
Z5.
G1 Z2.7 F250
X71.27 Y72.772 Z2.649 F333.3
X71.257 Y72.785 Z2.602
X71.235 Y72.807 Z2.561
X71.207 Y72.835 Z2.529
X71.174 Y72.868 Z2.508
X71.138 Y72.904 Z2.5
X71.066 Y72.976 Z2.496
G3 X70.854 Z2.488 I-0.106 J-0.106
Y72.764 Z2.48 I0.106 J-0.106
G1 X72.764 Y70.854 Z2.386
G3 X72.939 Y70.828 Z2.379 I0.106 J0.106
X72.976 Y70.854 Z2.377 I-0.069 J0.133
Y71.066 Z2.369 I-0.106 J0.106
G1 X71.066 Y72.976 Z2.275
G3 X70.854 Z2.267 I-0.106 J-0.106
Y72.764 Z2.259 I0.106 J-0.106
G1 X72.764 Y70.854 Z2.164
G3 X72.939 Y70.828 Z2.158 I0.106 J0.106
X72.976 Y70.854 Z2.156 I-0.069 J0.133
Y71.066 Z2.148 I-0.106 J0.106
G1 X71.066 Y72.976 Z2.054
G3 X70.854 Z2.045 I-0.106 J-0.106
Y72.764 Z2.037 I0.106 J-0.106
G1 X72.764 Y70.854 Z1.943
G3 X72.939 Y70.828 Z1.936 I0.106 J0.106
X72.976 Y70.854 Z1.935 I-0.069 J0.133
Y71.066 Z1.926 I-0.106 J0.106
G1 X71.066 Y72.976 Z1.832
G3 X70.854 Z1.824 I-0.106 J-0.106
Y72.764 Z1.816 I0.106 J-0.106
G1 X72.764 Y70.854 Z1.721
G3 X72.939 Y70.828 Z1.715 I0.106 J0.106
X72.976 Y70.854 Z1.713 I-0.069 J0.133
Y71.066 Z1.705 I-0.106 J0.106
G1 X71.066 Y72.976 Z1.611
G3 X70.854 Z1.602 I-0.106 J-0.106
Y72.764 Z1.594 I0.106 J-0.106
G1 X72.764 Y70.854 Z1.5
G3 X72.939 Y70.828 Z1.493 I0.106 J0.106
X72.976 Y70.854 Z1.492 I-0.069 J0.133
Y71.066 Z1.483 I-0.106 J0.106
G1 X71.066 Y72.976 Z1.389
G3 X70.854 Z1.381 I-0.106 J-0.106
Y72.764 Z1.373 I0.106 J-0.106
G1 X72.764 Y70.854 Z1.278
G3 X72.939 Y70.828 Z1.272 I0.106 J0.106
X72.976 Y70.854 Z1.27 I-0.069 J0.133
Y71.066 Z1.262 I-0.106 J0.106
G1 X71.066 Y72.976 Z1.168
G3 X70.854 Z1.159 I-0.106 J-0.106
Y72.764 Z1.151 I0.106 J-0.106
G1 X72.764 Y70.854 Z1.057
G3 X72.939 Y70.828 Z1.05 I0.106 J0.106
X72.976 Y70.854 Z1.049 I-0.069 J0.133
Y71.066 Z1.04 I-0.106 J0.106
G1 X71.066 Y72.976 Z0.946
G3 X70.854 Z0.938 I-0.106 J-0.106
Y72.764 Z0.93 I0.106 J-0.106
G1 X72.764 Y70.854 Z0.835
G3 X72.939 Y70.828 Z0.829 I0.106 J0.106
X72.976 Y70.854 Z0.827 I-0.069 J0.133
Y71.066 Z0.819 I-0.106 J0.106
G1 X71.066 Y72.976 Z0.725
G3 X70.854 Z0.716 I-0.106 J-0.106
Y72.764 Z0.708 I0.106 J-0.106
G1 X72.764 Y70.854 Z0.614
G3 X72.939 Y70.828 Z0.607 I0.106 J0.106
X72.976 Y70.854 Z0.606 I-0.069 J0.133
Y71.066 Z0.598 I-0.106 J0.106
G1 X71.066 Y72.976 Z0.503
G3 X70.854 Z0.495 I-0.106 J-0.106
Y72.764 Z0.487 I0.106 J-0.106
G1 X72.764 Y70.854 Z0.393
G3 X72.939 Y70.828 Z0.386 I0.106 J0.106
X72.976 Y70.854 Z0.384 I-0.069 J0.133
Y71.066 Z0.376 I-0.106 J0.106
G1 X71.066 Y72.976 Z0.282
G3 X70.854 Z0.274 I-0.106 J-0.106
Y72.764 Z0.265 I0.106 J-0.106
G1 X72.764 Y70.854 Z0.171
G3 X72.939 Y70.828 Z0.164 I0.106 J0.106
X72.976 Y70.854 Z0.163 I-0.069 J0.133
Y71.066 Z0.155 I-0.106 J0.106
G1 X71.066 Y72.976 Z0.06
G3 X70.854 Z0.052 I-0.106 J-0.106
Y72.764 Z0.044 I0.106 J-0.106
G1 X72.764 Y70.854 Z-0.05
G3 X72.939 Y70.828 Z-0.057 I0.106 J0.106
X72.976 Y70.854 Z-0.059 I-0.069 J0.133
Y71.066 Z-0.067 I-0.106 J0.106
G1 X71.066 Y72.976 Z-0.161
G3 X70.854 Z-0.169 I-0.106 J-0.106
Y72.764 Z-0.178 I0.106 J-0.106
G1 X72.764 Y70.854 Z-0.272
G3 X72.939 Y70.828 Z-0.279 I0.106 J0.106
X72.976 Y70.854 Z-0.28 I-0.069 J0.133
Y71.066 Z-0.288 I-0.106 J0.106
G1 X71.066 Y72.976 Z-0.383
G3 X70.854 Z-0.391 I-0.106 J-0.106
Y72.764 Z-0.399 I0.106 J-0.106
G1 X72.764 Y70.854 Z-0.493
G3 X72.939 Y70.828 Z-0.5 I0.106 J0.106
X73.002 Y71.03 I-0.069 J0.133 F200
X72.976 Y71.066 I-0.133 J-0.069
G1 X71.066 Y72.976
G3 X70.854 I-0.106 J-0.106
Y72.764 I0.106 J-0.106
G1 X72.764 Y70.854
G3 X72.939 Y70.828 I0.106 J0.106
G2 X73.08 Y70.824 I0.068 J-0.129
G3 X73.2 Y70.856 I0.044 J0.076
X73.21 Y70.88 I-0.076 J0.044
X73.117 Y71.208 I-0.341 J0.08 F100
G1 X71.208 Y73.117
G3 X70.713 I-0.247 J-0.247
Y72.622 I0.247 J-0.247
G1 X72.622 Y70.713
G3 X73.117 I0.247 J0.248
X73.21 Y70.88 I-0.248 J0.247
X73.149 Y70.996 I-0.097 J0.023 F200
G1 X72.622 Y71.208
X71.954 Y71.876
X71.8 Y71.956
G3 X71.733 Y71.933 I-0.022 J-0.045
X71.742 Y71.876 I0.045 J-0.022
G1 X72.764 Y70.854 Z-0.55 F333.3
G3 X72.939 Y70.828 Z-0.557 I0.106 J0.106
X72.976 Y70.854 Z-0.559 I-0.069 J0.133
Y71.066 Z-0.567 I-0.106 J0.106
G1 X71.066 Y72.976 Z-0.661
G3 X70.854 Z-0.669 I-0.106 J-0.106
Y72.764 Z-0.678 I0.106 J-0.106
G1 X72.764 Y70.854 Z-0.772
G3 X72.939 Y70.828 Z-0.779 I0.106 J0.106
X72.976 Y70.854 Z-0.78 I-0.069 J0.133
Y71.066 Z-0.788 I-0.106 J0.106
G1 X71.066 Y72.976 Z-0.883
G3 X70.854 Z-0.891 I-0.106 J-0.106
Y72.764 Z-0.899 I0.106 J-0.106
G1 X72.764 Y70.854 Z-0.993
G3 X72.939 Y70.828 Z-1. I0.106 J0.106
X73.002 Y71.03 I-0.069 J0.133 F200
X72.976 Y71.066 I-0.133 J-0.069
G1 X71.066 Y72.976
G3 X70.854 I-0.106 J-0.106
Y72.764 I0.106 J-0.106
G1 X72.764 Y70.854
G3 X72.939 Y70.828 I0.106 J0.106
G2 X73.08 Y70.824 I0.068 J-0.129
G3 X73.2 Y70.856 I0.044 J0.076
X73.21 Y70.88 I-0.076 J0.044
X73.117 Y71.208 I-0.341 J0.08 F100
G1 X71.208 Y73.117
G3 X70.713 I-0.247 J-0.247
Y72.622 I0.247 J-0.247
G1 X72.622 Y70.713
G3 X73.117 I0.247 J0.248
X73.21 Y70.88 I-0.248 J0.247
X73.149 Y70.996 I-0.097 J0.023 F200
G1 X72.622 Y71.208
X71.954 Y71.876
X71.8 Y71.956
G3 X71.733 Y71.933 I-0.022 J-0.045
X71.742 Y71.876 I0.045 J-0.022
G1 X72.764 Y70.854 Z-1.05 F333.3
G3 X72.939 Y70.828 Z-1.057 I0.106 J0.106
X72.976 Y70.854 Z-1.059 I-0.069 J0.133
Y71.066 Z-1.067 I-0.106 J0.106
G1 X71.066 Y72.976 Z-1.161
G3 X70.854 Z-1.169 I-0.106 J-0.106
Y72.764 Z-1.178 I0.106 J-0.106
G1 X72.764 Y70.854 Z-1.272
G3 X72.939 Y70.828 Z-1.279 I0.106 J0.106
X72.976 Y70.854 Z-1.28 I-0.069 J0.133
Y71.066 Z-1.288 I-0.106 J0.106
G1 X71.066 Y72.976 Z-1.383
G3 X70.854 Z-1.391 I-0.106 J-0.106
Y72.764 Z-1.399 I0.106 J-0.106
G1 X72.764 Y70.854 Z-1.493
G3 X72.939 Y70.828 Z-1.5 I0.106 J0.106
X73.002 Y71.03 I-0.069 J0.133 F200
X72.976 Y71.066 I-0.133 J-0.069
G1 X71.066 Y72.976
G3 X70.854 I-0.106 J-0.106
Y72.764 I0.106 J-0.106
G1 X72.764 Y70.854
G3 X72.939 Y70.828 I0.106 J0.106
G2 X73.08 Y70.824 I0.068 J-0.129
G3 X73.2 Y70.856 I0.044 J0.076
X73.21 Y70.88 I-0.076 J0.044
X73.117 Y71.208 I-0.341 J0.08 F100
G1 X71.208 Y73.117
G3 X70.713 I-0.247 J-0.247
Y72.622 I0.247 J-0.247
G1 X72.622 Y70.713
G3 X73.117 I0.247 J0.248
X73.21 Y70.88 I-0.248 J0.247
X73.149 Y70.996 I-0.097 J0.023 F200
G1 X72.622 Y71.208
X71.954 Y71.876
X71.8 Y71.956
G3 X71.733 Y71.933 I-0.022 J-0.045
X71.742 Y71.876 I0.045 J-0.022
G1 X72.764 Y70.854 Z-1.55 F333.3
G3 X72.939 Y70.828 Z-1.557 I0.106 J0.106
X72.976 Y70.854 Z-1.559 I-0.069 J0.133
Y71.066 Z-1.567 I-0.106 J0.106
G1 X71.066 Y72.976 Z-1.661
G3 X70.854 Z-1.669 I-0.106 J-0.106
Y72.764 Z-1.678 I0.106 J-0.106
G1 X72.764 Y70.854 Z-1.772
G3 X72.939 Y70.828 Z-1.779 I0.106 J0.106
X72.976 Y70.854 Z-1.78 I-0.069 J0.133
Y71.066 Z-1.788 I-0.106 J0.106
G1 X71.066 Y72.976 Z-1.883
G3 X70.854 Z-1.891 I-0.106 J-0.106
Y72.764 Z-1.899 I0.106 J-0.106
G1 X72.764 Y70.854 Z-1.993
G3 X72.939 Y70.828 Z-2. I0.106 J0.106
X73.002 Y71.03 I-0.069 J0.133 F200
X72.976 Y71.066 I-0.133 J-0.069
G1 X71.066 Y72.976
G3 X70.854 I-0.106 J-0.106
Y72.764 I0.106 J-0.106
G1 X72.764 Y70.854
G3 X72.939 Y70.828 I0.106 J0.106
G2 X73.08 Y70.824 I0.068 J-0.129
G3 X73.2 Y70.856 I0.044 J0.076
X73.21 Y70.88 I-0.076 J0.044
X73.117 Y71.208 I-0.341 J0.08 F100
G1 X71.208 Y73.117
G3 X70.713 I-0.247 J-0.247
Y72.622 I0.247 J-0.247
G1 X72.622 Y70.713
G3 X73.117 I0.247 J0.248
X73.21 Y70.88 I-0.248 J0.247
X73.149 Y70.996 I-0.097 J0.023 F200
G1 X72.622 Y71.208
X72.532 Y71.298
X72.378 Y71.378
G3 X72.311 Y71.355 I-0.022 J-0.045
X72.32 Y71.298 I0.045 J-0.022
G1 X72.764 Y70.854 Z-2.022 F333.3
G3 X72.939 Y70.828 Z-2.029 I0.106 J0.106
X72.976 Y70.854 Z-2.03 I-0.069 J0.133
Y71.066 Z-2.038 I-0.106 J0.106
G1 X71.066 Y72.976 Z-2.133
G3 X70.854 Z-2.141 I-0.106 J-0.106
Y72.764 Z-2.149 I0.106 J-0.106
G1 X72.764 Y70.854 Z-2.243
G3 X72.939 Y70.828 Z-2.25 I0.106 J0.106
X73.002 Y71.03 I-0.069 J0.133 F200
X72.976 Y71.066 I-0.133 J-0.069
G1 X71.066 Y72.976
G3 X70.854 I-0.106 J-0.106
Y72.764 I0.106 J-0.106
G1 X72.764 Y70.854
G3 X72.939 Y70.828 I0.106 J0.106
G2 X73.08 Y70.824 I0.068 J-0.129
G3 X73.2 Y70.856 I0.044 J0.076
X73.21 Y70.88 I-0.076 J0.044
X73.117 Y71.208 I-0.341 J0.08 F100
G1 X71.208 Y73.117
G3 X70.713 I-0.247 J-0.247
Y72.622 I0.247 J-0.247
G1 X72.622 Y70.713
G3 X73.117 I0.247 J0.248
X73.21 Y70.88 I-0.248 J0.247
X73.208 Y70.979 Z-2.223 I-0.195 J0.046 F250
X73.177 Y71.044 Z-2.15 I-0.193 J-0.053
X73.159 Y71.065 Z-2.05 I-0.161 J-0.118
G0 Z5.
X118.264 Y72.922
G1 Z2.7 F250
G3 X118.258 Y72.937 Z2.62 I-0.14 J-0.053 F333.3
X118.23 Y72.975 Z2.553 I-0.134 J-0.068
X118.181 Y73.008 Z2.515 I-0.106 J-0.106
X118.113 Y73.019 Z2.5 I-0.057 J-0.139
X118.018 Y72.975 Z2.496 I0.011 J-0.149
G1 X116.11 Y71.066 Z2.402
G3 X116.109 Y70.854 Z2.394 I0.106 J-0.106
X116.215 Y70.81 Z2.39 I0.106 J0.106
X116.321 Y70.854 Z2.386 I0. J0.15
G1 X118.23 Y72.763 Z2.291
G3 Y72.975 Z2.283 I-0.106 J0.106
X118.018 Z2.275 I-0.106 J-0.106
G1 X116.11 Y71.066 Z2.181
G3 X116.109 Y70.854 Z2.172 I0.106 J-0.106
X116.215 Y70.81 Z2.168 I0.106 J0.106
X116.321 Y70.854 Z2.164 I0. J0.15
G1 X118.23 Y72.763 Z2.07
G3 Y72.975 Z2.062 I-0.106 J0.106
X118.018 Z2.053 I-0.106 J-0.106
G1 X116.11 Y71.066 Z1.959
G3 X116.109 Y70.854 Z1.951 I0.106 J-0.106
X116.215 Y70.81 Z1.947 I0.106 J0.106
X116.321 Y70.854 Z1.943 I0. J0.15
G1 X118.23 Y72.763 Z1.848
G3 Y72.975 Z1.84 I-0.106 J0.106
X118.018 Z1.832 I-0.106 J-0.106
G1 X116.11 Y71.066 Z1.738
G3 X116.109 Y70.854 Z1.729 I0.106 J-0.106
X116.215 Y70.81 Z1.725 I0.106 J0.106
X116.321 Y70.854 Z1.721 I0. J0.15
G1 X118.23 Y72.763 Z1.627
G3 Y72.975 Z1.619 I-0.106 J0.106
X118.018 Z1.61 I-0.106 J-0.106
G1 X116.11 Y71.066 Z1.516
G3 X116.109 Y70.854 Z1.508 I0.106 J-0.106
X116.215 Y70.81 Z1.504 I0.106 J0.106
X116.321 Y70.854 Z1.5 I0. J0.15
G1 X118.23 Y72.763 Z1.405
G3 Y72.975 Z1.397 I-0.106 J0.106
X118.018 Z1.389 I-0.106 J-0.106
G1 X116.11 Y71.066 Z1.295
G3 X116.109 Y70.854 Z1.287 I0.106 J-0.106
X116.215 Y70.81 Z1.282 I0.106 J0.106
X116.321 Y70.854 Z1.278 I0. J0.15
G1 X118.23 Y72.763 Z1.184
G3 Y72.975 Z1.176 I-0.106 J0.106
X118.018 Z1.168 I-0.106 J-0.106
G1 X116.11 Y71.066 Z1.073
G3 X116.109 Y70.854 Z1.065 I0.106 J-0.106
X116.215 Y70.81 Z1.061 I0.106 J0.106
X116.321 Y70.854 Z1.057 I0. J0.15
G1 X118.23 Y72.763 Z0.963
G3 Y72.975 Z0.954 I-0.106 J0.106
X118.018 Z0.946 I-0.106 J-0.106
G1 X116.11 Y71.066 Z0.852
G3 X116.109 Y70.854 Z0.844 I0.106 J-0.106
X116.215 Y70.81 Z0.839 I0.106 J0.106
X116.321 Y70.854 Z0.835 I0. J0.15
G1 X118.23 Y72.763 Z0.741
G3 Y72.975 Z0.733 I-0.106 J0.106
X118.018 Z0.725 I-0.106 J-0.106
G1 X116.11 Y71.066 Z0.63
G3 X116.109 Y70.854 Z0.622 I0.106 J-0.106
X116.215 Y70.81 Z0.618 I0.106 J0.106
X116.321 Y70.854 Z0.614 I0. J0.15
G1 X118.23 Y72.763 Z0.52
G3 Y72.975 Z0.511 I-0.106 J0.106
X118.018 Z0.503 I-0.106 J-0.106
G1 X116.11 Y71.066 Z0.409
G3 X116.109 Y70.854 Z0.401 I0.106 J-0.106
X116.215 Y70.81 Z0.397 I0.106 J0.106
X116.321 Y70.854 Z0.392 I0. J0.15
G1 X118.23 Y72.763 Z0.298
G3 Y72.975 Z0.29 I-0.106 J0.106
X118.018 Z0.282 I-0.106 J-0.106
G1 X116.11 Y71.066 Z0.187
G3 X116.109 Y70.854 Z0.179 I0.106 J-0.106
X116.215 Y70.81 Z0.175 I0.106 J0.106
X116.321 Y70.854 Z0.171 I0. J0.15
G1 X118.23 Y72.763 Z0.077
G3 Y72.975 Z0.068 I-0.106 J0.106
X118.018 Z0.06 I-0.106 J-0.106
G1 X116.11 Y71.066 Z-0.034
G3 X116.109 Y70.854 Z-0.042 I0.106 J-0.106
X116.215 Y70.81 Z-0.046 I0.106 J0.106
X116.321 Y70.854 Z-0.05 I0. J0.15
G1 X118.23 Y72.763 Z-0.145
G3 Y72.975 Z-0.153 I-0.106 J0.106
X118.018 Z-0.161 I-0.106 J-0.106
G1 X116.11 Y71.066 Z-0.255
G3 X116.109 Y70.854 Z-0.264 I0.106 J-0.106
X116.215 Y70.81 Z-0.268 I0.106 J0.106
X116.321 Y70.854 Z-0.272 I0. J0.15
G1 X118.23 Y72.763 Z-0.366
G3 Y72.975 Z-0.374 I-0.106 J0.106
X118.018 Z-0.383 I-0.106 J-0.106
G1 X116.11 Y71.066 Z-0.477
G3 X116.109 Y70.854 Z-0.485 I0.106 J-0.106
X116.215 Y70.81 Z-0.489 I0.106 J0.106
X116.321 Y70.854 Z-0.493 I0. J0.15
G1 X116.456 Y70.988 Z-0.5
X118.23 Y72.763 F200
G3 Y72.975 I-0.106 J0.106
X118.018 I-0.106 J-0.106
G1 X116.11 Y71.066
G3 X116.109 Y70.854 I0.106 J-0.106
X116.215 Y70.81 I0.106 J0.106
X116.321 Y70.854 I0. J0.15
G1 X116.456 Y70.988
G2 X116.632 Y71.024 I0.115 J-0.115
G3 X116.809 Y71.059 I0.062 J0.15
G1 X118.372 Y72.622 F100
G3 X118.371 Y73.117 I-0.248 J0.247
X117.877 I-0.247 J-0.248
G1 X115.968 Y71.208
G3 X115.967 Y70.713 I0.247 J-0.248
X116.215 Y70.61 I0.248 J0.247
X116.463 Y70.713 I0. J0.35
G1 X116.809 Y71.059
G3 X116.837 Y71.148 I-0.071 J0.071 F200
G1 X116.778 Y71.462
G2 X116.806 Y71.551 I0.098 J0.018
G1 X116.878 Y71.698
G3 X116.854 Y71.765 I-0.045 J0.021
X116.798 Y71.755 I-0.021 J-0.045
G1 X116.11 Y71.066 Z-0.534 F333.3
G3 X116.109 Y70.854 Z-0.542 I0.106 J-0.106
X116.215 Y70.81 Z-0.546 I0.106 J0.106
X116.321 Y70.854 Z-0.55 I0. J0.15
G1 X118.23 Y72.763 Z-0.645
G3 Y72.975 Z-0.653 I-0.106 J0.106
X118.018 Z-0.661 I-0.106 J-0.106
G1 X116.11 Y71.066 Z-0.755
G3 X116.109 Y70.854 Z-0.764 I0.106 J-0.106
X116.215 Y70.81 Z-0.768 I0.106 J0.106
X116.321 Y70.854 Z-0.772 I0. J0.15
G1 X118.23 Y72.763 Z-0.866
G3 Y72.975 Z-0.874 I-0.106 J0.106
X118.018 Z-0.883 I-0.106 J-0.106
G1 X116.11 Y71.066 Z-0.977
G3 X116.109 Y70.854 Z-0.985 I0.106 J-0.106
X116.215 Y70.81 Z-0.989 I0.106 J0.106
X116.321 Y70.854 Z-0.993 I0. J0.15
G1 X116.456 Y70.988 Z-1.
X118.23 Y72.763 F200
G3 Y72.975 I-0.106 J0.106
X118.018 I-0.106 J-0.106
G1 X116.11 Y71.066
G3 X116.109 Y70.854 I0.106 J-0.106
X116.215 Y70.81 I0.106 J0.106
X116.321 Y70.854 I0. J0.15
G1 X116.456 Y70.988
G2 X116.632 Y71.024 I0.115 J-0.115
G3 X116.809 Y71.059 I0.062 J0.15
G1 X118.372 Y72.622 F100
G3 X118.371 Y73.117 I-0.248 J0.247
X117.877 I-0.247 J-0.248
G1 X115.968 Y71.208
G3 X115.967 Y70.713 I0.247 J-0.248
X116.215 Y70.61 I0.248 J0.247
X116.463 Y70.713 I0. J0.35
G1 X116.809 Y71.059
G3 X116.837 Y71.148 I-0.071 J0.071 F200
G1 X116.778 Y71.462
G2 X116.806 Y71.551 I0.098 J0.018
G1 X116.878 Y71.698
G3 X116.854 Y71.765 I-0.045 J0.021
X116.798 Y71.755 I-0.021 J-0.045
G1 X116.11 Y71.066 Z-1.034 F333.3
G3 X116.109 Y70.854 Z-1.042 I0.106 J-0.106
X116.215 Y70.81 Z-1.046 I0.106 J0.106
X116.321 Y70.854 Z-1.05 I0. J0.15
G1 X118.23 Y72.763 Z-1.145
G3 Y72.975 Z-1.153 I-0.106 J0.106
X118.018 Z-1.161 I-0.106 J-0.106
G1 X116.11 Y71.066 Z-1.255
G3 X116.109 Y70.854 Z-1.264 I0.106 J-0.106
X116.215 Y70.81 Z-1.268 I0.106 J0.106
X116.321 Y70.854 Z-1.272 I0. J0.15
G1 X118.23 Y72.763 Z-1.366
G3 Y72.975 Z-1.374 I-0.106 J0.106
X118.018 Z-1.383 I-0.106 J-0.106
G1 X116.11 Y71.066 Z-1.477
G3 X116.109 Y70.854 Z-1.485 I0.106 J-0.106
X116.215 Y70.81 Z-1.489 I0.106 J0.106
X116.321 Y70.854 Z-1.493 I0. J0.15
G1 X116.456 Y70.988 Z-1.5
X118.23 Y72.763 F200
G3 Y72.975 I-0.106 J0.106
X118.018 I-0.106 J-0.106
G1 X116.11 Y71.066
G3 X116.109 Y70.854 I0.106 J-0.106
X116.215 Y70.81 I0.106 J0.106
X116.321 Y70.854 I0. J0.15
G1 X116.456 Y70.988
G2 X116.632 Y71.024 I0.115 J-0.115
G3 X116.809 Y71.059 I0.062 J0.15
G1 X118.372 Y72.622 F100
G3 X118.371 Y73.117 I-0.248 J0.247
X117.877 I-0.247 J-0.248
G1 X115.968 Y71.208
G3 X115.967 Y70.713 I0.247 J-0.248
X116.215 Y70.61 I0.248 J0.247
X116.463 Y70.713 I0. J0.35
G1 X116.809 Y71.059
G3 X116.837 Y71.148 I-0.071 J0.071 F200
G1 X116.778 Y71.462
G2 X116.806 Y71.551 I0.098 J0.018
G1 X116.878 Y71.698
G3 X116.854 Y71.765 I-0.045 J0.021
X116.798 Y71.755 I-0.021 J-0.045
G1 X116.11 Y71.066 Z-1.534 F333.3
G3 X116.109 Y70.854 Z-1.542 I0.106 J-0.106
X116.215 Y70.81 Z-1.546 I0.106 J0.106
X116.321 Y70.854 Z-1.55 I0. J0.15
G1 X118.23 Y72.763 Z-1.645
G3 Y72.975 Z-1.653 I-0.106 J0.106
X118.018 Z-1.661 I-0.106 J-0.106
G1 X116.11 Y71.066 Z-1.755
G3 X116.109 Y70.854 Z-1.764 I0.106 J-0.106
X116.215 Y70.81 Z-1.768 I0.106 J0.106
X116.321 Y70.854 Z-1.772 I0. J0.15
G1 X118.23 Y72.763 Z-1.866
G3 Y72.975 Z-1.874 I-0.106 J0.106
X118.018 Z-1.883 I-0.106 J-0.106
G1 X116.11 Y71.066 Z-1.977
G3 X116.109 Y70.854 Z-1.985 I0.106 J-0.106
X116.215 Y70.81 Z-1.989 I0.106 J0.106
X116.321 Y70.854 Z-1.993 I0. J0.15
G1 X116.456 Y70.988 Z-2.
X118.23 Y72.763 F200
G3 Y72.975 I-0.106 J0.106
X118.018 I-0.106 J-0.106
G1 X116.11 Y71.066
G3 X116.109 Y70.854 I0.106 J-0.106
X116.215 Y70.81 I0.106 J0.106
X116.321 Y70.854 I0. J0.15
G1 X116.456 Y70.988
G2 X116.632 Y71.024 I0.115 J-0.115
G3 X116.809 Y71.059 I0.062 J0.15
G1 X118.372 Y72.622 F100
G3 X118.371 Y73.117 I-0.248 J0.247
X117.877 I-0.247 J-0.248
G1 X115.968 Y71.208
G3 X115.967 Y70.713 I0.247 J-0.248
X116.215 Y70.61 I0.248 J0.247
X116.463 Y70.713 I0. J0.35
G1 X116.809 Y71.059
G3 Y71.201 I-0.071 J0.071 F200
X116.705 Y71.224 I-0.071 J-0.071
G1 X116.338 Y71.083
X116.286 Y71.18
G3 X116.22 Y71.177 I-0.031 J-0.039
G1 X116.11 Y71.066 Z-2.005 F333.3
G3 X116.109 Y70.854 Z-2.014 I0.106 J-0.106
X116.215 Y70.81 Z-2.018 I0.106 J0.106
X116.321 Y70.854 Z-2.022 I0. J0.15
G1 X118.23 Y72.763 Z-2.116
G3 Y72.975 Z-2.124 I-0.106 J0.106
X118.018 Z-2.133 I-0.106 J-0.106
G1 X116.11 Y71.066 Z-2.227
G3 X116.109 Y70.854 Z-2.235 I0.106 J-0.106
X116.215 Y70.81 Z-2.239 I0.106 J0.106
X116.321 Y70.854 Z-2.243 I0. J0.15
G1 X116.456 Y70.988 Z-2.25
X118.23 Y72.763 F200
G3 Y72.975 I-0.106 J0.106
X118.018 I-0.106 J-0.106
G1 X116.11 Y71.066
G3 X116.109 Y70.854 I0.106 J-0.106
X116.215 Y70.81 I0.106 J0.106
X116.321 Y70.854 I0. J0.15
G1 X116.456 Y70.988
G2 X116.632 Y71.024 I0.115 J-0.115
G3 X116.809 Y71.059 I0.062 J0.15
G1 X118.372 Y72.622 F100
G3 X118.371 Y73.117 I-0.248 J0.247
X117.877 I-0.247 J-0.248
G1 X115.968 Y71.208
G3 X115.967 Y70.713 I0.247 J-0.248
X116.215 Y70.61 I0.248 J0.247
X116.463 Y70.713 I0. J0.35
G1 X116.809 Y71.059
G3 X116.86 Y71.144 Z-2.223 I-0.141 J0.141 F250
X116.867 Y71.217 Z-2.15 I-0.192 J0.056
X116.863 Y71.243 Z-2.05 I-0.199 J-0.016
G0 Z5.
X118.132 Y116.066
G1 Z2.7 F250
G3 X118.161 Y116.071 Z2.595 I-0.008 J0.15 F333.3
X118.23 Y116.11 Z2.522 I-0.037 J0.145
X118.27 Y116.182 Z2.5 I-0.106 J0.106
X118.23 Y116.322 Z2.495 I-0.146 J0.034
G1 X116.322 Y118.23 Z2.4
G3 X116.11 Z2.392 I-0.106 J-0.106
Y118.018 Z2.384 I0.106 J-0.106
G1 X118.018 Y116.11 Z2.29
G3 X118.23 Z2.282 I0.106 J0.106
Y116.322 Z2.273 I-0.106 J0.106
G1 X116.322 Y118.23 Z2.179
G3 X116.11 Z2.171 I-0.106 J-0.106
Y118.018 Z2.163 I0.106 J-0.106
G1 X118.018 Y116.11 Z2.068
G3 X118.23 Z2.06 I0.106 J0.106
Y116.322 Z2.052 I-0.106 J0.106
G1 X116.322 Y118.23 Z1.958
G3 X116.11 Z1.95 I-0.106 J-0.106
Y118.018 Z1.941 I0.106 J-0.106
G1 X118.018 Y116.11 Z1.847
G3 X118.23 Z1.839 I0.106 J0.106
Y116.322 Z1.831 I-0.106 J0.106
G1 X116.322 Y118.23 Z1.736
G3 X116.11 Z1.728 I-0.106 J-0.106
Y118.018 Z1.72 I0.106 J-0.106
G1 X118.018 Y116.11 Z1.626
G3 X118.23 Z1.618 I0.106 J0.106
Y116.322 Z1.609 I-0.106 J0.106
G1 X116.322 Y118.23 Z1.515
G3 X116.11 Z1.507 I-0.106 J-0.106
Y118.018 Z1.499 I0.106 J-0.106
G1 X118.018 Y116.11 Z1.404
G3 X118.23 Z1.396 I0.106 J0.106
Y116.322 Z1.388 I-0.106 J0.106
G1 X116.322 Y118.23 Z1.294
G3 X116.11 Z1.286 I-0.106 J-0.106
Y118.018 Z1.277 I0.106 J-0.106
G1 X118.018 Y116.11 Z1.183
G3 X118.23 Z1.175 I0.106 J0.106
Y116.322 Z1.167 I-0.106 J0.106
G1 X116.322 Y118.23 Z1.072
G3 X116.11 Z1.064 I-0.106 J-0.106
Y118.018 Z1.056 I0.106 J-0.106
G1 X118.018 Y116.11 Z0.962
G3 X118.23 Z0.954 I0.106 J0.106
Y116.322 Z0.945 I-0.106 J0.106
G1 X116.322 Y118.23 Z0.851
G3 X116.11 Z0.843 I-0.106 J-0.106
Y118.018 Z0.835 I0.106 J-0.106
G1 X118.018 Y116.11 Z0.74
G3 X118.23 Z0.732 I0.106 J0.106
Y116.322 Z0.724 I-0.106 J0.106
G1 X116.322 Y118.23 Z0.63
G3 X116.11 Z0.622 I-0.106 J-0.106
Y118.018 Z0.613 I0.106 J-0.106
G1 X118.018 Y116.11 Z0.519
G3 X118.23 Z0.511 I0.106 J0.106
Y116.322 Z0.503 I-0.106 J0.106
G1 X116.322 Y118.23 Z0.408
G3 X116.11 Z0.4 I-0.106 J-0.106
Y118.018 Z0.392 I0.106 J-0.106
G1 X118.018 Y116.11 Z0.298
G3 X118.23 Z0.29 I0.106 J0.106
Y116.322 Z0.281 I-0.106 J0.106
G1 X116.322 Y118.23 Z0.187
G3 X116.11 Z0.179 I-0.106 J-0.106
Y118.018 Z0.171 I0.106 J-0.106
G1 X118.018 Y116.11 Z0.076
G3 X118.23 Z0.068 I0.106 J0.106
Y116.322 Z0.06 I-0.106 J0.106
G1 X116.322 Y118.23 Z-0.034
G3 X116.11 Z-0.042 I-0.106 J-0.106
Y118.018 Z-0.051 I0.106 J-0.106
G1 X118.018 Y116.11 Z-0.145
G3 X118.23 Z-0.153 I0.106 J0.106
Y116.322 Z-0.161 I-0.106 J0.106
G1 X116.322 Y118.23 Z-0.256
G3 X116.11 Z-0.264 I-0.106 J-0.106
Y118.018 Z-0.272 I0.106 J-0.106
G1 X118.018 Y116.11 Z-0.366
G3 X118.23 Z-0.374 I0.106 J0.106
Y116.322 Z-0.383 I-0.106 J0.106
G1 X116.322 Y118.23 Z-0.477
G3 X116.11 Z-0.485 I-0.106 J-0.106
Y118.018 Z-0.493 I0.106 J-0.106
G1 X116.244 Y117.884 Z-0.5
X118.018 Y116.11 F200
G3 X118.23 I0.106 J0.106
Y116.322 I-0.106 J0.106
G1 X116.322 Y118.23
G3 X116.11 I-0.106 J-0.106
Y118.018 I0.106 J-0.106
G1 X116.244 Y117.884
G2 X116.28 Y117.707 I-0.115 J-0.115
G3 X116.315 Y117.53 I0.15 J-0.062
G1 X117.877 Y115.968 F100
G3 X118.372 Y115.969 I0.247 J0.248
Y116.463 I-0.248 J0.247
G1 X116.463 Y118.372
G3 X115.968 Y118.371 I-0.247 J-0.248
Y117.877 I0.248 J-0.247
G1 X116.315 Y117.53
G3 X116.404 Y117.502 I0.071 J0.071 F200
G1 X116.719 Y117.56
G2 X116.808 Y117.532 I0.018 J-0.098
G1 X116.958 Y117.456
G3 X117.025 Y117.479 I0.022 J0.045
X117.015 Y117.536 I-0.045 J0.022
G1 X116.322 Y118.23 Z-0.534 F333.3
G3 X116.11 Z-0.542 I-0.106 J-0.106
Y118.018 Z-0.551 I0.106 J-0.106
G1 X118.018 Y116.11 Z-0.645
G3 X118.23 Z-0.653 I0.106 J0.106
Y116.322 Z-0.661 I-0.106 J0.106
G1 X116.322 Y118.23 Z-0.756
G3 X116.11 Z-0.764 I-0.106 J-0.106
Y118.018 Z-0.772 I0.106 J-0.106
G1 X118.018 Y116.11 Z-0.866
G3 X118.23 Z-0.874 I0.106 J0.106
Y116.322 Z-0.883 I-0.106 J0.106
G1 X116.322 Y118.23 Z-0.977
G3 X116.11 Z-0.985 I-0.106 J-0.106
Y118.018 Z-0.993 I0.106 J-0.106
G1 X116.244 Y117.884 Z-1.
X118.018 Y116.11 F200
G3 X118.23 I0.106 J0.106
Y116.322 I-0.106 J0.106
G1 X116.322 Y118.23
G3 X116.11 I-0.106 J-0.106
Y118.018 I0.106 J-0.106
G1 X116.244 Y117.884
G2 X116.28 Y117.707 I-0.115 J-0.115
G3 X116.315 Y117.53 I0.15 J-0.062
G1 X117.877 Y115.968 F100
G3 X118.372 Y115.969 I0.247 J0.248
Y116.463 I-0.248 J0.247
G1 X116.463 Y118.372
G3 X115.968 Y118.371 I-0.247 J-0.248
Y117.877 I0.248 J-0.247
G1 X116.315 Y117.53
G3 X116.404 Y117.502 I0.071 J0.071 F200
G1 X116.719 Y117.56
G2 X116.808 Y117.532 I0.018 J-0.098
G1 X116.958 Y117.456
G3 X117.025 Y117.479 I0.022 J0.045
X117.015 Y117.536 I-0.045 J0.022
G1 X116.322 Y118.23 Z-1.034 F333.3
G3 X116.11 Z-1.042 I-0.106 J-0.106
Y118.018 Z-1.051 I0.106 J-0.106
G1 X118.018 Y116.11 Z-1.145
G3 X118.23 Z-1.153 I0.106 J0.106
Y116.322 Z-1.161 I-0.106 J0.106
G1 X116.322 Y118.23 Z-1.256
G3 X116.11 Z-1.264 I-0.106 J-0.106
Y118.018 Z-1.272 I0.106 J-0.106
G1 X118.018 Y116.11 Z-1.366
G3 X118.23 Z-1.374 I0.106 J0.106
Y116.322 Z-1.383 I-0.106 J0.106
G1 X116.322 Y118.23 Z-1.477
G3 X116.11 Z-1.485 I-0.106 J-0.106
Y118.018 Z-1.493 I0.106 J-0.106
G1 X116.244 Y117.884 Z-1.5
X118.018 Y116.11 F200
G3 X118.23 I0.106 J0.106
Y116.322 I-0.106 J0.106
G1 X116.322 Y118.23
G3 X116.11 I-0.106 J-0.106
Y118.018 I0.106 J-0.106
G1 X116.244 Y117.884
G2 X116.28 Y117.707 I-0.115 J-0.115
G3 X116.315 Y117.53 I0.15 J-0.062
G1 X117.877 Y115.968 F100
G3 X118.372 Y115.969 I0.247 J0.248
Y116.463 I-0.248 J0.247
G1 X116.463 Y118.372
G3 X115.968 Y118.371 I-0.247 J-0.248
Y117.877 I0.248 J-0.247
G1 X116.315 Y117.53
G3 X116.404 Y117.502 I0.071 J0.071 F200
G1 X116.719 Y117.56
G2 X116.808 Y117.532 I0.018 J-0.098
G1 X116.958 Y117.456
G3 X117.025 Y117.479 I0.022 J0.045
X117.015 Y117.536 I-0.045 J0.022
G1 X116.322 Y118.23 Z-1.534 F333.3
G3 X116.11 Z-1.542 I-0.106 J-0.106
Y118.018 Z-1.551 I0.106 J-0.106
G1 X118.018 Y116.11 Z-1.645
G3 X118.23 Z-1.653 I0.106 J0.106
Y116.322 Z-1.661 I-0.106 J0.106
G1 X116.322 Y118.23 Z-1.756
G3 X116.11 Z-1.764 I-0.106 J-0.106
Y118.018 Z-1.772 I0.106 J-0.106
G1 X118.018 Y116.11 Z-1.866
G3 X118.23 Z-1.874 I0.106 J0.106
Y116.322 Z-1.883 I-0.106 J0.106
G1 X116.322 Y118.23 Z-1.977
G3 X116.11 Z-1.985 I-0.106 J-0.106
Y118.018 Z-1.993 I0.106 J-0.106
G1 X116.244 Y117.884 Z-2.
X118.018 Y116.11 F200
G3 X118.23 I0.106 J0.106
Y116.322 I-0.106 J0.106
G1 X116.322 Y118.23
G3 X116.11 I-0.106 J-0.106
Y118.018 I0.106 J-0.106
G1 X116.244 Y117.884
G2 X116.28 Y117.707 I-0.115 J-0.115
G3 X116.315 Y117.53 I0.15 J-0.062
G1 X117.877 Y115.968 F100
G3 X118.372 Y115.969 I0.247 J0.248
Y116.463 I-0.248 J0.247
G1 X116.463 Y118.372
G3 X115.968 Y118.371 I-0.247 J-0.248
Y117.877 I0.248 J-0.247
G1 X116.315 Y117.53
G3 X116.457 I0.071 J0.071 F200
X116.48 Y117.634 I-0.071 J0.071
G1 X116.339 Y118.001
X116.438 Y118.05
G3 X116.435 Y118.117 I-0.038 J0.032
G1 X116.322 Y118.23 Z-2.006 F333.3
G3 X116.11 Z-2.014 I-0.106 J-0.106
Y118.018 Z-2.022 I0.106 J-0.106
G1 X118.018 Y116.11 Z-2.116
G3 X118.23 Z-2.124 I0.106 J0.106
Y116.322 Z-2.133 I-0.106 J0.106
G1 X116.322 Y118.23 Z-2.227
G3 X116.11 Z-2.235 I-0.106 J-0.106
Y118.018 Z-2.243 I0.106 J-0.106
G1 X116.244 Y117.884 Z-2.25
X118.018 Y116.11 F200
G3 X118.23 I0.106 J0.106
Y116.322 I-0.106 J0.106
G1 X116.322 Y118.23
G3 X116.11 I-0.106 J-0.106
Y118.018 I0.106 J-0.106
G1 X116.244 Y117.884
G2 X116.28 Y117.707 I-0.115 J-0.115
G3 X116.315 Y117.53 I0.15 J-0.062
G1 X117.877 Y115.968 F100
G3 X118.372 Y115.969 I0.247 J0.248
Y116.463 I-0.248 J0.247
G1 X116.463 Y118.372
G3 X115.968 Y118.371 I-0.247 J-0.248
Y117.877 I0.248 J-0.247
G1 X116.315 Y117.53
G3 X116.4 Y117.48 Z-2.223 I0.141 J0.141 F250
X116.473 Y117.472 Z-2.15 I0.056 J0.192
X116.499 Y117.476 Z-2.05 I-0.016 J0.199
G0 Z5.
X72.93 Y117.973
G1 Z2.7 F250
X72.935 Y117.978 Z2.646 F333.3
X72.951 Y117.994 Z2.595
X72.975 Y118.018 Z2.553
G3 X73.008 Y118.068 Z2.515 I-0.106 J0.106
X73.019 Y118.135 Z2.5 I-0.139 J0.056
X72.858 Y118.274 Z2.492 I-0.149 J-0.011
X72.763 Y118.23 Z2.488 I0.011 J-0.149
G1 X70.854 Y116.321 Z2.394
G3 Y116.109 Z2.386 I0.106 J-0.106
X70.96 Y116.065 Z2.381 I0.106 J0.106
X71.066 Y116.109 Z2.377 I0. J0.15
G1 X72.975 Y118.018 Z2.283
G3 Y118.23 Z2.275 I-0.106 J0.106
X72.763 Z2.267 I-0.106 J-0.106
G1 X70.854 Y116.321 Z2.172
G3 Y116.109 Z2.164 I0.106 J-0.106
X70.96 Y116.065 Z2.16 I0.106 J0.106
X71.066 Y116.109 Z2.156 I0. J0.15
G1 X72.975 Y118.018 Z2.062
G3 Y118.23 Z2.053 I-0.106 J0.106
X72.763 Z2.045 I-0.106 J-0.106
G1 X70.854 Y116.321 Z1.951
G3 Y116.109 Z1.943 I0.106 J-0.106
X70.96 Y116.065 Z1.939 I0.106 J0.106
X71.066 Y116.109 Z1.934 I0. J0.15
G1 X72.975 Y118.018 Z1.84
G3 Y118.23 Z1.832 I-0.106 J0.106
X72.763 Z1.824 I-0.106 J-0.106
G1 X70.854 Y116.321 Z1.729
G3 Y116.109 Z1.721 I0.106 J-0.106
X70.96 Y116.065 Z1.717 I0.106 J0.106
X71.066 Y116.109 Z1.713 I0. J0.15
G1 X72.975 Y118.018 Z1.619
G3 Y118.23 Z1.61 I-0.106 J0.106
X72.763 Z1.602 I-0.106 J-0.106
G1 X70.854 Y116.321 Z1.508
G3 Y116.109 Z1.5 I0.106 J-0.106
X70.96 Y116.065 Z1.496 I0.106 J0.106
X71.066 Y116.109 Z1.492 I0. J0.15
G1 X72.975 Y118.018 Z1.397
G3 Y118.23 Z1.389 I-0.106 J0.106
X72.763 Z1.381 I-0.106 J-0.106
G1 X70.854 Y116.321 Z1.287
G3 Y116.109 Z1.278 I0.106 J-0.106
X70.96 Y116.065 Z1.274 I0.106 J0.106
X71.066 Y116.109 Z1.27 I0. J0.15
G1 X72.975 Y118.018 Z1.176
G3 Y118.23 Z1.168 I-0.106 J0.106
X72.763 Z1.159 I-0.106 J-0.106
G1 X70.854 Y116.321 Z1.065
G3 Y116.109 Z1.057 I0.106 J-0.106
X70.96 Y116.065 Z1.053 I0.106 J0.106
X71.066 Y116.109 Z1.049 I0. J0.15
G1 X72.975 Y118.018 Z0.954
G3 Y118.23 Z0.946 I-0.106 J0.106
X72.763 Z0.938 I-0.106 J-0.106
G1 X70.854 Y116.321 Z0.844
G3 Y116.109 Z0.835 I0.106 J-0.106
X70.96 Y116.065 Z0.831 I0.106 J0.106
X71.066 Y116.109 Z0.827 I0. J0.15
G1 X72.975 Y118.018 Z0.733
G3 Y118.23 Z0.725 I-0.106 J0.106
X72.763 Z0.716 I-0.106 J-0.106
G1 X70.854 Y116.321 Z0.622
G3 Y116.109 Z0.614 I0.106 J-0.106
X70.96 Y116.065 Z0.61 I0.106 J0.106
X71.066 Y116.109 Z0.606 I0. J0.15
G1 X72.975 Y118.018 Z0.511
G3 Y118.23 Z0.503 I-0.106 J0.106
X72.763 Z0.495 I-0.106 J-0.106
G1 X70.854 Y116.321 Z0.401
G3 Y116.109 Z0.392 I0.106 J-0.106
X70.96 Y116.065 Z0.388 I0.106 J0.106
X71.066 Y116.109 Z0.384 I0. J0.15
G1 X72.975 Y118.018 Z0.29
G3 Y118.23 Z0.282 I-0.106 J0.106
X72.763 Z0.274 I-0.106 J-0.106
G1 X70.854 Y116.321 Z0.179
G3 Y116.109 Z0.171 I0.106 J-0.106
X70.96 Y116.065 Z0.167 I0.106 J0.106
X71.066 Y116.109 Z0.163 I0. J0.15
G1 X72.975 Y118.018 Z0.068
G3 Y118.23 Z0.06 I-0.106 J0.106
X72.763 Z0.052 I-0.106 J-0.106
G1 X70.854 Y116.321 Z-0.042
G3 Y116.109 Z-0.05 I0.106 J-0.106
X70.96 Y116.065 Z-0.055 I0.106 J0.106
X71.066 Y116.109 Z-0.059 I0. J0.15
G1 X72.975 Y118.018 Z-0.153
G3 Y118.23 Z-0.161 I-0.106 J0.106
X72.763 Z-0.169 I-0.106 J-0.106
G1 X70.854 Y116.321 Z-0.264
G3 Y116.109 Z-0.272 I0.106 J-0.106
X70.96 Y116.065 Z-0.276 I0.106 J0.106
X71.066 Y116.109 Z-0.28 I0. J0.15
G1 X72.975 Y118.018 Z-0.374
G3 Y118.23 Z-0.383 I-0.106 J0.106
X72.763 Z-0.391 I-0.106 J-0.106
G1 X70.854 Y116.321 Z-0.485
G3 Y116.109 Z-0.493 I0.106 J-0.106
X71.03 Y116.082 Z-0.5 I0.106 J0.106
X71.066 Y116.109 I-0.07 J0.133 F200
G1 X72.975 Y118.018
G3 Y118.23 I-0.106 J0.106
X72.763 I-0.106 J-0.106
G1 X70.854 Y116.321
G3 Y116.109 I0.106 J-0.106
X71.03 Y116.082 I0.106 J0.106
G2 X71.188 I0.079 J-0.15
G3 X71.345 Y116.105 I0.063 J0.117
G1 X73.117 Y117.877 F100
G3 X73.116 Y118.372 I-0.248 J0.247
X72.622 I-0.247 J-0.248
G1 X70.713 Y116.463
G3 X70.712 Y115.968 I0.247 J-0.248
X70.96 Y115.865 I0.248 J0.247
X71.208 Y115.968 I0. J0.35
G1 X71.345 Y116.105
G3 X71.372 Y116.193 I-0.071 J0.071 F200
G1 X71.317 Y116.512
G2 X71.345 Y116.6 I0.099 J0.017
G1 X71.709 Y116.964
X71.789 Y117.118
G3 X71.767 Y117.186 I-0.045 J0.022
X71.709 Y117.176 I-0.022 J-0.045
G1 X70.854 Y116.321 Z-0.542 F333.3
G3 Y116.109 Z-0.55 I0.106 J-0.106
X70.96 Y116.065 Z-0.555 I0.106 J0.106
X71.066 Y116.109 Z-0.559 I0. J0.15
G1 X72.975 Y118.018 Z-0.653
G3 Y118.23 Z-0.661 I-0.106 J0.106
X72.763 Z-0.669 I-0.106 J-0.106
G1 X70.854 Y116.321 Z-0.764
G3 Y116.109 Z-0.772 I0.106 J-0.106
X70.96 Y116.065 Z-0.776 I0.106 J0.106
X71.066 Y116.109 Z-0.78 I0. J0.15
G1 X72.975 Y118.018 Z-0.874
G3 Y118.23 Z-0.883 I-0.106 J0.106
X72.763 Z-0.891 I-0.106 J-0.106
G1 X70.854 Y116.321 Z-0.985
G3 Y116.109 Z-0.993 I0.106 J-0.106
X71.03 Y116.082 Z-1. I0.106 J0.106
X71.066 Y116.109 I-0.07 J0.133 F200
G1 X72.975 Y118.018
G3 Y118.23 I-0.106 J0.106
X72.763 I-0.106 J-0.106
G1 X70.854 Y116.321
G3 Y116.109 I0.106 J-0.106
X71.03 Y116.082 I0.106 J0.106
G2 X71.188 I0.079 J-0.15
G3 X71.345 Y116.105 I0.063 J0.117
G1 X73.117 Y117.877 F100
G3 X73.116 Y118.372 I-0.248 J0.247
X72.622 I-0.247 J-0.248
G1 X70.713 Y116.463
G3 X70.712 Y115.968 I0.247 J-0.248
X70.96 Y115.865 I0.248 J0.247
X71.208 Y115.968 I0. J0.35
G1 X71.345 Y116.105
G3 X71.372 Y116.193 I-0.071 J0.071 F200
G1 X71.317 Y116.512
G2 X71.345 Y116.6 I0.099 J0.017
G1 X71.709 Y116.964
X71.789 Y117.118
G3 X71.767 Y117.186 I-0.045 J0.022
X71.709 Y117.176 I-0.022 J-0.045
G1 X70.854 Y116.321 Z-1.042 F333.3
G3 Y116.109 Z-1.05 I0.106 J-0.106
X70.96 Y116.065 Z-1.055 I0.106 J0.106
X71.066 Y116.109 Z-1.059 I0. J0.15
G1 X72.975 Y118.018 Z-1.153
G3 Y118.23 Z-1.161 I-0.106 J0.106
X72.763 Z-1.169 I-0.106 J-0.106
G1 X70.854 Y116.321 Z-1.264
G3 Y116.109 Z-1.272 I0.106 J-0.106
X70.96 Y116.065 Z-1.276 I0.106 J0.106
X71.066 Y116.109 Z-1.28 I0. J0.15
G1 X72.975 Y118.018 Z-1.374
G3 Y118.23 Z-1.383 I-0.106 J0.106
X72.763 Z-1.391 I-0.106 J-0.106
G1 X70.854 Y116.321 Z-1.485
G3 Y116.109 Z-1.493 I0.106 J-0.106
X71.03 Y116.082 Z-1.5 I0.106 J0.106
X71.066 Y116.109 I-0.07 J0.133 F200
G1 X72.975 Y118.018
G3 Y118.23 I-0.106 J0.106
X72.763 I-0.106 J-0.106
G1 X70.854 Y116.321
G3 Y116.109 I0.106 J-0.106
X71.03 Y116.082 I0.106 J0.106
G2 X71.188 I0.079 J-0.15
G3 X71.345 Y116.105 I0.063 J0.117
G1 X73.117 Y117.877 F100
G3 X73.116 Y118.372 I-0.248 J0.247
X72.622 I-0.247 J-0.248
G1 X70.713 Y116.463
G3 X70.712 Y115.968 I0.247 J-0.248
X70.96 Y115.865 I0.248 J0.247
X71.208 Y115.968 I0. J0.35
G1 X71.345 Y116.105
G3 X71.372 Y116.193 I-0.071 J0.071 F200
G1 X71.317 Y116.512
G2 X71.345 Y116.6 I0.099 J0.017
G1 X71.709 Y116.964
X71.789 Y117.118
G3 X71.767 Y117.186 I-0.045 J0.022
X71.709 Y117.176 I-0.022 J-0.045
G1 X70.854 Y116.321 Z-1.542 F333.3
G3 Y116.109 Z-1.55 I0.106 J-0.106
X70.96 Y116.065 Z-1.555 I0.106 J0.106
X71.066 Y116.109 Z-1.559 I0. J0.15
G1 X72.975 Y118.018 Z-1.653
G3 Y118.23 Z-1.661 I-0.106 J0.106
X72.763 Z-1.669 I-0.106 J-0.106
G1 X70.854 Y116.321 Z-1.764
G3 Y116.109 Z-1.772 I0.106 J-0.106
X70.96 Y116.065 Z-1.776 I0.106 J0.106
X71.066 Y116.109 Z-1.78 I0. J0.15
G1 X72.975 Y118.018 Z-1.874
G3 Y118.23 Z-1.883 I-0.106 J0.106
X72.763 Z-1.891 I-0.106 J-0.106
G1 X70.854 Y116.321 Z-1.985
G3 Y116.109 Z-1.993 I0.106 J-0.106
X71.03 Y116.082 Z-2. I0.106 J0.106
X71.066 Y116.109 I-0.07 J0.133 F200
G1 X72.975 Y118.018
G3 Y118.23 I-0.106 J0.106
X72.763 I-0.106 J-0.106
G1 X70.854 Y116.321
G3 Y116.109 I0.106 J-0.106
X71.03 Y116.082 I0.106 J0.106
G2 X71.188 I0.079 J-0.15
G3 X71.345 Y116.105 I0.063 J0.117
G1 X73.117 Y117.877 F100
G3 X73.116 Y118.372 I-0.248 J0.247
X72.622 I-0.247 J-0.248
G1 X70.713 Y116.463
G3 X70.712 Y115.968 I0.247 J-0.248
X70.96 Y115.865 I0.248 J0.247
X71.208 Y115.968 I0. J0.35
G1 X71.345 Y116.105
G3 X71.351 Y116.165 I-0.034 J0.034 F200
G1 X71.238 Y116.352
X71.213 Y116.57
G3 X71.16 Y116.612 I-0.048 J-0.005
X71.131 Y116.598 I0.005 J-0.048
G1 X70.854 Y116.321 Z-2.014 F333.3
G3 Y116.109 Z-2.022 I0.106 J-0.106
X70.96 Y116.065 Z-2.026 I0.106 J0.106
X71.066 Y116.109 Z-2.03 I0. J0.15
G1 X72.975 Y118.018 Z-2.124
G3 Y118.23 Z-2.133 I-0.106 J0.106
X72.763 Z-2.141 I-0.106 J-0.106
G1 X70.854 Y116.321 Z-2.235
G3 Y116.109 Z-2.243 I0.106 J-0.106
X71.03 Y116.082 Z-2.25 I0.106 J0.106
X71.066 Y116.109 I-0.07 J0.133 F200
G1 X72.975 Y118.018
G3 Y118.23 I-0.106 J0.106
X72.763 I-0.106 J-0.106
G1 X70.854 Y116.321
G3 Y116.109 I0.106 J-0.106
X71.03 Y116.082 I0.106 J0.106
G2 X71.188 I0.079 J-0.15
G3 X71.345 Y116.105 I0.063 J0.117
G1 X73.117 Y117.877 F100
G3 X73.116 Y118.372 I-0.248 J0.247
X72.622 I-0.247 J-0.248
G1 X70.713 Y116.463
G3 X70.712 Y115.968 I0.247 J-0.248
X70.96 Y115.865 I0.248 J0.247
X71.208 Y115.968 I0. J0.35
G1 X71.345 Y116.105
G3 X71.395 Y116.19 Z-2.223 I-0.141 J0.141 F250
X71.403 Y116.262 Z-2.15 I-0.192 J0.056
X71.399 Y116.289 Z-2.05 I-0.199 J-0.016
G0 Z5.
X19.282 Y161.72
G1 Z2.7 F250
G3 X19.28 Y161.746 Z2.602 I-0.4 J-0.017 F333.3
X19.266 Y161.815 Z2.529 I-0.398 J-0.043
X19.228 Y161.904 Z2.5 I-0.384 J-0.112
X18.681 Y162.049 Z2.478 I-0.346 J-0.201
X18.482 Y161.703 Z2.463 I0.201 J-0.346
G1 Y159.703 Z2.394
G3 X18.882 Y159.303 Z2.372 I0.4 J0.
X19.282 Y159.703 Z2.35 I0. J0.4
G1 Y161.703 Z2.28
G3 X18.882 Y162.103 Z2.258 I-0.4 J0.
X18.482 Y161.703 Z2.236 I0. J-0.4
G1 Y159.703 Z2.166
G3 X18.882 Y159.303 Z2.144 I0.4 J0.
X19.282 Y159.703 Z2.122 I0. J0.4
G1 Y161.703 Z2.052
G3 X18.882 Y162.103 Z2.031 I-0.4 J0.
X18.482 Y161.703 Z2.009 I0. J-0.4
G1 Y159.703 Z1.939
G3 X18.882 Y159.303 Z1.917 I0.4 J0.
X19.282 Y159.703 Z1.895 I0. J0.4
G1 Y161.703 Z1.825
G3 X18.882 Y162.103 Z1.803 I-0.4 J0.
X18.482 Y161.703 Z1.781 I0. J-0.4
G1 Y159.703 Z1.711
G3 X18.882 Y159.303 Z1.689 I0.4 J0.
X19.282 Y159.703 Z1.667 I0. J0.4
G1 Y161.703 Z1.598
G3 X18.882 Y162.103 Z1.576 I-0.4 J0.
X18.482 Y161.703 Z1.554 I0. J-0.4
G1 Y159.703 Z1.484
G3 X18.882 Y159.303 Z1.462 I0.4 J0.
X19.282 Y159.703 Z1.44 I0. J0.4
G1 Y161.703 Z1.37
G3 X18.882 Y162.103 Z1.348 I-0.4 J0.
X18.482 Y161.703 Z1.326 I0. J-0.4
G1 Y159.703 Z1.256
G3 X18.882 Y159.303 Z1.234 I0.4 J0.
X19.282 Y159.703 Z1.212 I0. J0.4
G1 Y161.703 Z1.143
G3 X18.882 Y162.103 Z1.121 I-0.4 J0.
X18.482 Y161.703 Z1.099 I0. J-0.4
G1 Y159.703 Z1.029
G3 X18.882 Y159.303 Z1.007 I0.4 J0.
X19.282 Y159.703 Z0.985 I0. J0.4
G1 Y161.703 Z0.915
G3 X18.882 Y162.103 Z0.893 I-0.4 J0.
X18.482 Y161.703 Z0.871 I0. J-0.4
G1 Y159.703 Z0.801
G3 X18.882 Y159.303 Z0.78 I0.4 J0.
X19.282 Y159.703 Z0.758 I0. J0.4
G1 Y161.703 Z0.688
G3 X18.882 Y162.103 Z0.666 I-0.4 J0.
X18.482 Y161.703 Z0.644 I0. J-0.4
G1 Y159.703 Z0.574
G3 X18.882 Y159.303 Z0.552 I0.4 J0.
X19.282 Y159.703 Z0.53 I0. J0.4
G1 Y161.703 Z0.46
G3 X18.882 Y162.103 Z0.438 I-0.4 J0.
X18.482 Y161.703 Z0.416 I0. J-0.4
G1 Y159.703 Z0.347
G3 X18.882 Y159.303 Z0.325 I0.4 J0.
X19.282 Y159.703 Z0.303 I0. J0.4
G1 Y161.703 Z0.233
G3 X18.882 Y162.103 Z0.211 I-0.4 J0.
X18.482 Y161.703 Z0.189 I0. J-0.4
G1 Y159.703 Z0.119
G3 X18.882 Y159.303 Z0.097 I0.4 J0.
X19.282 Y159.703 Z0.075 I0. J0.4
G1 Y161.703 Z0.005
G3 X18.882 Y162.103 Z-0.017 I-0.4 J0.
X18.482 Y161.703 Z-0.038 I0. J-0.4
G1 Y159.703 Z-0.108
G3 X18.882 Y159.303 Z-0.13 I0.4 J0.
X19.282 Y159.703 Z-0.152 I0. J0.4
G1 Y161.703 Z-0.222
G3 X18.882 Y162.103 Z-0.244 I-0.4 J0.
X18.482 Y161.703 Z-0.266 I0. J-0.4
G1 Y159.703 Z-0.336
G3 X18.882 Y159.303 Z-0.358 I0.4 J0.
X19.282 Y159.703 Z-0.38 I0. J0.4
G1 Y161.703 Z-0.449
G3 X18.882 Y162.103 Z-0.471 I-0.4 J0.
X18.482 Y161.703 Z-0.493 I0. J-0.4
G1 Y161.513 Z-0.5
Y159.703 F200
G3 X18.882 Y159.303 I0.4 J0.
X19.282 Y159.703 I0. J0.4
G1 Y161.703
G3 X18.882 Y162.103 I-0.4 J0.
X18.482 Y161.703 I0. J-0.4
G1 Y161.513
G2 X18.382 Y161.363 I-0.162 J0.
G3 X18.282 Y161.213 I0.063 J-0.15
G1 Y159.703 F100
G3 X18.882 Y159.103 I0.6 J0.
X19.482 Y159.703 I0. J0.6
G1 Y161.703
G3 X18.882 Y162.303 I-0.6 J0.
X18.282 Y161.703 I0. J-0.6
G1 Y161.213
G3 X18.382 Y161.113 I0.1 J0. F200
X18.449 Y161.139 I0. J0.1
G1 X18.824 Y161.481
X18.907 Y161.59
X19.217 Y161.759
G3 X19.252 Y161.854 I-0.035 J0.067
X18.731 Y162.073 Z-0.522 I-0.37 J-0.151 F333.3
X18.482 Y161.703 Z-0.538 I0.151 J-0.37
G1 Y159.703 Z-0.608
G3 X18.882 Y159.303 Z-0.63 I0.4 J0.
X19.282 Y159.703 Z-0.652 I0. J0.4
G1 Y161.703 Z-0.722
G3 X18.882 Y162.103 Z-0.744 I-0.4 J0.
X18.482 Y161.703 Z-0.766 I0. J-0.4
G1 Y159.703 Z-0.836
G3 X18.882 Y159.303 Z-0.858 I0.4 J0.
X19.282 Y159.703 Z-0.88 I0. J0.4
G1 Y161.703 Z-0.949
G3 X18.882 Y162.103 Z-0.971 I-0.4 J0.
X18.482 Y161.703 Z-0.993 I0. J-0.4
G1 Y161.513 Z-1.
Y159.703 F200
G3 X18.882 Y159.303 I0.4 J0.
X19.282 Y159.703 I0. J0.4
G1 Y161.703
G3 X18.882 Y162.103 I-0.4 J0.
X18.482 Y161.703 I0. J-0.4
G1 Y161.513
G2 X18.382 Y161.363 I-0.162 J0.
G3 X18.282 Y161.213 I0.063 J-0.15
G1 Y159.703 F100
G3 X18.882 Y159.103 I0.6 J0.
X19.482 Y159.703 I0. J0.6
G1 Y161.703
G3 X18.882 Y162.303 I-0.6 J0.
X18.282 Y161.703 I0. J-0.6
G1 Y161.213
G3 X18.382 Y161.113 I0.1 J0. F200
X18.449 Y161.139 I0. J0.1
G1 X18.824 Y161.481
X18.907 Y161.59
X19.217 Y161.759
G3 X19.252 Y161.854 I-0.035 J0.067
X18.731 Y162.073 Z-1.022 I-0.37 J-0.151 F333.3
X18.482 Y161.703 Z-1.038 I0.151 J-0.37
G1 Y159.703 Z-1.108
G3 X18.882 Y159.303 Z-1.13 I0.4 J0.
X19.282 Y159.703 Z-1.152 I0. J0.4
G1 Y161.703 Z-1.222
G3 X18.882 Y162.103 Z-1.244 I-0.4 J0.
X18.482 Y161.703 Z-1.266 I0. J-0.4
G1 Y159.703 Z-1.336
G3 X18.882 Y159.303 Z-1.358 I0.4 J0.
X19.282 Y159.703 Z-1.38 I0. J0.4
G1 Y161.703 Z-1.449
G3 X18.882 Y162.103 Z-1.471 I-0.4 J0.
X18.482 Y161.703 Z-1.493 I0. J-0.4
G1 Y161.513 Z-1.5
Y159.703 F200
G3 X18.882 Y159.303 I0.4 J0.
X19.282 Y159.703 I0. J0.4
G1 Y161.703
G3 X18.882 Y162.103 I-0.4 J0.
X18.482 Y161.703 I0. J-0.4
G1 Y161.513
G2 X18.382 Y161.363 I-0.162 J0.
G3 X18.282 Y161.213 I0.063 J-0.15
G1 Y159.703 F100
G3 X18.882 Y159.103 I0.6 J0.
X19.482 Y159.703 I0. J0.6
G1 Y161.703
G3 X18.882 Y162.303 I-0.6 J0.
X18.282 Y161.703 I0. J-0.6
G1 Y161.213
G3 X18.382 Y161.113 I0.1 J0. F200
X18.449 Y161.139 I0. J0.1
G1 X18.824 Y161.481
X18.907 Y161.59
X19.217 Y161.759
G3 X19.252 Y161.854 I-0.035 J0.067
X18.731 Y162.073 Z-1.522 I-0.37 J-0.151 F333.3
X18.482 Y161.703 Z-1.538 I0.151 J-0.37
G1 Y159.703 Z-1.608
G3 X18.882 Y159.303 Z-1.63 I0.4 J0.
X19.282 Y159.703 Z-1.652 I0. J0.4
G1 Y161.703 Z-1.722
G3 X18.882 Y162.103 Z-1.744 I-0.4 J0.
X18.482 Y161.703 Z-1.766 I0. J-0.4
G1 Y159.703 Z-1.836
G3 X18.882 Y159.303 Z-1.858 I0.4 J0.
X19.282 Y159.703 Z-1.88 I0. J0.4
G1 Y161.703 Z-1.949
G3 X18.882 Y162.103 Z-1.971 I-0.4 J0.
X18.482 Y161.703 Z-1.993 I0. J-0.4
G1 Y161.513 Z-2.
Y159.703 F200
G3 X18.882 Y159.303 I0.4 J0.
X19.282 Y159.703 I0. J0.4
G1 Y161.703
G3 X18.882 Y162.103 I-0.4 J0.
X18.482 Y161.703 I0. J-0.4
G1 Y161.513
G2 X18.382 Y161.363 I-0.162 J0.
G3 X18.282 Y161.213 I0.063 J-0.15
G1 Y159.703 F100
G3 X18.882 Y159.103 I0.6 J0.
X19.482 Y159.703 I0. J0.6
G1 Y161.703
G3 X18.882 Y162.303 I-0.6 J0.
X18.282 Y161.703 I0. J-0.6
G1 Y161.213
G3 X18.382 Y161.113 I0.1 J0. F200
X18.465 Y161.157 I0. J0.1
G1 X18.714 Y161.537
X18.746 Y161.646
X18.819 Y161.982
G3 X18.762 Y162.072 I-0.073 J0.016
X18.715 Y162.066 I-0.016 J-0.073
X18.482 Y161.703 Z-2.016 I0.167 J-0.363 F333.3
G1 Y159.703 Z-2.086
G3 X18.882 Y159.303 Z-2.108 I0.4 J0.
X19.282 Y159.703 Z-2.13 I0. J0.4
G1 Y161.703 Z-2.199
G3 X18.882 Y162.103 Z-2.221 I-0.4 J0.
X18.482 Y161.703 Z-2.243 I0. J-0.4
G1 Y161.513 Z-2.25
Y159.703 F200
G3 X18.882 Y159.303 I0.4 J0.
X19.282 Y159.703 I0. J0.4
G1 Y161.703
G3 X18.882 Y162.103 I-0.4 J0.
X18.482 Y161.703 I0. J-0.4
G1 Y161.513
G2 X18.382 Y161.363 I-0.162 J0.
G3 X18.282 Y161.213 I0.063 J-0.15
G1 Y159.703 F100
G3 X18.882 Y159.103 I0.6 J0.
X19.482 Y159.703 I0. J0.6
G1 Y161.703
G3 X18.882 Y162.303 I-0.6 J0.
X18.282 Y161.703 I0. J-0.6
G1 Y161.213
G3 X18.306 Y161.117 Z-2.223 I0.2 J0. F250
X18.352 Y161.061 Z-2.15 I0.176 J0.096
X18.374 Y161.045 Z-2.05 I0.13 J0.152
G0 Z5.
X18.612 Y171.093
G1 Z2.7 F250
G3 X18.587 Y171.1 Z2.602 I-0.256 J-0.89 F333.3
X18.519 Y171.115 Z2.529 I-0.232 J-0.897
X18.422 Y171.127 Z2.5 I-0.163 J-0.912
X17.432 Y170.27 Z2.449 I-0.067 J-0.924
X18.289 Y169.279 Z2.398 I0.924 J-0.067
X19.279 Y170.136 Z2.348 I0.067 J0.924
X18.422 Y171.127 Z2.297 I-0.924 J0.067
X17.432 Y170.27 Z2.246 I-0.067 J-0.924
X18.289 Y169.279 Z2.195 I0.924 J-0.067
X19.279 Y170.136 Z2.144 I0.067 J0.924
X18.422 Y171.127 Z2.094 I-0.924 J0.067
X17.432 Y170.27 Z2.043 I-0.067 J-0.924
X18.289 Y169.279 Z1.992 I0.924 J-0.067
X19.279 Y170.136 Z1.941 I0.067 J0.924
X18.422 Y171.127 Z1.89 I-0.924 J0.067
X17.432 Y170.27 Z1.839 I-0.067 J-0.924
X18.289 Y169.279 Z1.789 I0.924 J-0.067
X19.279 Y170.136 Z1.738 I0.067 J0.924
X18.422 Y171.127 Z1.687 I-0.924 J0.067
X17.432 Y170.27 Z1.636 I-0.067 J-0.924
X18.289 Y169.279 Z1.585 I0.924 J-0.067
X19.279 Y170.136 Z1.535 I0.067 J0.924
X18.422 Y171.127 Z1.484 I-0.924 J0.067
X17.432 Y170.27 Z1.433 I-0.067 J-0.924
X18.289 Y169.279 Z1.382 I0.924 J-0.067
X19.279 Y170.136 Z1.331 I0.067 J0.924
X18.422 Y171.127 Z1.281 I-0.924 J0.067
X17.432 Y170.27 Z1.23 I-0.067 J-0.924
X18.289 Y169.279 Z1.179 I0.924 J-0.067
X19.279 Y170.136 Z1.128 I0.067 J0.924
X18.422 Y171.127 Z1.077 I-0.924 J0.067
X17.432 Y170.27 Z1.027 I-0.067 J-0.924
X18.289 Y169.279 Z0.976 I0.924 J-0.067
X19.279 Y170.136 Z0.925 I0.067 J0.924
X18.422 Y171.127 Z0.874 I-0.924 J0.067
X17.432 Y170.27 Z0.823 I-0.067 J-0.924
X18.289 Y169.279 Z0.773 I0.924 J-0.067
X19.279 Y170.136 Z0.722 I0.067 J0.924
X18.422 Y171.127 Z0.671 I-0.924 J0.067
X17.432 Y170.27 Z0.62 I-0.067 J-0.924
X18.289 Y169.279 Z0.569 I0.924 J-0.067
X19.279 Y170.136 Z0.518 I0.067 J0.924
X18.422 Y171.127 Z0.468 I-0.924 J0.067
X17.432 Y170.27 Z0.417 I-0.067 J-0.924
X18.289 Y169.279 Z0.366 I0.924 J-0.067
X19.279 Y170.136 Z0.315 I0.067 J0.924
X18.422 Y171.127 Z0.264 I-0.924 J0.067
X17.432 Y170.27 Z0.214 I-0.067 J-0.924
X18.289 Y169.279 Z0.163 I0.924 J-0.067
X19.279 Y170.136 Z0.112 I0.067 J0.924
X18.422 Y171.127 Z0.061 I-0.924 J0.067
X17.432 Y170.27 Z0.01 I-0.067 J-0.924
X18.289 Y169.279 Z-0.04 I0.924 J-0.067
X19.279 Y170.136 Z-0.091 I0.067 J0.924
X18.422 Y171.127 Z-0.142 I-0.924 J0.067
X17.432 Y170.27 Z-0.193 I-0.067 J-0.924
X18.289 Y169.279 Z-0.244 I0.924 J-0.067
X19.279 Y170.136 Z-0.294 I0.067 J0.924
X18.422 Y171.127 Z-0.345 I-0.924 J0.067
X17.432 Y170.27 Z-0.396 I-0.067 J-0.924
X18.289 Y169.279 Z-0.447 I0.924 J-0.067
X18.987 Y169.525 Z-0.473 I0.067 J0.924
X19.282 Y170.203 Z-0.5 I-0.631 J0.678
X18.882 Y170.603 I-0.4 J0. F100
X18.482 Y170.203 I0. J-0.4
X19.832 Y168.853 I1.35 J0.
X21.182 Y170.203 I0. J1.35
X18.882 Y172.503 I-2.3 J0.
X16.582 Y170.203 I0. J-2.3
X18.982 Y167.803 I2.4 J0.
X21.382 Y170.203 I0. J2.4
X18.882 Y172.703 I-2.5 J0.
X16.382 Y170.203 I0. J-2.5
X18.882 Y167.703 I2.5 J0.
X21.382 Y170.203 I0. J2.5
X21.351 Y170.275 I-0.1 J0. F200
X21.277 Y170.303 I-0.069 J-0.072
G1 X19.405 Y170.211
X17.549 Y170.099
G3 X17.455 Y169.993 I0.006 J-0.1
X17.458 Y169.974 I0.1 J0.006
X18.585 Y169.306 Z-0.551 I0.898 J0.229 F333.3
X19.253 Y170.432 Z-0.602 I-0.229 J0.898
X18.127 Y171.101 Z-0.652 I-0.898 J-0.229
X17.458 Y169.974 Z-0.703 I0.229 J-0.898
X18.585 Y169.306 Z-0.754 I0.898 J0.229
X19.253 Y170.432 Z-0.805 I-0.229 J0.898
X18.127 Y171.101 Z-0.856 I-0.898 J-0.229
X17.458 Y169.974 Z-0.906 I0.229 J-0.898
X18.585 Y169.306 Z-0.957 I0.898 J0.229
X19.282 Y170.203 Z-1. I-0.229 J0.898
X18.882 Y170.603 I-0.4 J0. F100
X18.482 Y170.203 I0. J-0.4
X19.832 Y168.853 I1.35 J0.
X21.182 Y170.203 I0. J1.35
X18.882 Y172.503 I-2.3 J0.
X16.582 Y170.203 I0. J-2.3
X18.982 Y167.803 I2.4 J0.
X21.382 Y170.203 I0. J2.4
X18.882 Y172.703 I-2.5 J0.
X16.382 Y170.203 I0. J-2.5
X18.882 Y167.703 I2.5 J0.
X21.382 Y170.203 I0. J2.5
X21.351 Y170.275 I-0.1 J0. F200
X21.277 Y170.303 I-0.069 J-0.072
G1 X19.405 Y170.211
X17.549 Y170.099
G3 X17.455 Y169.993 I0.006 J-0.1
X17.458 Y169.974 I0.1 J0.006
X18.585 Y169.306 Z-1.051 I0.898 J0.229 F333.3
X19.253 Y170.432 Z-1.102 I-0.229 J0.898
X18.127 Y171.101 Z-1.152 I-0.898 J-0.229
X17.458 Y169.974 Z-1.203 I0.229 J-0.898
X18.585 Y169.306 Z-1.254 I0.898 J0.229
X19.253 Y170.432 Z-1.305 I-0.229 J0.898
X18.127 Y171.101 Z-1.356 I-0.898 J-0.229
X17.458 Y169.974 Z-1.406 I0.229 J-0.898
X18.585 Y169.306 Z-1.457 I0.898 J0.229
X19.282 Y170.203 Z-1.5 I-0.229 J0.898
X18.882 Y170.603 I-0.4 J0. F100
X18.482 Y170.203 I0. J-0.4
X19.832 Y168.853 I1.35 J0.
X21.182 Y170.203 I0. J1.35
X18.882 Y172.503 I-2.3 J0.
X16.582 Y170.203 I0. J-2.3
X18.982 Y167.803 I2.4 J0.
X21.382 Y170.203 I0. J2.4
X18.882 Y172.703 I-2.5 J0.
X16.382 Y170.203 I0. J-2.5
X18.882 Y167.703 I2.5 J0.
X21.382 Y170.203 I0. J2.5
X21.351 Y170.275 I-0.1 J0. F200
X21.277 Y170.303 I-0.069 J-0.072
G1 X19.405 Y170.211
X17.549 Y170.099
G3 X17.455 Y169.993 I0.006 J-0.1
X17.458 Y169.974 I0.1 J0.006
X18.585 Y169.306 Z-1.551 I0.898 J0.229 F333.3
X19.253 Y170.432 Z-1.602 I-0.229 J0.898
X18.127 Y171.101 Z-1.652 I-0.898 J-0.229
X17.458 Y169.974 Z-1.703 I0.229 J-0.898
X18.585 Y169.306 Z-1.754 I0.898 J0.229
X19.253 Y170.432 Z-1.805 I-0.229 J0.898
X18.127 Y171.101 Z-1.856 I-0.898 J-0.229
X17.458 Y169.974 Z-1.906 I0.229 J-0.898
X18.585 Y169.306 Z-1.957 I0.898 J0.229
X19.282 Y170.203 Z-2. I-0.229 J0.898
X18.882 Y170.603 I-0.4 J0. F100
X18.482 Y170.203 I0. J-0.4
X19.832 Y168.853 I1.35 J0.
X21.182 Y170.203 I0. J1.35
X18.882 Y172.503 I-2.3 J0.
X16.582 Y170.203 I0. J-2.3
X18.982 Y167.803 I2.4 J0.
X21.382 Y170.203 I0. J2.4
X18.882 Y172.703 I-2.5 J0.
X16.382 Y170.203 I0. J-2.5
X18.882 Y167.703 I2.5 J0.
X21.382 Y170.203 I0. J2.5
X20.456 Y171.129 Z-2.046 I-0.926 J0. F333.3
G1 X18.356 Z-2.112
G3 X17.429 Y170.203 Z-2.158 I0. J-0.926
X18.356 Y169.277 Z-2.204 I0.926 J0.
X19.282 Y170.203 Z-2.25 I0. J0.926
X18.882 Y170.603 I-0.4 J0. F100
X18.482 Y170.203 I0. J-0.4
X19.832 Y168.853 I1.35 J0.
X21.182 Y170.203 I0. J1.35
X18.882 Y172.503 I-2.3 J0.
X16.582 Y170.203 I0. J-2.3
X18.982 Y167.803 I2.4 J0.
X21.382 Y170.203 I0. J2.4
X18.882 Y172.703 I-2.5 J0.
X16.382 Y170.203 I0. J-2.5
X18.882 Y167.703 I2.5 J0.
X21.382 Y170.203 I0. J2.5
X21.357 Y170.299 Z-2.223 I-0.2 J0. F250
X21.311 Y170.355 Z-2.15 I-0.176 J-0.096
X21.29 Y170.371 Z-2.05 I-0.13 J-0.152
G0 Z5.
X25.864 Y170.603
G1 Z2.7 F250
G3 X25.839 Y170.601 Z2.602 I0.017 J-0.4 F333.3
X25.77 Y170.587 Z2.529 I0.043 J-0.398
X25.681 Y170.549 Z2.5 I0.112 J-0.384
X25.536 Y170.002 Z2.478 I0.201 J-0.346
X25.882 Y169.803 Z2.463 I0.346 J0.201
G1 X27.882 Z2.394
G3 X28.282 Y170.203 Z2.372 I0. J0.4
X27.882 Y170.603 Z2.35 I-0.4 J0.
G1 X25.882 Z2.28
G3 X25.482 Y170.203 Z2.258 I0. J-0.4
X25.882 Y169.803 Z2.236 I0.4 J0.
G1 X27.882 Z2.166
G3 X28.282 Y170.203 Z2.144 I0. J0.4
X27.882 Y170.603 Z2.122 I-0.4 J0.
G1 X25.882 Z2.052
G3 X25.482 Y170.203 Z2.031 I0. J-0.4
X25.882 Y169.803 Z2.009 I0.4 J0.
G1 X27.882 Z1.939
G3 X28.282 Y170.203 Z1.917 I0. J0.4
X27.882 Y170.603 Z1.895 I-0.4 J0.
G1 X25.882 Z1.825
G3 X25.482 Y170.203 Z1.803 I0. J-0.4
X25.882 Y169.803 Z1.781 I0.4 J0.
G1 X27.882 Z1.711
G3 X28.282 Y170.203 Z1.689 I0. J0.4
X27.882 Y170.603 Z1.667 I-0.4 J0.
G1 X25.882 Z1.598
G3 X25.482 Y170.203 Z1.576 I0. J-0.4
X25.882 Y169.803 Z1.554 I0.4 J0.
G1 X27.882 Z1.484
G3 X28.282 Y170.203 Z1.462 I0. J0.4
X27.882 Y170.603 Z1.44 I-0.4 J0.
G1 X25.882 Z1.37
G3 X25.482 Y170.203 Z1.348 I0. J-0.4
X25.882 Y169.803 Z1.326 I0.4 J0.
G1 X27.882 Z1.256
G3 X28.282 Y170.203 Z1.234 I0. J0.4
X27.882 Y170.603 Z1.212 I-0.4 J0.
G1 X25.882 Z1.143
G3 X25.482 Y170.203 Z1.121 I0. J-0.4
X25.882 Y169.803 Z1.099 I0.4 J0.
G1 X27.882 Z1.029
G3 X28.282 Y170.203 Z1.007 I0. J0.4
X27.882 Y170.603 Z0.985 I-0.4 J0.
G1 X25.882 Z0.915
G3 X25.482 Y170.203 Z0.893 I0. J-0.4
X25.882 Y169.803 Z0.871 I0.4 J0.
G1 X27.882 Z0.801
G3 X28.282 Y170.203 Z0.78 I0. J0.4
X27.882 Y170.603 Z0.758 I-0.4 J0.
G1 X25.882 Z0.688
G3 X25.482 Y170.203 Z0.666 I0. J-0.4
X25.882 Y169.803 Z0.644 I0.4 J0.
G1 X27.882 Z0.574
G3 X28.282 Y170.203 Z0.552 I0. J0.4
X27.882 Y170.603 Z0.53 I-0.4 J0.
G1 X25.882 Z0.46
G3 X25.482 Y170.203 Z0.438 I0. J-0.4
X25.882 Y169.803 Z0.416 I0.4 J0.
G1 X27.882 Z0.347
G3 X28.282 Y170.203 Z0.325 I0. J0.4
X27.882 Y170.603 Z0.303 I-0.4 J0.
G1 X25.882 Z0.233
G3 X25.482 Y170.203 Z0.211 I0. J-0.4
X25.882 Y169.803 Z0.189 I0.4 J0.
G1 X27.882 Z0.119
G3 X28.282 Y170.203 Z0.097 I0. J0.4
X27.882 Y170.603 Z0.075 I-0.4 J0.
G1 X25.882 Z0.005
G3 X25.482 Y170.203 Z-0.017 I0. J-0.4
X25.882 Y169.803 Z-0.038 I0.4 J0.
G1 X27.882 Z-0.108
G3 X28.282 Y170.203 Z-0.13 I0. J0.4
X27.882 Y170.603 Z-0.152 I-0.4 J0.
G1 X25.882 Z-0.222
G3 X25.482 Y170.203 Z-0.244 I0. J-0.4
X25.882 Y169.803 Z-0.266 I0.4 J0.
G1 X27.882 Z-0.336
G3 X28.282 Y170.203 Z-0.358 I0. J0.4
X27.882 Y170.603 Z-0.38 I-0.4 J0.
G1 X25.882 Z-0.449
G3 X25.482 Y170.203 Z-0.471 I0. J-0.4
X25.882 Y169.803 Z-0.493 I0.4 J0.
G1 X26.072 Z-0.5
X27.882 F200
G3 X28.282 Y170.203 I0. J0.4
X27.882 Y170.603 I-0.4 J0.
G1 X25.882
G3 X25.482 Y170.203 I0. J-0.4
X25.882 Y169.803 I0.4 J0.
G1 X26.072
G2 X26.222 Y169.703 I0. J-0.162
G3 X26.372 Y169.603 I0.15 J0.063
G1 X27.882 F100
G3 X28.482 Y170.203 I0. J0.6
X27.882 Y170.803 I-0.6 J0.
G1 X25.882
G3 X25.282 Y170.203 I0. J-0.6
X25.882 Y169.603 I0.6 J0.
G1 X26.372
G3 X26.472 Y169.703 I0. J0.1 F200
X26.446 Y169.77 I-0.1 J0.
G1 X26.104 Y170.145
X25.995 Y170.229
X25.826 Y170.538
G3 X25.731 Y170.573 I-0.067 J-0.035
X25.512 Y170.052 Z-0.522 I0.151 J-0.37 F333.3
X25.882 Y169.803 Z-0.538 I0.37 J0.151
G1 X27.882 Z-0.608
G3 X28.282 Y170.203 Z-0.63 I0. J0.4
X27.882 Y170.603 Z-0.652 I-0.4 J0.
G1 X25.882 Z-0.722
G3 X25.482 Y170.203 Z-0.744 I0. J-0.4
X25.882 Y169.803 Z-0.766 I0.4 J0.
G1 X27.882 Z-0.836
G3 X28.282 Y170.203 Z-0.858 I0. J0.4
X27.882 Y170.603 Z-0.88 I-0.4 J0.
G1 X25.882 Z-0.949
G3 X25.482 Y170.203 Z-0.971 I0. J-0.4
X25.882 Y169.803 Z-0.993 I0.4 J0.
G1 X26.072 Z-1.
X27.882 F200
G3 X28.282 Y170.203 I0. J0.4
X27.882 Y170.603 I-0.4 J0.
G1 X25.882
G3 X25.482 Y170.203 I0. J-0.4
X25.882 Y169.803 I0.4 J0.
G1 X26.072
G2 X26.222 Y169.703 I0. J-0.162
G3 X26.372 Y169.603 I0.15 J0.063
G1 X27.882 F100
G3 X28.482 Y170.203 I0. J0.6
X27.882 Y170.803 I-0.6 J0.
G1 X25.882
G3 X25.282 Y170.203 I0. J-0.6
X25.882 Y169.603 I0.6 J0.
G1 X26.372
G3 X26.472 Y169.703 I0. J0.1 F200
X26.446 Y169.77 I-0.1 J0.
G1 X26.104 Y170.145
X25.995 Y170.229
X25.826 Y170.538
G3 X25.731 Y170.573 I-0.067 J-0.035
X25.512 Y170.052 Z-1.022 I0.151 J-0.37 F333.3
X25.882 Y169.803 Z-1.038 I0.37 J0.151
G1 X27.882 Z-1.108
G3 X28.282 Y170.203 Z-1.13 I0. J0.4
X27.882 Y170.603 Z-1.152 I-0.4 J0.
G1 X25.882 Z-1.222
G3 X25.482 Y170.203 Z-1.244 I0. J-0.4
X25.882 Y169.803 Z-1.266 I0.4 J0.
G1 X27.882 Z-1.336
G3 X28.282 Y170.203 Z-1.358 I0. J0.4
X27.882 Y170.603 Z-1.38 I-0.4 J0.
G1 X25.882 Z-1.449
G3 X25.482 Y170.203 Z-1.471 I0. J-0.4
X25.882 Y169.803 Z-1.493 I0.4 J0.
G1 X26.072 Z-1.5
X27.882 F200
G3 X28.282 Y170.203 I0. J0.4
X27.882 Y170.603 I-0.4 J0.
G1 X25.882
G3 X25.482 Y170.203 I0. J-0.4
X25.882 Y169.803 I0.4 J0.
G1 X26.072
G2 X26.222 Y169.703 I0. J-0.162
G3 X26.372 Y169.603 I0.15 J0.063
G1 X27.882 F100
G3 X28.482 Y170.203 I0. J0.6
X27.882 Y170.803 I-0.6 J0.
G1 X25.882
G3 X25.282 Y170.203 I0. J-0.6
X25.882 Y169.603 I0.6 J0.
G1 X26.372
G3 X26.472 Y169.703 I0. J0.1 F200
X26.446 Y169.77 I-0.1 J0.
G1 X26.104 Y170.145
X25.995 Y170.229
X25.826 Y170.538
G3 X25.731 Y170.573 I-0.067 J-0.035
X25.512 Y170.052 Z-1.522 I0.151 J-0.37 F333.3
X25.882 Y169.803 Z-1.538 I0.37 J0.151
G1 X27.882 Z-1.608
G3 X28.282 Y170.203 Z-1.63 I0. J0.4
X27.882 Y170.603 Z-1.652 I-0.4 J0.
G1 X25.882 Z-1.722
G3 X25.482 Y170.203 Z-1.744 I0. J-0.4
X25.882 Y169.803 Z-1.766 I0.4 J0.
G1 X27.882 Z-1.836
G3 X28.282 Y170.203 Z-1.858 I0. J0.4
X27.882 Y170.603 Z-1.88 I-0.4 J0.
G1 X25.882 Z-1.949
G3 X25.482 Y170.203 Z-1.971 I0. J-0.4
X25.882 Y169.803 Z-1.993 I0.4 J0.
G1 X26.072 Z-2.
X27.882 F200
G3 X28.282 Y170.203 I0. J0.4
X27.882 Y170.603 I-0.4 J0.
G1 X25.882
G3 X25.482 Y170.203 I0. J-0.4
X25.882 Y169.803 I0.4 J0.
G1 X26.072
G2 X26.222 Y169.703 I0. J-0.162
G3 X26.372 Y169.603 I0.15 J0.063
G1 X27.882 F100
G3 X28.482 Y170.203 I0. J0.6
X27.882 Y170.803 I-0.6 J0.
G1 X25.882
G3 X25.282 Y170.203 I0. J-0.6
X25.882 Y169.603 I0.6 J0.
G1 X26.372
G3 X26.472 Y169.703 I0. J0.1 F200
X26.428 Y169.786 I-0.1 J0.
G1 X26.048 Y170.035
X25.939 Y170.067
X25.603 Y170.14
G3 X25.513 Y170.083 I-0.016 J-0.073
X25.519 Y170.036 I0.073 J-0.016
X25.882 Y169.803 Z-2.016 I0.363 J0.167 F333.3
G1 X27.882 Z-2.086
G3 X28.282 Y170.203 Z-2.108 I0. J0.4
X27.882 Y170.603 Z-2.13 I-0.4 J0.
G1 X25.882 Z-2.199
G3 X25.482 Y170.203 Z-2.221 I0. J-0.4
X25.882 Y169.803 Z-2.243 I0.4 J0.
G1 X26.072 Z-2.25
X27.882 F200
G3 X28.282 Y170.203 I0. J0.4
X27.882 Y170.603 I-0.4 J0.
G1 X25.882
G3 X25.482 Y170.203 I0. J-0.4
X25.882 Y169.803 I0.4 J0.
G1 X26.072
G2 X26.222 Y169.703 I0. J-0.162
G3 X26.372 Y169.603 I0.15 J0.063
G1 X27.882 F100
G3 X28.482 Y170.203 I0. J0.6
X27.882 Y170.803 I-0.6 J0.
G1 X25.882
G3 X25.282 Y170.203 I0. J-0.6
X25.882 Y169.603 I0.6 J0.
G1 X26.372
G3 X26.468 Y169.627 Z-2.223 I0. J0.2 F250
X26.524 Y169.673 Z-2.15 I-0.096 J0.176
X26.54 Y169.695 Z-2.05 I-0.152 J0.13
G0 Z5.
X19.282 Y179.464
G1 Z2.7 F250
Y179.47 Z2.649 F333.3
Y179.489 Z2.602
Y179.52 Z2.561
Y179.56 Z2.529
Y179.606 Z2.508
Y179.657 Z2.5
Y180.703 Z2.463
G3 X18.882 Y181.103 Z2.442 I-0.4 J0.
X18.482 Y180.703 Z2.42 I0. J-0.4
G1 Y178.703 Z2.35
G3 X18.882 Y178.303 Z2.328 I0.4 J0.
X19.282 Y178.703 Z2.306 I0. J0.4
G1 Y180.703 Z2.236
G3 X18.882 Y181.103 Z2.214 I-0.4 J0.
X18.482 Y180.703 Z2.192 I0. J-0.4
G1 Y178.703 Z2.122
G3 X18.882 Y178.303 Z2.1 I0.4 J0.
X19.282 Y178.703 Z2.078 I0. J0.4
G1 Y180.703 Z2.009
G3 X18.882 Y181.103 Z1.987 I-0.4 J0.
X18.482 Y180.703 Z1.965 I0. J-0.4
G1 Y178.703 Z1.895
G3 X18.882 Y178.303 Z1.873 I0.4 J0.
X19.282 Y178.703 Z1.851 I0. J0.4
G1 Y180.703 Z1.781
G3 X18.882 Y181.103 Z1.759 I-0.4 J0.
X18.482 Y180.703 Z1.737 I0. J-0.4
G1 Y178.703 Z1.667
G3 X18.882 Y178.303 Z1.645 I0.4 J0.
X19.282 Y178.703 Z1.624 I0. J0.4
G1 Y180.703 Z1.554
G3 X18.882 Y181.103 Z1.532 I-0.4 J0.
X18.482 Y180.703 Z1.51 I0. J-0.4
G1 Y178.703 Z1.44
G3 X18.882 Y178.303 Z1.418 I0.4 J0.
X19.282 Y178.703 Z1.396 I0. J0.4
G1 Y180.703 Z1.326
G3 X18.882 Y181.103 Z1.304 I-0.4 J0.
X18.482 Y180.703 Z1.282 I0. J-0.4
G1 Y178.703 Z1.212
G3 X18.882 Y178.303 Z1.191 I0.4 J0.
X19.282 Y178.703 Z1.169 I0. J0.4
G1 Y180.703 Z1.099
G3 X18.882 Y181.103 Z1.077 I-0.4 J0.
X18.482 Y180.703 Z1.055 I0. J-0.4
G1 Y178.703 Z0.985
G3 X18.882 Y178.303 Z0.963 I0.4 J0.
X19.282 Y178.703 Z0.941 I0. J0.4
G1 Y180.703 Z0.871
G3 X18.882 Y181.103 Z0.849 I-0.4 J0.
X18.482 Y180.703 Z0.827 I0. J-0.4
G1 Y178.703 Z0.758
G3 X18.882 Y178.303 Z0.736 I0.4 J0.
X19.282 Y178.703 Z0.714 I0. J0.4
G1 Y180.703 Z0.644
G3 X18.882 Y181.103 Z0.622 I-0.4 J0.
X18.482 Y180.703 Z0.6 I0. J-0.4
G1 Y178.703 Z0.53
G3 X18.882 Y178.303 Z0.508 I0.4 J0.
X19.282 Y178.703 Z0.486 I0. J0.4
G1 Y180.703 Z0.416
G3 X18.882 Y181.103 Z0.394 I-0.4 J0.
X18.482 Y180.703 Z0.373 I0. J-0.4
G1 Y178.703 Z0.303
G3 X18.882 Y178.303 Z0.281 I0.4 J0.
X19.282 Y178.703 Z0.259 I0. J0.4
G1 Y180.703 Z0.189
G3 X18.882 Y181.103 Z0.167 I-0.4 J0.
X18.482 Y180.703 Z0.145 I0. J-0.4
G1 Y178.703 Z0.075
G3 X18.882 Y178.303 Z0.053 I0.4 J0.
X19.282 Y178.703 Z0.031 I0. J0.4
G1 Y180.703 Z-0.038
G3 X18.882 Y181.103 Z-0.06 I-0.4 J0.
X18.482 Y180.703 Z-0.082 I0. J-0.4
G1 Y178.703 Z-0.152
G3 X18.882 Y178.303 Z-0.174 I0.4 J0.
X19.282 Y178.703 Z-0.196 I0. J0.4
G1 Y180.703 Z-0.266
G3 X18.882 Y181.103 Z-0.288 I-0.4 J0.
X18.482 Y180.703 Z-0.31 I0. J-0.4
G1 Y178.703 Z-0.38
G3 X18.882 Y178.303 Z-0.402 I0.4 J0.
X19.282 Y178.703 Z-0.424 I0. J0.4
G1 Y180.703 Z-0.493
G3 X19.238 Y180.886 Z-0.5 I-0.4 J0.
X18.699 Y181.059 I-0.356 J-0.183 F200
X18.482 Y180.703 I0.183 J-0.356
G1 Y178.703
G3 X18.882 Y178.303 I0.4 J0.
X19.282 Y178.703 I0. J0.4
G1 Y180.703
G3 X19.238 Y180.886 I-0.4 J0.
G2 X19.248 Y181.044 I0.137 J0.07
G3 X19.266 Y181.128 I-0.092 J0.063
X19.219 Y181.2 I-0.11 J-0.021
X18.385 Y181.04 I-0.337 J-0.497 F100
X18.282 Y180.703 I0.497 J-0.337
G1 Y178.703
G3 X18.882 Y178.103 I0.6 J0.
X19.482 Y178.703 I0. J0.6
G1 Y180.703
G3 X19.219 Y181.2 I-0.6 J0.
X19.08 Y181.173 I-0.056 J-0.083 F200
X19.063 Y181.122 I0.083 J-0.056
G1 X19.036 Y180.583
X19.052 Y179.826
X19.136 Y179.577
G3 X19.232 Y179.531 I0.071 J0.025
X19.282 Y179.601 I-0.025 J0.071
G1 Y180.703 Z-0.538 F333.3
G3 X18.882 Y181.103 Z-0.56 I-0.4 J0.
X18.482 Y180.703 Z-0.582 I0. J-0.4
G1 Y178.703 Z-0.652
G3 X18.882 Y178.303 Z-0.674 I0.4 J0.
X19.282 Y178.703 Z-0.696 I0. J0.4
G1 Y180.703 Z-0.766
G3 X18.882 Y181.103 Z-0.788 I-0.4 J0.
X18.482 Y180.703 Z-0.81 I0. J-0.4
G1 Y178.703 Z-0.88
G3 X18.882 Y178.303 Z-0.902 I0.4 J0.
X19.282 Y178.703 Z-0.924 I0. J0.4
G1 Y180.703 Z-0.993
G3 X19.238 Y180.886 Z-1. I-0.4 J0.
X18.699 Y181.059 I-0.356 J-0.183 F200
X18.482 Y180.703 I0.183 J-0.356
G1 Y178.703
G3 X18.882 Y178.303 I0.4 J0.
X19.282 Y178.703 I0. J0.4
G1 Y180.703
G3 X19.238 Y180.886 I-0.4 J0.
G2 X19.248 Y181.044 I0.137 J0.07
G3 X19.266 Y181.128 I-0.092 J0.063
X19.219 Y181.2 I-0.11 J-0.021
X18.385 Y181.04 I-0.337 J-0.497 F100
X18.282 Y180.703 I0.497 J-0.337
G1 Y178.703
G3 X18.882 Y178.103 I0.6 J0.
X19.482 Y178.703 I0. J0.6
G1 Y180.703
G3 X19.219 Y181.2 I-0.6 J0.
X19.08 Y181.173 I-0.056 J-0.083 F200
X19.063 Y181.122 I0.083 J-0.056
G1 X19.036 Y180.583
X19.052 Y179.826
X19.136 Y179.577
G3 X19.232 Y179.531 I0.071 J0.025
X19.282 Y179.601 I-0.025 J0.071
G1 Y180.703 Z-1.038 F333.3
G3 X18.882 Y181.103 Z-1.06 I-0.4 J0.
X18.482 Y180.703 Z-1.082 I0. J-0.4
G1 Y178.703 Z-1.152
G3 X18.882 Y178.303 Z-1.174 I0.4 J0.
X19.282 Y178.703 Z-1.196 I0. J0.4
G1 Y180.703 Z-1.266
G3 X18.882 Y181.103 Z-1.288 I-0.4 J0.
X18.482 Y180.703 Z-1.31 I0. J-0.4
G1 Y178.703 Z-1.38
G3 X18.882 Y178.303 Z-1.402 I0.4 J0.
X19.282 Y178.703 Z-1.424 I0. J0.4
G1 Y180.703 Z-1.493
G3 X19.238 Y180.886 Z-1.5 I-0.4 J0.
X18.699 Y181.059 I-0.356 J-0.183 F200
X18.482 Y180.703 I0.183 J-0.356
G1 Y178.703
G3 X18.882 Y178.303 I0.4 J0.
X19.282 Y178.703 I0. J0.4
G1 Y180.703
G3 X19.238 Y180.886 I-0.4 J0.
G2 X19.248 Y181.044 I0.137 J0.07
G3 X19.266 Y181.128 I-0.092 J0.063
X19.219 Y181.2 I-0.11 J-0.021
X18.385 Y181.04 I-0.337 J-0.497 F100
X18.282 Y180.703 I0.497 J-0.337
G1 Y178.703
G3 X18.882 Y178.103 I0.6 J0.
X19.482 Y178.703 I0. J0.6
G1 Y180.703
G3 X19.219 Y181.2 I-0.6 J0.
X19.08 Y181.173 I-0.056 J-0.083 F200
X19.063 Y181.122 I0.083 J-0.056
G1 X19.036 Y180.583
X19.052 Y179.826
X19.136 Y179.577
G3 X19.232 Y179.531 I0.071 J0.025
X19.282 Y179.601 I-0.025 J0.071
G1 Y180.703 Z-1.538 F333.3
G3 X18.882 Y181.103 Z-1.56 I-0.4 J0.
X18.482 Y180.703 Z-1.582 I0. J-0.4
G1 Y178.703 Z-1.652
G3 X18.882 Y178.303 Z-1.674 I0.4 J0.
X19.282 Y178.703 Z-1.696 I0. J0.4
G1 Y180.703 Z-1.766
G3 X18.882 Y181.103 Z-1.788 I-0.4 J0.
X18.482 Y180.703 Z-1.81 I0. J-0.4
G1 Y178.703 Z-1.88
G3 X18.882 Y178.303 Z-1.902 I0.4 J0.
X19.282 Y178.703 Z-1.924 I0. J0.4
G1 Y180.703 Z-1.993
G3 X19.238 Y180.886 Z-2. I-0.4 J0.
X18.699 Y181.059 I-0.356 J-0.183 F200
X18.482 Y180.703 I0.183 J-0.356
G1 Y178.703
G3 X18.882 Y178.303 I0.4 J0.
X19.282 Y178.703 I0. J0.4
G1 Y180.703
G3 X19.238 Y180.886 I-0.4 J0.
G2 X19.248 Y181.044 I0.137 J0.07
G3 X19.266 Y181.128 I-0.092 J0.063
X19.219 Y181.2 I-0.11 J-0.021
X18.385 Y181.04 I-0.337 J-0.497 F100
X18.282 Y180.703 I0.497 J-0.337
G1 Y178.703
G3 X18.882 Y178.103 I0.6 J0.
X19.482 Y178.703 I0. J0.6
G1 Y180.703
G3 X19.219 Y181.2 I-0.6 J0.
X19.08 Y181.173 I-0.056 J-0.083 F200
X19.063 Y181.121 I0.083 J-0.056
G1 X19.043 Y180.583
X19.048 Y180.472
X19.137 Y180.221
G3 X19.233 Y180.177 I0.07 J0.026
X19.282 Y180.247 I-0.026 J0.07
G1 Y180.703 Z-2.016 F333.3
G3 X18.882 Y181.103 Z-2.038 I-0.4 J0.
X18.482 Y180.703 Z-2.06 I0. J-0.4
G1 Y178.703 Z-2.13
G3 X18.882 Y178.303 Z-2.152 I0.4 J0.
X19.282 Y178.703 Z-2.174 I0. J0.4
G1 Y180.703 Z-2.243
G3 X19.238 Y180.886 Z-2.25 I-0.4 J0.
X18.699 Y181.059 I-0.356 J-0.183 F200
X18.482 Y180.703 I0.183 J-0.356
G1 Y178.703
G3 X18.882 Y178.303 I0.4 J0.
X19.282 Y178.703 I0. J0.4
G1 Y180.703
G3 X19.238 Y180.886 I-0.4 J0.
G2 X19.248 Y181.044 I0.137 J0.07
G3 X19.266 Y181.128 I-0.092 J0.063
X19.219 Y181.2 I-0.11 J-0.021
X18.385 Y181.04 I-0.337 J-0.497 F100
X18.282 Y180.703 I0.497 J-0.337
G1 Y178.703
G3 X18.882 Y178.103 I0.6 J0.
X19.482 Y178.703 I0. J0.6
G1 Y180.703
G3 X19.219 Y181.2 I-0.6 J0.
X19.125 Y181.233 Z-2.223 I-0.112 J-0.166 F250
X19.053 Y181.227 Z-2.15 I-0.019 J-0.199
X19.028 Y181.218 Z-2.05 I0.053 J-0.193
G0 Z5.
X10.642 Y169.803
G1 Z2.7 F250
X10.648 Z2.649 F333.3
X10.667 Z2.602
X10.698 Z2.561
X10.738 Z2.529
X10.784 Z2.508
X10.835 Z2.5
X11.882 Z2.463
G3 X12.065 Y169.847 Z2.457 I0. J0.4
X12.238 Y170.386 Z2.435 I-0.183 J0.356
X11.882 Y170.603 Z2.42 I-0.356 J-0.183
G1 X9.882 Z2.35
G3 X9.482 Y170.203 Z2.328 I0. J-0.4
X9.882 Y169.803 Z2.306 I0.4 J0.
G1 X11.882 Z2.236
G3 X12.065 Y169.847 Z2.229 I0. J0.4
X12.238 Y170.386 Z2.207 I-0.183 J0.356
X11.882 Y170.603 Z2.192 I-0.356 J-0.183
G1 X9.882 Z2.122
G3 X9.482 Y170.203 Z2.1 I0. J-0.4
X9.882 Y169.803 Z2.078 I0.4 J0.
G1 X11.882 Z2.009
G3 X12.065 Y169.847 Z2.002 I0. J0.4
X12.238 Y170.386 Z1.98 I-0.183 J0.356
X11.882 Y170.603 Z1.965 I-0.356 J-0.183
G1 X9.882 Z1.895
G3 X9.482 Y170.203 Z1.873 I0. J-0.4
X9.882 Y169.803 Z1.851 I0.4 J0.
G1 X11.882 Z1.781
G3 X12.065 Y169.847 Z1.774 I0. J0.4
X12.238 Y170.386 Z1.753 I-0.183 J0.356
X11.882 Y170.603 Z1.737 I-0.356 J-0.183
G1 X9.882 Z1.667
G3 X9.482 Y170.203 Z1.645 I0. J-0.4
X9.882 Y169.803 Z1.623 I0.4 J0.
G1 X11.882 Z1.554
G3 X12.065 Y169.847 Z1.547 I0. J0.4
X12.238 Y170.386 Z1.525 I-0.183 J0.356
X11.882 Y170.603 Z1.51 I-0.356 J-0.183
G1 X9.882 Z1.44
G3 X9.482 Y170.203 Z1.418 I0. J-0.4
X9.882 Y169.803 Z1.396 I0.4 J0.
G1 X11.882 Z1.326
G3 X12.065 Y169.847 Z1.32 I0. J0.4
X12.238 Y170.386 Z1.298 I-0.183 J0.356
X11.882 Y170.603 Z1.282 I-0.356 J-0.183
G1 X9.882 Z1.212
G3 X9.482 Y170.203 Z1.191 I0. J-0.4
X9.882 Y169.803 Z1.169 I0.4 J0.
G1 X11.882 Z1.099
G3 X12.065 Y169.847 Z1.092 I0. J0.4
X12.238 Y170.386 Z1.07 I-0.183 J0.356
X11.882 Y170.603 Z1.055 I-0.356 J-0.183
G1 X9.882 Z0.985
G3 X9.482 Y170.203 Z0.963 I0. J-0.4
X9.882 Y169.803 Z0.941 I0.4 J0.
G1 X11.882 Z0.871
G3 X12.065 Y169.847 Z0.865 I0. J0.4
X12.238 Y170.386 Z0.843 I-0.183 J0.356
X11.882 Y170.603 Z0.827 I-0.356 J-0.183
G1 X9.882 Z0.758
G3 X9.482 Y170.203 Z0.736 I0. J-0.4
X9.882 Y169.803 Z0.714 I0.4 J0.
G1 X11.882 Z0.644
G3 X12.065 Y169.847 Z0.637 I0. J0.4
X12.238 Y170.386 Z0.615 I-0.183 J0.356
X11.882 Y170.603 Z0.6 I-0.356 J-0.183
G1 X9.882 Z0.53
G3 X9.482 Y170.203 Z0.508 I0. J-0.4
X9.882 Y169.803 Z0.486 I0.4 J0.
G1 X11.882 Z0.416
G3 X12.065 Y169.847 Z0.41 I0. J0.4
X12.238 Y170.386 Z0.388 I-0.183 J0.356
X11.882 Y170.603 Z0.373 I-0.356 J-0.183
G1 X9.882 Z0.303
G3 X9.482 Y170.203 Z0.281 I0. J-0.4
X9.882 Y169.803 Z0.259 I0.4 J0.
G1 X11.882 Z0.189
G3 X12.065 Y169.847 Z0.182 I0. J0.4
X12.238 Y170.386 Z0.16 I-0.183 J0.356
X11.882 Y170.603 Z0.145 I-0.356 J-0.183
G1 X9.882 Z0.075
G3 X9.482 Y170.203 Z0.053 I0. J-0.4
X9.882 Y169.803 Z0.031 I0.4 J0.
G1 X11.882 Z-0.038
G3 X12.065 Y169.847 Z-0.045 I0. J0.4
X12.238 Y170.386 Z-0.067 I-0.183 J0.356
X11.882 Y170.603 Z-0.082 I-0.356 J-0.183
G1 X9.882 Z-0.152
G3 X9.482 Y170.203 Z-0.174 I0. J-0.4
X9.882 Y169.803 Z-0.196 I0.4 J0.
G1 X11.882 Z-0.266
G3 X12.065 Y169.847 Z-0.273 I0. J0.4
X12.238 Y170.386 Z-0.294 I-0.183 J0.356
X11.882 Y170.603 Z-0.31 I-0.356 J-0.183
G1 X9.882 Z-0.38
G3 X9.482 Y170.203 Z-0.402 I0. J-0.4
X9.882 Y169.803 Z-0.424 I0.4 J0.
G1 X11.882 Z-0.493
G3 X12.065 Y169.847 Z-0.5 I0. J0.4
X12.238 Y170.386 I-0.183 J0.356 F200
X11.882 Y170.603 I-0.356 J-0.183
G1 X9.882
G3 X9.482 Y170.203 I0. J-0.4
X9.882 Y169.803 I0.4 J0.
G1 X11.882
G3 X12.065 Y169.847 I0. J0.4
G2 X12.223 Y169.837 I0.071 J-0.137
G3 X12.307 Y169.819 I0.063 J0.092
X12.379 Y169.866 I-0.021 J0.11
X12.219 Y170.7 I-0.497 J0.337 F100
X11.882 Y170.803 I-0.337 J-0.497
G1 X9.882
G3 X9.282 Y170.203 I0. J-0.6
X9.882 Y169.603 I0.6 J0.
G1 X11.882
G3 X12.379 Y169.866 I0. J0.6
X12.352 Y170.005 I-0.083 J0.056 F200
X12.301 Y170.022 I-0.056 J-0.083
G1 X11.762 Y170.049
X11.005 Y170.033
X10.755 Y169.949
G3 X10.709 Y169.853 I0.025 J-0.071
X10.78 Y169.803 I0.071 J0.025
G1 X11.882 Z-0.538 F333.3
G3 X12.065 Y169.847 Z-0.545 I0. J0.4
X12.238 Y170.386 Z-0.567 I-0.183 J0.356
X11.882 Y170.603 Z-0.582 I-0.356 J-0.183
G1 X9.882 Z-0.652
G3 X9.482 Y170.203 Z-0.674 I0. J-0.4
X9.882 Y169.803 Z-0.696 I0.4 J0.
G1 X11.882 Z-0.766
G3 X12.065 Y169.847 Z-0.773 I0. J0.4
X12.238 Y170.386 Z-0.794 I-0.183 J0.356
X11.882 Y170.603 Z-0.81 I-0.356 J-0.183
G1 X9.882 Z-0.88
G3 X9.482 Y170.203 Z-0.902 I0. J-0.4
X9.882 Y169.803 Z-0.924 I0.4 J0.
G1 X11.882 Z-0.993
G3 X12.065 Y169.847 Z-1. I0. J0.4
X12.238 Y170.386 I-0.183 J0.356 F200
X11.882 Y170.603 I-0.356 J-0.183
G1 X9.882
G3 X9.482 Y170.203 I0. J-0.4
X9.882 Y169.803 I0.4 J0.
G1 X11.882
G3 X12.065 Y169.847 I0. J0.4
G2 X12.223 Y169.837 I0.071 J-0.137
G3 X12.307 Y169.819 I0.063 J0.092
X12.379 Y169.866 I-0.021 J0.11
X12.219 Y170.7 I-0.497 J0.337 F100
X11.882 Y170.803 I-0.337 J-0.497
G1 X9.882
G3 X9.282 Y170.203 I0. J-0.6
X9.882 Y169.603 I0.6 J0.
G1 X11.882
G3 X12.379 Y169.866 I0. J0.6
X12.352 Y170.005 I-0.083 J0.056 F200
X12.301 Y170.022 I-0.056 J-0.083
G1 X11.762 Y170.049
X11.005 Y170.033
X10.755 Y169.949
G3 X10.709 Y169.853 I0.025 J-0.071
X10.78 Y169.803 I0.071 J0.025
G1 X11.882 Z-1.038 F333.3
G3 X12.065 Y169.847 Z-1.045 I0. J0.4
X12.238 Y170.386 Z-1.067 I-0.183 J0.356
X11.882 Y170.603 Z-1.082 I-0.356 J-0.183
G1 X9.882 Z-1.152
G3 X9.482 Y170.203 Z-1.174 I0. J-0.4
X9.882 Y169.803 Z-1.196 I0.4 J0.
G1 X11.882 Z-1.266
G3 X12.065 Y169.847 Z-1.273 I0. J0.4
X12.238 Y170.386 Z-1.294 I-0.183 J0.356
X11.882 Y170.603 Z-1.31 I-0.356 J-0.183
G1 X9.882 Z-1.38
G3 X9.482 Y170.203 Z-1.402 I0. J-0.4
X9.882 Y169.803 Z-1.424 I0.4 J0.
G1 X11.882 Z-1.493
G3 X12.065 Y169.847 Z-1.5 I0. J0.4
X12.238 Y170.386 I-0.183 J0.356 F200
X11.882 Y170.603 I-0.356 J-0.183
G1 X9.882
G3 X9.482 Y170.203 I0. J-0.4
X9.882 Y169.803 I0.4 J0.
G1 X11.882
G3 X12.065 Y169.847 I0. J0.4
G2 X12.223 Y169.837 I0.071 J-0.137
G3 X12.307 Y169.819 I0.063 J0.092
X12.379 Y169.866 I-0.021 J0.11
X12.219 Y170.7 I-0.497 J0.337 F100
X11.882 Y170.803 I-0.337 J-0.497
G1 X9.882
G3 X9.282 Y170.203 I0. J-0.6
X9.882 Y169.603 I0.6 J0.
G1 X11.882
G3 X12.379 Y169.866 I0. J0.6
X12.352 Y170.005 I-0.083 J0.056 F200
X12.301 Y170.022 I-0.056 J-0.083
G1 X11.762 Y170.049
X11.005 Y170.033
X10.755 Y169.949
G3 X10.709 Y169.853 I0.025 J-0.071
X10.78 Y169.803 I0.071 J0.025
G1 X11.882 Z-1.538 F333.3
G3 X12.065 Y169.847 Z-1.545 I0. J0.4
X12.238 Y170.386 Z-1.567 I-0.183 J0.356
X11.882 Y170.603 Z-1.582 I-0.356 J-0.183
G1 X9.882 Z-1.652
G3 X9.482 Y170.203 Z-1.674 I0. J-0.4
X9.882 Y169.803 Z-1.696 I0.4 J0.
G1 X11.882 Z-1.766
G3 X12.065 Y169.847 Z-1.773 I0. J0.4
X12.238 Y170.386 Z-1.794 I-0.183 J0.356
X11.882 Y170.603 Z-1.81 I-0.356 J-0.183
G1 X9.882 Z-1.88
G3 X9.482 Y170.203 Z-1.902 I0. J-0.4
X9.882 Y169.803 Z-1.924 I0.4 J0.
G1 X11.882 Z-1.993
G3 X12.065 Y169.847 Z-2. I0. J0.4
X12.238 Y170.386 I-0.183 J0.356 F200
X11.882 Y170.603 I-0.356 J-0.183
G1 X9.882
G3 X9.482 Y170.203 I0. J-0.4
X9.882 Y169.803 I0.4 J0.
G1 X11.882
G3 X12.065 Y169.847 I0. J0.4
G2 X12.223 Y169.837 I0.071 J-0.137
G3 X12.307 Y169.819 I0.063 J0.092
X12.379 Y169.866 I-0.021 J0.11
X12.219 Y170.7 I-0.497 J0.337 F100
X11.882 Y170.803 I-0.337 J-0.497
G1 X9.882
G3 X9.282 Y170.203 I0. J-0.6
X9.882 Y169.603 I0.6 J0.
G1 X11.882
G3 X12.379 Y169.866 I0. J0.6
X12.352 Y170.005 I-0.083 J0.056 F200
X12.299 Y170.022 I-0.056 J-0.083
G1 X11.762 Y170.042
X11.651 Y170.037
X11.4 Y169.948
G3 X11.356 Y169.852 I0.026 J-0.07
X11.426 Y169.803 I0.07 J0.026
G1 X11.882 Z-2.016 F333.3
G3 X12.065 Y169.847 Z-2.023 I0. J0.4
X12.238 Y170.386 Z-2.044 I-0.183 J0.356
X11.882 Y170.603 Z-2.06 I-0.356 J-0.183
G1 X9.882 Z-2.13
G3 X9.482 Y170.203 Z-2.152 I0. J-0.4
X9.882 Y169.803 Z-2.174 I0.4 J0.
G1 X11.882 Z-2.243
G3 X12.065 Y169.847 Z-2.25 I0. J0.4
X12.238 Y170.386 I-0.183 J0.356 F200
X11.882 Y170.603 I-0.356 J-0.183
G1 X9.882
G3 X9.482 Y170.203 I0. J-0.4
X9.882 Y169.803 I0.4 J0.
G1 X11.882
G3 X12.065 Y169.847 I0. J0.4
G2 X12.223 Y169.837 I0.071 J-0.137
G3 X12.307 Y169.819 I0.063 J0.092
X12.379 Y169.866 I-0.021 J0.11
X12.219 Y170.7 I-0.497 J0.337 F100
X11.882 Y170.803 I-0.337 J-0.497
G1 X9.882
G3 X9.282 Y170.203 I0. J-0.6
X9.882 Y169.603 I0.6 J0.
G1 X11.882
G3 X12.379 Y169.866 I0. J0.6
X12.412 Y169.959 Z-2.223 I-0.166 J0.112 F250
X12.406 Y170.032 Z-2.15 I-0.199 J0.019
X12.397 Y170.057 Z-2.05 I-0.193 J-0.053
G0 Z5.
X18.482 Y27.364
G1 Z2.7 F250
G3 X18.484 Y27.339 Z2.602 I0.4 J0.017 F333.3
X18.498 Y27.27 Z2.529 I0.398 J0.043
X18.536 Y27.181 Z2.5 I0.384 J0.112
X19.083 Y27.036 Z2.478 I0.346 J0.201
X19.282 Y27.382 Z2.463 I-0.201 J0.346
G1 Y29.382 Z2.394
G3 X18.882 Y29.782 Z2.372 I-0.4 J0.
X18.482 Y29.382 Z2.35 I0. J-0.4
G1 Y27.382 Z2.28
G3 X18.882 Y26.982 Z2.258 I0.4 J0.
X19.282 Y27.382 Z2.236 I0. J0.4
G1 Y29.382 Z2.166
G3 X18.882 Y29.782 Z2.144 I-0.4 J0.
X18.482 Y29.382 Z2.122 I0. J-0.4
G1 Y27.382 Z2.052
G3 X18.882 Y26.982 Z2.031 I0.4 J0.
X19.282 Y27.382 Z2.009 I0. J0.4
G1 Y29.382 Z1.939
G3 X18.882 Y29.782 Z1.917 I-0.4 J0.
X18.482 Y29.382 Z1.895 I0. J-0.4
G1 Y27.382 Z1.825
G3 X18.882 Y26.982 Z1.803 I0.4 J0.
X19.282 Y27.382 Z1.781 I0. J0.4
G1 Y29.382 Z1.711
G3 X18.882 Y29.782 Z1.689 I-0.4 J0.
X18.482 Y29.382 Z1.667 I0. J-0.4
G1 Y27.382 Z1.598
G3 X18.882 Y26.982 Z1.576 I0.4 J0.
X19.282 Y27.382 Z1.554 I0. J0.4
G1 Y29.382 Z1.484
G3 X18.882 Y29.782 Z1.462 I-0.4 J0.
X18.482 Y29.382 Z1.44 I0. J-0.4
G1 Y27.382 Z1.37
G3 X18.882 Y26.982 Z1.348 I0.4 J0.
X19.282 Y27.382 Z1.326 I0. J0.4
G1 Y29.382 Z1.256
G3 X18.882 Y29.782 Z1.234 I-0.4 J0.
X18.482 Y29.382 Z1.212 I0. J-0.4
G1 Y27.382 Z1.143
G3 X18.882 Y26.982 Z1.121 I0.4 J0.
X19.282 Y27.382 Z1.099 I0. J0.4
G1 Y29.382 Z1.029
G3 X18.882 Y29.782 Z1.007 I-0.4 J0.
X18.482 Y29.382 Z0.985 I0. J-0.4
G1 Y27.382 Z0.915
G3 X18.882 Y26.982 Z0.893 I0.4 J0.
X19.282 Y27.382 Z0.871 I0. J0.4
G1 Y29.382 Z0.801
G3 X18.882 Y29.782 Z0.78 I-0.4 J0.
X18.482 Y29.382 Z0.758 I0. J-0.4
G1 Y27.382 Z0.688
G3 X18.882 Y26.982 Z0.666 I0.4 J0.
X19.282 Y27.382 Z0.644 I0. J0.4
G1 Y29.382 Z0.574
G3 X18.882 Y29.782 Z0.552 I-0.4 J0.
X18.482 Y29.382 Z0.53 I0. J-0.4
G1 Y27.382 Z0.46
G3 X18.882 Y26.982 Z0.438 I0.4 J0.
X19.282 Y27.382 Z0.416 I0. J0.4
G1 Y29.382 Z0.347
G3 X18.882 Y29.782 Z0.325 I-0.4 J0.
X18.482 Y29.382 Z0.303 I0. J-0.4
G1 Y27.382 Z0.233
G3 X18.882 Y26.982 Z0.211 I0.4 J0.
X19.282 Y27.382 Z0.189 I0. J0.4
G1 Y29.382 Z0.119
G3 X18.882 Y29.782 Z0.097 I-0.4 J0.
X18.482 Y29.382 Z0.075 I0. J-0.4
G1 Y27.382 Z0.005
G3 X18.882 Y26.982 Z-0.017 I0.4 J0.
X19.282 Y27.382 Z-0.038 I0. J0.4
G1 Y29.382 Z-0.108
G3 X18.882 Y29.782 Z-0.13 I-0.4 J0.
X18.482 Y29.382 Z-0.152 I0. J-0.4
G1 Y27.382 Z-0.222
G3 X18.882 Y26.982 Z-0.244 I0.4 J0.
X19.282 Y27.382 Z-0.266 I0. J0.4
G1 Y29.382 Z-0.336
G3 X18.882 Y29.782 Z-0.358 I-0.4 J0.
X18.482 Y29.382 Z-0.38 I0. J-0.4
G1 Y27.382 Z-0.449
G3 X18.882 Y26.982 Z-0.471 I0.4 J0.
X19.282 Y27.382 Z-0.493 I0. J0.4
G1 Y27.572 Z-0.5
Y29.382 F200
G3 X18.882 Y29.782 I-0.4 J0.
X18.482 Y29.382 I0. J-0.4
G1 Y27.382
G3 X18.882 Y26.982 I0.4 J0.
X19.282 Y27.382 I0. J0.4
G1 Y27.572
G2 X19.382 Y27.722 I0.163 J0.
G3 X19.482 Y27.872 I-0.063 J0.15
G1 Y29.382 F100
G3 X18.882 Y29.982 I-0.6 J0.
X18.282 Y29.382 I0. J-0.6
G1 Y27.382
G3 X18.882 Y26.782 I0.6 J0.
X19.482 Y27.382 I0. J0.6
G1 Y27.872
G3 X19.382 Y27.972 I-0.1 J0. F200
X19.315 Y27.946 I0. J-0.1
G1 X18.94 Y27.604
X18.856 Y27.495
X18.546 Y27.326
G3 X18.512 Y27.231 I0.035 J-0.067
X19.033 Y27.012 Z-0.522 I0.37 J0.151 F333.3
X19.282 Y27.382 Z-0.538 I-0.151 J0.37
G1 Y29.382 Z-0.608
G3 X18.882 Y29.782 Z-0.63 I-0.4 J0.
X18.482 Y29.382 Z-0.652 I0. J-0.4
G1 Y27.382 Z-0.722
G3 X18.882 Y26.982 Z-0.744 I0.4 J0.
X19.282 Y27.382 Z-0.766 I0. J0.4
G1 Y29.382 Z-0.836
G3 X18.882 Y29.782 Z-0.858 I-0.4 J0.
X18.482 Y29.382 Z-0.88 I0. J-0.4
G1 Y27.382 Z-0.949
G3 X18.882 Y26.982 Z-0.971 I0.4 J0.
X19.282 Y27.382 Z-0.993 I0. J0.4
G1 Y27.572 Z-1.
Y29.382 F200
G3 X18.882 Y29.782 I-0.4 J0.
X18.482 Y29.382 I0. J-0.4
G1 Y27.382
G3 X18.882 Y26.982 I0.4 J0.
X19.282 Y27.382 I0. J0.4
G1 Y27.572
G2 X19.382 Y27.722 I0.163 J0.
G3 X19.482 Y27.872 I-0.063 J0.15
G1 Y29.382 F100
G3 X18.882 Y29.982 I-0.6 J0.
X18.282 Y29.382 I0. J-0.6
G1 Y27.382
G3 X18.882 Y26.782 I0.6 J0.
X19.482 Y27.382 I0. J0.6
G1 Y27.872
G3 X19.382 Y27.972 I-0.1 J0. F200
X19.315 Y27.946 I0. J-0.1
G1 X18.94 Y27.604
X18.856 Y27.495
X18.546 Y27.326
G3 X18.512 Y27.231 I0.035 J-0.067
X19.033 Y27.012 Z-1.022 I0.37 J0.151 F333.3
X19.282 Y27.382 Z-1.038 I-0.151 J0.37
G1 Y29.382 Z-1.108
G3 X18.882 Y29.782 Z-1.13 I-0.4 J0.
X18.482 Y29.382 Z-1.152 I0. J-0.4
G1 Y27.382 Z-1.222
G3 X18.882 Y26.982 Z-1.244 I0.4 J0.
X19.282 Y27.382 Z-1.266 I0. J0.4
G1 Y29.382 Z-1.336
G3 X18.882 Y29.782 Z-1.358 I-0.4 J0.
X18.482 Y29.382 Z-1.38 I0. J-0.4
G1 Y27.382 Z-1.449
G3 X18.882 Y26.982 Z-1.471 I0.4 J0.
X19.282 Y27.382 Z-1.493 I0. J0.4
G1 Y27.572 Z-1.5
Y29.382 F200
G3 X18.882 Y29.782 I-0.4 J0.
X18.482 Y29.382 I0. J-0.4
G1 Y27.382
G3 X18.882 Y26.982 I0.4 J0.
X19.282 Y27.382 I0. J0.4
G1 Y27.572
G2 X19.382 Y27.722 I0.163 J0.
G3 X19.482 Y27.872 I-0.063 J0.15
G1 Y29.382 F100
G3 X18.882 Y29.982 I-0.6 J0.
X18.282 Y29.382 I0. J-0.6
G1 Y27.382
G3 X18.882 Y26.782 I0.6 J0.
X19.482 Y27.382 I0. J0.6
G1 Y27.872
G3 X19.382 Y27.972 I-0.1 J0. F200
X19.315 Y27.946 I0. J-0.1
G1 X18.94 Y27.604
X18.856 Y27.495
X18.546 Y27.326
G3 X18.512 Y27.231 I0.035 J-0.067
X19.033 Y27.012 Z-1.522 I0.37 J0.151 F333.3
X19.282 Y27.382 Z-1.538 I-0.151 J0.37
G1 Y29.382 Z-1.608
G3 X18.882 Y29.782 Z-1.63 I-0.4 J0.
X18.482 Y29.382 Z-1.652 I0. J-0.4
G1 Y27.382 Z-1.722
G3 X18.882 Y26.982 Z-1.744 I0.4 J0.
X19.282 Y27.382 Z-1.766 I0. J0.4
G1 Y29.382 Z-1.836
G3 X18.882 Y29.782 Z-1.858 I-0.4 J0.
X18.482 Y29.382 Z-1.88 I0. J-0.4
G1 Y27.382 Z-1.949
G3 X18.882 Y26.982 Z-1.971 I0.4 J0.
X19.282 Y27.382 Z-1.993 I0. J0.4
G1 Y27.572 Z-2.
Y29.382 F200
G3 X18.882 Y29.782 I-0.4 J0.
X18.482 Y29.382 I0. J-0.4
G1 Y27.382
G3 X18.882 Y26.982 I0.4 J0.
X19.282 Y27.382 I0. J0.4
G1 Y27.572
G2 X19.382 Y27.722 I0.163 J0.
G3 X19.482 Y27.872 I-0.063 J0.15
G1 Y29.382 F100
G3 X18.882 Y29.982 I-0.6 J0.
X18.282 Y29.382 I0. J-0.6
G1 Y27.382
G3 X18.882 Y26.782 I0.6 J0.
X19.482 Y27.382 I0. J0.6
G1 Y27.872
G3 X19.382 Y27.972 I-0.1 J0. F200
X19.299 Y27.928 I0. J-0.1
G1 X19.05 Y27.548
X19.018 Y27.439
X18.944 Y27.103
G3 X19.002 Y27.013 I0.073 J-0.016
X19.049 Y27.019 I0.016 J0.073
X19.282 Y27.382 Z-2.016 I-0.167 J0.363 F333.3
G1 Y29.382 Z-2.086
G3 X18.882 Y29.782 Z-2.108 I-0.4 J0.
X18.482 Y29.382 Z-2.13 I0. J-0.4
G1 Y27.382 Z-2.199
G3 X18.882 Y26.982 Z-2.221 I0.4 J0.
X19.282 Y27.382 Z-2.243 I0. J0.4
G1 Y27.572 Z-2.25
Y29.382 F200
G3 X18.882 Y29.782 I-0.4 J0.
X18.482 Y29.382 I0. J-0.4
G1 Y27.382
G3 X18.882 Y26.982 I0.4 J0.
X19.282 Y27.382 I0. J0.4
G1 Y27.572
G2 X19.382 Y27.722 I0.163 J0.
G3 X19.482 Y27.872 I-0.063 J0.15
G1 Y29.382 F100
G3 X18.882 Y29.982 I-0.6 J0.
X18.282 Y29.382 I0. J-0.6
G1 Y27.382
G3 X18.882 Y26.782 I0.6 J0.
X19.482 Y27.382 I0. J0.6
G1 Y27.872
G3 X19.457 Y27.968 Z-2.223 I-0.2 J0. F250
X19.411 Y28.024 Z-2.15 I-0.176 J-0.096
X19.39 Y28.04 Z-2.05 I-0.13 J-0.152
G0 Z5.
X18.612 Y19.772
G1 Z2.7 F250
G3 X18.587 Y19.779 Z2.602 I-0.256 J-0.89 F333.3
X18.519 Y19.794 Z2.529 I-0.232 J-0.897
X18.422 Y19.806 Z2.5 I-0.163 J-0.912
X17.432 Y18.949 Z2.449 I-0.067 J-0.924
X18.289 Y17.958 Z2.398 I0.924 J-0.067
X19.279 Y18.815 Z2.348 I0.067 J0.924
X18.422 Y19.806 Z2.297 I-0.924 J0.067
X17.432 Y18.949 Z2.246 I-0.067 J-0.924
X18.289 Y17.958 Z2.195 I0.924 J-0.067
X19.279 Y18.815 Z2.144 I0.067 J0.924
X18.422 Y19.806 Z2.094 I-0.924 J0.067
X17.432 Y18.949 Z2.043 I-0.067 J-0.924
X18.289 Y17.958 Z1.992 I0.924 J-0.067
X19.279 Y18.815 Z1.941 I0.067 J0.924
X18.422 Y19.806 Z1.89 I-0.924 J0.067
X17.432 Y18.949 Z1.839 I-0.067 J-0.924
X18.289 Y17.958 Z1.789 I0.924 J-0.067
X19.279 Y18.815 Z1.738 I0.067 J0.924
X18.422 Y19.806 Z1.687 I-0.924 J0.067
X17.432 Y18.949 Z1.636 I-0.067 J-0.924
X18.289 Y17.958 Z1.585 I0.924 J-0.067
X19.279 Y18.815 Z1.535 I0.067 J0.924
X18.422 Y19.806 Z1.484 I-0.924 J0.067
X17.432 Y18.949 Z1.433 I-0.067 J-0.924
X18.289 Y17.958 Z1.382 I0.924 J-0.067
X19.279 Y18.815 Z1.331 I0.067 J0.924
X18.422 Y19.806 Z1.281 I-0.924 J0.067
X17.432 Y18.949 Z1.23 I-0.067 J-0.924
X18.289 Y17.958 Z1.179 I0.924 J-0.067
X19.279 Y18.815 Z1.128 I0.067 J0.924
X18.422 Y19.806 Z1.077 I-0.924 J0.067
X17.432 Y18.949 Z1.027 I-0.067 J-0.924
X18.289 Y17.958 Z0.976 I0.924 J-0.067
X19.279 Y18.815 Z0.925 I0.067 J0.924
X18.422 Y19.806 Z0.874 I-0.924 J0.067
X17.432 Y18.949 Z0.823 I-0.067 J-0.924
X18.289 Y17.958 Z0.773 I0.924 J-0.067
X19.279 Y18.815 Z0.722 I0.067 J0.924
X18.422 Y19.806 Z0.671 I-0.924 J0.067
X17.432 Y18.949 Z0.62 I-0.067 J-0.924
X18.289 Y17.958 Z0.569 I0.924 J-0.067
X19.279 Y18.815 Z0.518 I0.067 J0.924
X18.422 Y19.806 Z0.468 I-0.924 J0.067
X17.432 Y18.949 Z0.417 I-0.067 J-0.924
X18.289 Y17.958 Z0.366 I0.924 J-0.067
X19.279 Y18.815 Z0.315 I0.067 J0.924
X18.422 Y19.806 Z0.264 I-0.924 J0.067
X17.432 Y18.949 Z0.214 I-0.067 J-0.924
X18.289 Y17.958 Z0.163 I0.924 J-0.067
X19.279 Y18.815 Z0.112 I0.067 J0.924
X18.422 Y19.806 Z0.061 I-0.924 J0.067
X17.432 Y18.949 Z0.01 I-0.067 J-0.924
X18.289 Y17.958 Z-0.04 I0.924 J-0.067
X19.279 Y18.815 Z-0.091 I0.067 J0.924
X18.422 Y19.806 Z-0.142 I-0.924 J0.067
X17.432 Y18.949 Z-0.193 I-0.067 J-0.924
X18.289 Y17.958 Z-0.244 I0.924 J-0.067
X19.279 Y18.815 Z-0.294 I0.067 J0.924
X18.422 Y19.806 Z-0.345 I-0.924 J0.067
X17.432 Y18.949 Z-0.396 I-0.067 J-0.924
X18.289 Y17.958 Z-0.447 I0.924 J-0.067
X18.987 Y18.204 Z-0.473 I0.067 J0.924
X19.282 Y18.882 Z-0.5 I-0.631 J0.678
X18.882 Y19.282 I-0.4 J0. F100
X18.482 Y18.882 I0. J-0.4
X19.832 Y17.532 I1.35 J0.
X21.182 Y18.882 I0. J1.35
X18.882 Y21.182 I-2.3 J0.
X16.582 Y18.882 I0. J-2.3
X18.982 Y16.482 I2.4 J0.
X21.382 Y18.882 I0. J2.4
X18.882 Y21.382 I-2.5 J0.
X16.382 Y18.882 I0. J-2.5
X18.882 Y16.382 I2.5 J0.
X21.382 Y18.882 I0. J2.5
X21.351 Y18.954 I-0.1 J0. F200
X21.277 Y18.982 I-0.069 J-0.072
G1 X19.405 Y18.89
X17.549 Y18.777
G3 X17.455 Y18.672 I0.006 J-0.1
X17.458 Y18.653 I0.1 J0.006
X18.585 Y17.984 Z-0.551 I0.898 J0.229 F333.3
X19.253 Y19.111 Z-0.602 I-0.229 J0.898
X18.127 Y19.779 Z-0.652 I-0.898 J-0.229
X17.458 Y18.653 Z-0.703 I0.229 J-0.898
X18.585 Y17.984 Z-0.754 I0.898 J0.229
X19.253 Y19.111 Z-0.805 I-0.229 J0.898
X18.127 Y19.779 Z-0.856 I-0.898 J-0.229
X17.458 Y18.653 Z-0.906 I0.229 J-0.898
X18.585 Y17.984 Z-0.957 I0.898 J0.229
X19.282 Y18.882 Z-1. I-0.229 J0.898
X18.882 Y19.282 I-0.4 J0. F100
X18.482 Y18.882 I0. J-0.4
X19.832 Y17.532 I1.35 J0.
X21.182 Y18.882 I0. J1.35
X18.882 Y21.182 I-2.3 J0.
X16.582 Y18.882 I0. J-2.3
X18.982 Y16.482 I2.4 J0.
X21.382 Y18.882 I0. J2.4
X18.882 Y21.382 I-2.5 J0.
X16.382 Y18.882 I0. J-2.5
X18.882 Y16.382 I2.5 J0.
X21.382 Y18.882 I0. J2.5
X21.351 Y18.954 I-0.1 J0. F200
X21.277 Y18.982 I-0.069 J-0.072
G1 X19.405 Y18.89
X17.549 Y18.777
G3 X17.455 Y18.672 I0.006 J-0.1
X17.458 Y18.653 I0.1 J0.006
X18.585 Y17.984 Z-1.051 I0.898 J0.229 F333.3
X19.253 Y19.111 Z-1.102 I-0.229 J0.898
X18.127 Y19.779 Z-1.152 I-0.898 J-0.229
X17.458 Y18.653 Z-1.203 I0.229 J-0.898
X18.585 Y17.984 Z-1.254 I0.898 J0.229
X19.253 Y19.111 Z-1.305 I-0.229 J0.898
X18.127 Y19.779 Z-1.356 I-0.898 J-0.229
X17.458 Y18.653 Z-1.406 I0.229 J-0.898
X18.585 Y17.984 Z-1.457 I0.898 J0.229
X19.282 Y18.882 Z-1.5 I-0.229 J0.898
X18.882 Y19.282 I-0.4 J0. F100
X18.482 Y18.882 I0. J-0.4
X19.832 Y17.532 I1.35 J0.
X21.182 Y18.882 I0. J1.35
X18.882 Y21.182 I-2.3 J0.
X16.582 Y18.882 I0. J-2.3
X18.982 Y16.482 I2.4 J0.
X21.382 Y18.882 I0. J2.4
X18.882 Y21.382 I-2.5 J0.
X16.382 Y18.882 I0. J-2.5
X18.882 Y16.382 I2.5 J0.
X21.382 Y18.882 I0. J2.5
X21.351 Y18.954 I-0.1 J0. F200
X21.277 Y18.982 I-0.069 J-0.072
G1 X19.405 Y18.89
X17.549 Y18.777
G3 X17.455 Y18.672 I0.006 J-0.1
X17.458 Y18.653 I0.1 J0.006
X18.585 Y17.984 Z-1.551 I0.898 J0.229 F333.3
X19.253 Y19.111 Z-1.602 I-0.229 J0.898
X18.127 Y19.779 Z-1.652 I-0.898 J-0.229
X17.458 Y18.653 Z-1.703 I0.229 J-0.898
X18.585 Y17.984 Z-1.754 I0.898 J0.229
X19.253 Y19.111 Z-1.805 I-0.229 J0.898
X18.127 Y19.779 Z-1.856 I-0.898 J-0.229
X17.458 Y18.653 Z-1.906 I0.229 J-0.898
X18.585 Y17.984 Z-1.957 I0.898 J0.229
X19.282 Y18.882 Z-2. I-0.229 J0.898
X18.882 Y19.282 I-0.4 J0. F100
X18.482 Y18.882 I0. J-0.4
X19.832 Y17.532 I1.35 J0.
X21.182 Y18.882 I0. J1.35
X18.882 Y21.182 I-2.3 J0.
X16.582 Y18.882 I0. J-2.3
X18.982 Y16.482 I2.4 J0.
X21.382 Y18.882 I0. J2.4
X18.882 Y21.382 I-2.5 J0.
X16.382 Y18.882 I0. J-2.5
X18.882 Y16.382 I2.5 J0.
X21.382 Y18.882 I0. J2.5
X20.456 Y19.808 Z-2.046 I-0.926 J0. F333.3
G1 X18.356 Z-2.112
G3 X17.429 Y18.882 Z-2.158 I0. J-0.926
X18.356 Y17.956 Z-2.204 I0.926 J0.
X19.282 Y18.882 Z-2.25 I0. J0.926
X18.882 Y19.282 I-0.4 J0. F100
X18.482 Y18.882 I0. J-0.4
X19.832 Y17.532 I1.35 J0.
X21.182 Y18.882 I0. J1.35
X18.882 Y21.182 I-2.3 J0.
X16.582 Y18.882 I0. J-2.3
X18.982 Y16.482 I2.4 J0.
X21.382 Y18.882 I0. J2.4
X18.882 Y21.382 I-2.5 J0.
X16.382 Y18.882 I0. J-2.5
X18.882 Y16.382 I2.5 J0.
X21.382 Y18.882 I0. J2.5
X21.357 Y18.978 Z-2.223 I-0.2 J0. F250
X21.311 Y19.034 Z-2.15 I-0.176 J-0.096
X21.29 Y19.05 Z-2.05 I-0.13 J-0.152
G0 Z5.
X27.899 Y18.482
G1 Z2.7 F250
G3 X27.925 Y18.484 Z2.602 I-0.017 J0.4 F333.3
X27.994 Y18.498 Z2.529 I-0.043 J0.398
X28.083 Y18.536 Z2.5 I-0.112 J0.384
X28.228 Y19.083 Z2.478 I-0.201 J0.346
X27.882 Y19.282 Z2.463 I-0.346 J-0.201
G1 X25.882 Z2.394
G3 X25.482 Y18.882 Z2.372 I0. J-0.4
X25.882 Y18.482 Z2.35 I0.4 J0.
G1 X27.882 Z2.28
G3 X28.282 Y18.882 Z2.258 I0. J0.4
X27.882 Y19.282 Z2.236 I-0.4 J0.
G1 X25.882 Z2.166
G3 X25.482 Y18.882 Z2.144 I0. J-0.4
X25.882 Y18.482 Z2.122 I0.4 J0.
G1 X27.882 Z2.052
G3 X28.282 Y18.882 Z2.031 I0. J0.4
X27.882 Y19.282 Z2.009 I-0.4 J0.
G1 X25.882 Z1.939
G3 X25.482 Y18.882 Z1.917 I0. J-0.4
X25.882 Y18.482 Z1.895 I0.4 J0.
G1 X27.882 Z1.825
G3 X28.282 Y18.882 Z1.803 I0. J0.4
X27.882 Y19.282 Z1.781 I-0.4 J0.
G1 X25.882 Z1.711
G3 X25.482 Y18.882 Z1.689 I0. J-0.4
X25.882 Y18.482 Z1.667 I0.4 J0.
G1 X27.882 Z1.598
G3 X28.282 Y18.882 Z1.576 I0. J0.4
X27.882 Y19.282 Z1.554 I-0.4 J0.
G1 X25.882 Z1.484
G3 X25.482 Y18.882 Z1.462 I0. J-0.4
X25.882 Y18.482 Z1.44 I0.4 J0.
G1 X27.882 Z1.37
G3 X28.282 Y18.882 Z1.348 I0. J0.4
X27.882 Y19.282 Z1.326 I-0.4 J0.
G1 X25.882 Z1.256
G3 X25.482 Y18.882 Z1.234 I0. J-0.4
X25.882 Y18.482 Z1.212 I0.4 J0.
G1 X27.882 Z1.143
G3 X28.282 Y18.882 Z1.121 I0. J0.4
X27.882 Y19.282 Z1.099 I-0.4 J0.
G1 X25.882 Z1.029
G3 X25.482 Y18.882 Z1.007 I0. J-0.4
X25.882 Y18.482 Z0.985 I0.4 J0.
G1 X27.882 Z0.915
G3 X28.282 Y18.882 Z0.893 I0. J0.4
X27.882 Y19.282 Z0.871 I-0.4 J0.
G1 X25.882 Z0.801
G3 X25.482 Y18.882 Z0.78 I0. J-0.4
X25.882 Y18.482 Z0.758 I0.4 J0.
G1 X27.882 Z0.688
G3 X28.282 Y18.882 Z0.666 I0. J0.4
X27.882 Y19.282 Z0.644 I-0.4 J0.
G1 X25.882 Z0.574
G3 X25.482 Y18.882 Z0.552 I0. J-0.4
X25.882 Y18.482 Z0.53 I0.4 J0.
G1 X27.882 Z0.46
G3 X28.282 Y18.882 Z0.438 I0. J0.4
X27.882 Y19.282 Z0.416 I-0.4 J0.
G1 X25.882 Z0.347
G3 X25.482 Y18.882 Z0.325 I0. J-0.4
X25.882 Y18.482 Z0.303 I0.4 J0.
G1 X27.882 Z0.233
G3 X28.282 Y18.882 Z0.211 I0. J0.4
X27.882 Y19.282 Z0.189 I-0.4 J0.
G1 X25.882 Z0.119
G3 X25.482 Y18.882 Z0.097 I0. J-0.4
X25.882 Y18.482 Z0.075 I0.4 J0.
G1 X27.882 Z0.005
G3 X28.282 Y18.882 Z-0.017 I0. J0.4
X27.882 Y19.282 Z-0.038 I-0.4 J0.
G1 X25.882 Z-0.108
G3 X25.482 Y18.882 Z-0.13 I0. J-0.4
X25.882 Y18.482 Z-0.152 I0.4 J0.
G1 X27.882 Z-0.222
G3 X28.282 Y18.882 Z-0.244 I0. J0.4
X27.882 Y19.282 Z-0.266 I-0.4 J0.
G1 X25.882 Z-0.336
G3 X25.482 Y18.882 Z-0.358 I0. J-0.4
X25.882 Y18.482 Z-0.38 I0.4 J0.
G1 X27.882 Z-0.449
G3 X28.282 Y18.882 Z-0.471 I0. J0.4
X27.882 Y19.282 Z-0.493 I-0.4 J0.
G1 X27.692 Z-0.5
X25.882 F200
G3 X25.482 Y18.882 I0. J-0.4
X25.882 Y18.482 I0.4 J0.
G1 X27.882
G3 X28.282 Y18.882 I0. J0.4
X27.882 Y19.282 I-0.4 J0.
G1 X27.692
G2 X27.542 Y19.382 I0. J0.163
G3 X27.392 Y19.482 I-0.15 J-0.063
G1 X25.882 F100
G3 X25.282 Y18.882 I0. J-0.6
X25.882 Y18.282 I0.6 J0.
G1 X27.882
G3 X28.482 Y18.882 I0. J0.6
X27.882 Y19.482 I-0.6 J0.
G1 X27.392
G3 X27.292 Y19.382 I0. J-0.1 F200
X27.318 Y19.315 I0.1 J0.
G1 X27.66 Y18.94
X27.769 Y18.856
X27.938 Y18.546
G3 X28.033 Y18.512 I0.067 J0.035
X28.252 Y19.033 Z-0.522 I-0.151 J0.37 F333.3
X27.882 Y19.282 Z-0.538 I-0.37 J-0.151
G1 X25.882 Z-0.608
G3 X25.482 Y18.882 Z-0.63 I0. J-0.4
X25.882 Y18.482 Z-0.652 I0.4 J0.
G1 X27.882 Z-0.722
G3 X28.282 Y18.882 Z-0.744 I0. J0.4
X27.882 Y19.282 Z-0.766 I-0.4 J0.
G1 X25.882 Z-0.836
G3 X25.482 Y18.882 Z-0.858 I0. J-0.4
X25.882 Y18.482 Z-0.88 I0.4 J0.
G1 X27.882 Z-0.949
G3 X28.282 Y18.882 Z-0.971 I0. J0.4
X27.882 Y19.282 Z-0.993 I-0.4 J0.
G1 X27.692 Z-1.
X25.882 F200
G3 X25.482 Y18.882 I0. J-0.4
X25.882 Y18.482 I0.4 J0.
G1 X27.882
G3 X28.282 Y18.882 I0. J0.4
X27.882 Y19.282 I-0.4 J0.
G1 X27.692
G2 X27.542 Y19.382 I0. J0.163
G3 X27.392 Y19.482 I-0.15 J-0.063
G1 X25.882 F100
G3 X25.282 Y18.882 I0. J-0.6
X25.882 Y18.282 I0.6 J0.
G1 X27.882
G3 X28.482 Y18.882 I0. J0.6
X27.882 Y19.482 I-0.6 J0.
G1 X27.392
G3 X27.292 Y19.382 I0. J-0.1 F200
X27.318 Y19.315 I0.1 J0.
G1 X27.66 Y18.94
X27.769 Y18.856
X27.938 Y18.546
G3 X28.033 Y18.512 I0.067 J0.035
X28.252 Y19.033 Z-1.022 I-0.151 J0.37 F333.3
X27.882 Y19.282 Z-1.038 I-0.37 J-0.151
G1 X25.882 Z-1.108
G3 X25.482 Y18.882 Z-1.13 I0. J-0.4
X25.882 Y18.482 Z-1.152 I0.4 J0.
G1 X27.882 Z-1.222
G3 X28.282 Y18.882 Z-1.244 I0. J0.4
X27.882 Y19.282 Z-1.266 I-0.4 J0.
G1 X25.882 Z-1.336
G3 X25.482 Y18.882 Z-1.358 I0. J-0.4
X25.882 Y18.482 Z-1.38 I0.4 J0.
G1 X27.882 Z-1.449
G3 X28.282 Y18.882 Z-1.471 I0. J0.4
X27.882 Y19.282 Z-1.493 I-0.4 J0.
G1 X27.692 Z-1.5
X25.882 F200
G3 X25.482 Y18.882 I0. J-0.4
X25.882 Y18.482 I0.4 J0.
G1 X27.882
G3 X28.282 Y18.882 I0. J0.4
X27.882 Y19.282 I-0.4 J0.
G1 X27.692
G2 X27.542 Y19.382 I0. J0.163
G3 X27.392 Y19.482 I-0.15 J-0.063
G1 X25.882 F100
G3 X25.282 Y18.882 I0. J-0.6
X25.882 Y18.282 I0.6 J0.
G1 X27.882
G3 X28.482 Y18.882 I0. J0.6
X27.882 Y19.482 I-0.6 J0.
G1 X27.392
G3 X27.292 Y19.382 I0. J-0.1 F200
X27.318 Y19.315 I0.1 J0.
G1 X27.66 Y18.94
X27.769 Y18.856
X27.938 Y18.546
G3 X28.033 Y18.512 I0.067 J0.035
X28.252 Y19.033 Z-1.522 I-0.151 J0.37 F333.3
X27.882 Y19.282 Z-1.538 I-0.37 J-0.151
G1 X25.882 Z-1.608
G3 X25.482 Y18.882 Z-1.63 I0. J-0.4
X25.882 Y18.482 Z-1.652 I0.4 J0.
G1 X27.882 Z-1.722
G3 X28.282 Y18.882 Z-1.744 I0. J0.4
X27.882 Y19.282 Z-1.766 I-0.4 J0.
G1 X25.882 Z-1.836
G3 X25.482 Y18.882 Z-1.858 I0. J-0.4
X25.882 Y18.482 Z-1.88 I0.4 J0.
G1 X27.882 Z-1.949
G3 X28.282 Y18.882 Z-1.971 I0. J0.4
X27.882 Y19.282 Z-1.993 I-0.4 J0.
G1 X27.692 Z-2.
X25.882 F200
G3 X25.482 Y18.882 I0. J-0.4
X25.882 Y18.482 I0.4 J0.
G1 X27.882
G3 X28.282 Y18.882 I0. J0.4
X27.882 Y19.282 I-0.4 J0.
G1 X27.692
G2 X27.542 Y19.382 I0. J0.163
G3 X27.392 Y19.482 I-0.15 J-0.063
G1 X25.882 F100
G3 X25.282 Y18.882 I0. J-0.6
X25.882 Y18.282 I0.6 J0.
G1 X27.882
G3 X28.482 Y18.882 I0. J0.6
X27.882 Y19.482 I-0.6 J0.
G1 X27.392
G3 X27.292 Y19.382 I0. J-0.1 F200
X27.336 Y19.299 I0.1 J0.
G1 X27.716 Y19.05
X27.825 Y19.018
X28.161 Y18.944
G3 X28.25 Y19.002 I0.016 J0.073
X28.245 Y19.049 I-0.073 J0.016
X27.882 Y19.282 Z-2.016 I-0.363 J-0.167 F333.3
G1 X25.882 Z-2.086
G3 X25.482 Y18.882 Z-2.108 I0. J-0.4
X25.882 Y18.482 Z-2.13 I0.4 J0.
G1 X27.882 Z-2.199
G3 X28.282 Y18.882 Z-2.221 I0. J0.4
X27.882 Y19.282 Z-2.243 I-0.4 J0.
G1 X27.692 Z-2.25
X25.882 F200
G3 X25.482 Y18.882 I0. J-0.4
X25.882 Y18.482 I0.4 J0.
G1 X27.882
G3 X28.282 Y18.882 I0. J0.4
X27.882 Y19.282 I-0.4 J0.
G1 X27.692
G2 X27.542 Y19.382 I0. J0.163
G3 X27.392 Y19.482 I-0.15 J-0.063
G1 X25.882 F100
G3 X25.282 Y18.882 I0. J-0.6
X25.882 Y18.282 I0.6 J0.
G1 X27.882
G3 X28.482 Y18.882 I0. J0.6
X27.882 Y19.482 I-0.6 J0.
G1 X27.392
G3 X27.296 Y19.457 Z-2.223 I0. J-0.2 F250
X27.24 Y19.411 Z-2.15 I0.096 J-0.176
X27.224 Y19.39 Z-2.05 I0.152 J-0.13
G0 Z5.
X19.282 Y9.142
G1 Z2.7 F250
Y9.148 Z2.649 F333.3
Y9.167 Z2.602
Y9.198 Z2.561
Y9.238 Z2.529
Y9.284 Z2.508
Y9.335 Z2.5
Y10.382 Z2.463
G3 X18.882 Y10.782 Z2.441 I-0.4 J0.
X18.482 Y10.382 Z2.42 I0. J-0.4
G1 Y8.382 Z2.35
G3 X18.882 Y7.982 Z2.328 I0.4 J0.
X19.282 Y8.382 Z2.306 I0. J0.4
G1 Y10.382 Z2.236
G3 X18.882 Y10.782 Z2.214 I-0.4 J0.
X18.482 Y10.382 Z2.192 I0. J-0.4
G1 Y8.382 Z2.122
G3 X18.882 Y7.982 Z2.1 I0.4 J0.
X19.282 Y8.382 Z2.078 I0. J0.4
G1 Y10.382 Z2.009
G3 X18.882 Y10.782 Z1.987 I-0.4 J0.
X18.482 Y10.382 Z1.965 I0. J-0.4
G1 Y8.382 Z1.895
G3 X18.882 Y7.982 Z1.873 I0.4 J0.
X19.282 Y8.382 Z1.851 I0. J0.4
G1 Y10.382 Z1.781
G3 X18.882 Y10.782 Z1.759 I-0.4 J0.
X18.482 Y10.382 Z1.737 I0. J-0.4
G1 Y8.382 Z1.667
G3 X18.882 Y7.982 Z1.645 I0.4 J0.
X19.282 Y8.382 Z1.623 I0. J0.4
G1 Y10.382 Z1.554
G3 X18.882 Y10.782 Z1.532 I-0.4 J0.
X18.482 Y10.382 Z1.51 I0. J-0.4
G1 Y8.382 Z1.44
G3 X18.882 Y7.982 Z1.418 I0.4 J0.
X19.282 Y8.382 Z1.396 I0. J0.4
G1 Y10.382 Z1.326
G3 X18.882 Y10.782 Z1.304 I-0.4 J0.
X18.482 Y10.382 Z1.282 I0. J-0.4
G1 Y8.382 Z1.212
G3 X18.882 Y7.982 Z1.191 I0.4 J0.
X19.282 Y8.382 Z1.169 I0. J0.4
G1 Y10.382 Z1.099
G3 X18.882 Y10.782 Z1.077 I-0.4 J0.
X18.482 Y10.382 Z1.055 I0. J-0.4
G1 Y8.382 Z0.985
G3 X18.882 Y7.982 Z0.963 I0.4 J0.
X19.282 Y8.382 Z0.941 I0. J0.4
G1 Y10.382 Z0.871
G3 X18.882 Y10.782 Z0.849 I-0.4 J0.
X18.482 Y10.382 Z0.827 I0. J-0.4
G1 Y8.382 Z0.758
G3 X18.882 Y7.982 Z0.736 I0.4 J0.
X19.282 Y8.382 Z0.714 I0. J0.4
G1 Y10.382 Z0.644
G3 X18.882 Y10.782 Z0.622 I-0.4 J0.
X18.482 Y10.382 Z0.6 I0. J-0.4
G1 Y8.382 Z0.53
G3 X18.882 Y7.982 Z0.508 I0.4 J0.
X19.282 Y8.382 Z0.486 I0. J0.4
G1 Y10.382 Z0.416
G3 X18.882 Y10.782 Z0.394 I-0.4 J0.
X18.482 Y10.382 Z0.373 I0. J-0.4
G1 Y8.382 Z0.303
G3 X18.882 Y7.982 Z0.281 I0.4 J0.
X19.282 Y8.382 Z0.259 I0. J0.4
G1 Y10.382 Z0.189
G3 X18.882 Y10.782 Z0.167 I-0.4 J0.
X18.482 Y10.382 Z0.145 I0. J-0.4
G1 Y8.382 Z0.075
G3 X18.882 Y7.982 Z0.053 I0.4 J0.
X19.282 Y8.382 Z0.031 I0. J0.4
G1 Y10.382 Z-0.038
G3 X18.882 Y10.782 Z-0.06 I-0.4 J0.
X18.482 Y10.382 Z-0.082 I0. J-0.4
G1 Y8.382 Z-0.152
G3 X18.882 Y7.982 Z-0.174 I0.4 J0.
X19.282 Y8.382 Z-0.196 I0. J0.4
G1 Y10.382 Z-0.266
G3 X18.882 Y10.782 Z-0.288 I-0.4 J0.
X18.482 Y10.382 Z-0.31 I0. J-0.4
G1 Y8.382 Z-0.38
G3 X18.882 Y7.982 Z-0.402 I0.4 J0.
X19.282 Y8.382 Z-0.424 I0. J0.4
G1 Y10.382 Z-0.493
G3 X19.238 Y10.565 Z-0.5 I-0.4 J0.
X18.699 Y10.738 I-0.356 J-0.183 F200
X18.482 Y10.382 I0.183 J-0.356
G1 Y8.382
G3 X18.882 Y7.982 I0.4 J0.
X19.282 Y8.382 I0. J0.4
G1 Y10.382
G3 X19.238 Y10.565 I-0.4 J0.
G2 X19.248 Y10.723 I0.137 J0.071
G3 X19.266 Y10.807 I-0.092 J0.063
X19.219 Y10.879 I-0.11 J-0.021
X18.385 Y10.719 I-0.337 J-0.497 F100
X18.282 Y10.382 I0.497 J-0.337
G1 Y8.382
G3 X18.882 Y7.782 I0.6 J0.
X19.482 Y8.382 I0. J0.6
G1 Y10.382
G3 X19.219 Y10.879 I-0.6 J0.
X19.08 Y10.852 I-0.056 J-0.083 F200
X19.063 Y10.801 I0.083 J-0.056
G1 X19.036 Y10.262
X19.052 Y9.505
X19.136 Y9.255
G3 X19.232 Y9.209 I0.071 J0.025
X19.282 Y9.28 I-0.025 J0.071
G1 Y10.382 Z-0.538 F333.3
G3 X18.882 Y10.782 Z-0.56 I-0.4 J0.
X18.482 Y10.382 Z-0.582 I0. J-0.4
G1 Y8.382 Z-0.652
G3 X18.882 Y7.982 Z-0.674 I0.4 J0.
X19.282 Y8.382 Z-0.696 I0. J0.4
G1 Y10.382 Z-0.766
G3 X18.882 Y10.782 Z-0.788 I-0.4 J0.
X18.482 Y10.382 Z-0.81 I0. J-0.4
G1 Y8.382 Z-0.88
G3 X18.882 Y7.982 Z-0.902 I0.4 J0.
X19.282 Y8.382 Z-0.924 I0. J0.4
G1 Y10.382 Z-0.993
G3 X19.238 Y10.565 Z-1. I-0.4 J0.
X18.699 Y10.738 I-0.356 J-0.183 F200
X18.482 Y10.382 I0.183 J-0.356
G1 Y8.382
G3 X18.882 Y7.982 I0.4 J0.
X19.282 Y8.382 I0. J0.4
G1 Y10.382
G3 X19.238 Y10.565 I-0.4 J0.
G2 X19.248 Y10.723 I0.137 J0.071
G3 X19.266 Y10.807 I-0.092 J0.063
X19.219 Y10.879 I-0.11 J-0.021
X18.385 Y10.719 I-0.337 J-0.497 F100
X18.282 Y10.382 I0.497 J-0.337
G1 Y8.382
G3 X18.882 Y7.782 I0.6 J0.
X19.482 Y8.382 I0. J0.6
G1 Y10.382
G3 X19.219 Y10.879 I-0.6 J0.
X19.08 Y10.852 I-0.056 J-0.083 F200
X19.063 Y10.801 I0.083 J-0.056
G1 X19.036 Y10.262
X19.052 Y9.505
X19.136 Y9.255
G3 X19.232 Y9.209 I0.071 J0.025
X19.282 Y9.28 I-0.025 J0.071
G1 Y10.382 Z-1.038 F333.3
G3 X18.882 Y10.782 Z-1.06 I-0.4 J0.
X18.482 Y10.382 Z-1.082 I0. J-0.4
G1 Y8.382 Z-1.152
G3 X18.882 Y7.982 Z-1.174 I0.4 J0.
X19.282 Y8.382 Z-1.196 I0. J0.4
G1 Y10.382 Z-1.266
G3 X18.882 Y10.782 Z-1.288 I-0.4 J0.
X18.482 Y10.382 Z-1.31 I0. J-0.4
G1 Y8.382 Z-1.38
G3 X18.882 Y7.982 Z-1.402 I0.4 J0.
X19.282 Y8.382 Z-1.424 I0. J0.4
G1 Y10.382 Z-1.493
G3 X19.238 Y10.565 Z-1.5 I-0.4 J0.
X18.699 Y10.738 I-0.356 J-0.183 F200
X18.482 Y10.382 I0.183 J-0.356
G1 Y8.382
G3 X18.882 Y7.982 I0.4 J0.
X19.282 Y8.382 I0. J0.4
G1 Y10.382
G3 X19.238 Y10.565 I-0.4 J0.
G2 X19.248 Y10.723 I0.137 J0.071
G3 X19.266 Y10.807 I-0.092 J0.063
X19.219 Y10.879 I-0.11 J-0.021
X18.385 Y10.719 I-0.337 J-0.497 F100
X18.282 Y10.382 I0.497 J-0.337
G1 Y8.382
G3 X18.882 Y7.782 I0.6 J0.
X19.482 Y8.382 I0. J0.6
G1 Y10.382
G3 X19.219 Y10.879 I-0.6 J0.
X19.08 Y10.852 I-0.056 J-0.083 F200
X19.063 Y10.801 I0.083 J-0.056
G1 X19.036 Y10.262
X19.052 Y9.505
X19.136 Y9.255
G3 X19.232 Y9.209 I0.071 J0.025
X19.282 Y9.28 I-0.025 J0.071
G1 Y10.382 Z-1.538 F333.3
G3 X18.882 Y10.782 Z-1.56 I-0.4 J0.
X18.482 Y10.382 Z-1.582 I0. J-0.4
G1 Y8.382 Z-1.652
G3 X18.882 Y7.982 Z-1.674 I0.4 J0.
X19.282 Y8.382 Z-1.696 I0. J0.4
G1 Y10.382 Z-1.766
G3 X18.882 Y10.782 Z-1.788 I-0.4 J0.
X18.482 Y10.382 Z-1.81 I0. J-0.4
G1 Y8.382 Z-1.88
G3 X18.882 Y7.982 Z-1.902 I0.4 J0.
X19.282 Y8.382 Z-1.924 I0. J0.4
G1 Y10.382 Z-1.993
G3 X19.238 Y10.565 Z-2. I-0.4 J0.
X18.699 Y10.738 I-0.356 J-0.183 F200
X18.482 Y10.382 I0.183 J-0.356
G1 Y8.382
G3 X18.882 Y7.982 I0.4 J0.
X19.282 Y8.382 I0. J0.4
G1 Y10.382
G3 X19.238 Y10.565 I-0.4 J0.
G2 X19.248 Y10.723 I0.137 J0.071
G3 X19.266 Y10.807 I-0.092 J0.063
X19.219 Y10.879 I-0.11 J-0.021
X18.385 Y10.719 I-0.337 J-0.497 F100
X18.282 Y10.382 I0.497 J-0.337
G1 Y8.382
G3 X18.882 Y7.782 I0.6 J0.
X19.482 Y8.382 I0. J0.6
G1 Y10.382
G3 X19.219 Y10.879 I-0.6 J0.
X19.08 Y10.852 I-0.056 J-0.083 F200
X19.063 Y10.799 I0.083 J-0.056
G1 X19.043 Y10.262
X19.048 Y10.151
X19.137 Y9.9
G3 X19.233 Y9.856 I0.07 J0.026
X19.282 Y9.926 I-0.026 J0.07
G1 Y10.382 Z-2.016 F333.3
G3 X18.882 Y10.782 Z-2.038 I-0.4 J0.
X18.482 Y10.382 Z-2.06 I0. J-0.4
G1 Y8.382 Z-2.13
G3 X18.882 Y7.982 Z-2.152 I0.4 J0.
X19.282 Y8.382 Z-2.174 I0. J0.4
G1 Y10.382 Z-2.243
G3 X19.238 Y10.565 Z-2.25 I-0.4 J0.
X18.699 Y10.738 I-0.356 J-0.183 F200
X18.482 Y10.382 I0.183 J-0.356
G1 Y8.382
G3 X18.882 Y7.982 I0.4 J0.
X19.282 Y8.382 I0. J0.4
G1 Y10.382
G3 X19.238 Y10.565 I-0.4 J0.
G2 X19.248 Y10.723 I0.137 J0.071
G3 X19.266 Y10.807 I-0.092 J0.063
X19.219 Y10.879 I-0.11 J-0.021
X18.385 Y10.719 I-0.337 J-0.497 F100
X18.282 Y10.382 I0.497 J-0.337
G1 Y8.382
G3 X18.882 Y7.782 I0.6 J0.
X19.482 Y8.382 I0. J0.6
G1 Y10.382
G3 X19.219 Y10.879 I-0.6 J0.
X19.125 Y10.912 Z-2.223 I-0.112 J-0.166 F250
X19.053 Y10.906 Z-2.15 I-0.019 J-0.199
X19.028 Y10.897 Z-2.05 I0.053 J-0.193
G0 Z5.
X9.866 Y19.282
G1 Z2.7 F250
G3 X9.84 Y19.28 Z2.602 I0.016 J-0.4 F333.3
X9.771 Y19.266 Z2.529 I0.042 J-0.398
X9.682 Y19.228 Z2.5 I0.111 J-0.384
X9.536 Y18.682 Z2.478 I0.2 J-0.346
X9.882 Y18.482 Z2.463 I0.346 J0.2
G1 X11.882 Z2.394
G3 X12.282 Y18.882 Z2.372 I0. J0.4
X11.882 Y19.282 Z2.35 I-0.4 J0.
G1 X9.882 Z2.28
G3 X9.482 Y18.882 Z2.258 I0. J-0.4
X9.882 Y18.482 Z2.236 I0.4 J0.
G1 X11.882 Z2.166
G3 X12.282 Y18.882 Z2.144 I0. J0.4
X11.882 Y19.282 Z2.122 I-0.4 J0.
G1 X9.882 Z2.052
G3 X9.482 Y18.882 Z2.03 I0. J-0.4
X9.882 Y18.482 Z2.009 I0.4 J0.
G1 X11.882 Z1.939
G3 X12.282 Y18.882 Z1.917 I0. J0.4
X11.882 Y19.282 Z1.895 I-0.4 J0.
G1 X9.882 Z1.825
G3 X9.482 Y18.882 Z1.803 I0. J-0.4
X9.882 Y18.482 Z1.781 I0.4 J0.
G1 X11.882 Z1.711
G3 X12.282 Y18.882 Z1.689 I0. J0.4
X11.882 Y19.282 Z1.667 I-0.4 J0.
G1 X9.882 Z1.598
G3 X9.482 Y18.882 Z1.576 I0. J-0.4
X9.882 Y18.482 Z1.554 I0.4 J0.
G1 X11.882 Z1.484
G3 X12.282 Y18.882 Z1.462 I0. J0.4
X11.882 Y19.282 Z1.44 I-0.4 J0.
G1 X9.882 Z1.37
G3 X9.482 Y18.882 Z1.348 I0. J-0.4
X9.882 Y18.482 Z1.326 I0.4 J0.
G1 X11.882 Z1.256
G3 X12.282 Y18.882 Z1.234 I0. J0.4
X11.882 Y19.282 Z1.212 I-0.4 J0.
G1 X9.882 Z1.143
G3 X9.482 Y18.882 Z1.121 I0. J-0.4
X9.882 Y18.482 Z1.099 I0.4 J0.
G1 X11.882 Z1.029
G3 X12.282 Y18.882 Z1.007 I0. J0.4
X11.882 Y19.282 Z0.985 I-0.4 J0.
G1 X9.882 Z0.915
G3 X9.482 Y18.882 Z0.893 I0. J-0.4
X9.882 Y18.482 Z0.871 I0.4 J0.
G1 X11.882 Z0.801
G3 X12.282 Y18.882 Z0.78 I0. J0.4
X11.882 Y19.282 Z0.758 I-0.4 J0.
G1 X9.882 Z0.688
G3 X9.482 Y18.882 Z0.666 I0. J-0.4
X9.882 Y18.482 Z0.644 I0.4 J0.
G1 X11.882 Z0.574
G3 X12.282 Y18.882 Z0.552 I0. J0.4
X11.882 Y19.282 Z0.53 I-0.4 J0.
G1 X9.882 Z0.46
G3 X9.482 Y18.882 Z0.438 I0. J-0.4
X9.882 Y18.482 Z0.416 I0.4 J0.
G1 X11.882 Z0.347
G3 X12.282 Y18.882 Z0.325 I0. J0.4
X11.882 Y19.282 Z0.303 I-0.4 J0.
G1 X9.882 Z0.233
G3 X9.482 Y18.882 Z0.211 I0. J-0.4
X9.882 Y18.482 Z0.189 I0.4 J0.
G1 X11.882 Z0.119
G3 X12.282 Y18.882 Z0.097 I0. J0.4
X11.882 Y19.282 Z0.075 I-0.4 J0.
G1 X9.882 Z0.005
G3 X9.482 Y18.882 Z-0.017 I0. J-0.4
X9.882 Y18.482 Z-0.038 I0.4 J0.
G1 X11.882 Z-0.108
G3 X12.282 Y18.882 Z-0.13 I0. J0.4
X11.882 Y19.282 Z-0.152 I-0.4 J0.
G1 X9.882 Z-0.222
G3 X9.482 Y18.882 Z-0.244 I0. J-0.4
X9.882 Y18.482 Z-0.266 I0.4 J0.
G1 X11.882 Z-0.336
G3 X12.282 Y18.882 Z-0.358 I0. J0.4
X11.882 Y19.282 Z-0.38 I-0.4 J0.
G1 X9.882 Z-0.449
G3 X9.482 Y18.882 Z-0.471 I0. J-0.4
X9.882 Y18.482 Z-0.493 I0.4 J0.
G1 X10.072 Z-0.5
X11.882 F200
G3 X12.282 Y18.882 I0. J0.4
X11.882 Y19.282 I-0.4 J0.
G1 X9.882
G3 X9.482 Y18.882 I0. J-0.4
X9.882 Y18.482 I0.4 J0.
G1 X10.072
G2 X10.222 Y18.382 I0. J-0.162
G3 X10.372 Y18.282 I0.15 J0.063
G1 X11.882 F100
G3 X12.482 Y18.882 I0. J0.6
X11.882 Y19.482 I-0.6 J0.
G1 X9.882
G3 X9.282 Y18.882 I0. J-0.6
X9.882 Y18.282 I0.6 J0.
G1 X10.372
G3 X10.472 Y18.382 I0. J0.1 F200
X10.446 Y18.449 I-0.1 J0.
G1 X10.104 Y18.824
X9.995 Y18.907
X9.826 Y19.217
G3 X9.731 Y19.252 I-0.067 J-0.035
X9.512 Y18.731 Z-0.522 I0.151 J-0.37 F333.3
X9.882 Y18.482 Z-0.538 I0.37 J0.151
G1 X11.882 Z-0.608
G3 X12.282 Y18.882 Z-0.63 I0. J0.4
X11.882 Y19.282 Z-0.652 I-0.4 J0.
G1 X9.882 Z-0.722
G3 X9.482 Y18.882 Z-0.744 I0. J-0.4
X9.882 Y18.482 Z-0.766 I0.4 J0.
G1 X11.882 Z-0.836
G3 X12.282 Y18.882 Z-0.858 I0. J0.4
X11.882 Y19.282 Z-0.88 I-0.4 J0.
G1 X9.882 Z-0.949
G3 X9.482 Y18.882 Z-0.971 I0. J-0.4
X9.882 Y18.482 Z-0.993 I0.4 J0.
G1 X10.072 Z-1.
X11.882 F200
G3 X12.282 Y18.882 I0. J0.4
X11.882 Y19.282 I-0.4 J0.
G1 X9.882
G3 X9.482 Y18.882 I0. J-0.4
X9.882 Y18.482 I0.4 J0.
G1 X10.072
G2 X10.222 Y18.382 I0. J-0.162
G3 X10.372 Y18.282 I0.15 J0.063
G1 X11.882 F100
G3 X12.482 Y18.882 I0. J0.6
X11.882 Y19.482 I-0.6 J0.
G1 X9.882
G3 X9.282 Y18.882 I0. J-0.6
X9.882 Y18.282 I0.6 J0.
G1 X10.372
G3 X10.472 Y18.382 I0. J0.1 F200
X10.446 Y18.449 I-0.1 J0.
G1 X10.104 Y18.824
X9.995 Y18.907
X9.826 Y19.217
G3 X9.731 Y19.252 I-0.067 J-0.035
X9.512 Y18.731 Z-1.022 I0.151 J-0.37 F333.3
X9.882 Y18.482 Z-1.038 I0.37 J0.151
G1 X11.882 Z-1.108
G3 X12.282 Y18.882 Z-1.13 I0. J0.4
X11.882 Y19.282 Z-1.152 I-0.4 J0.
G1 X9.882 Z-1.222
G3 X9.482 Y18.882 Z-1.244 I0. J-0.4
X9.882 Y18.482 Z-1.266 I0.4 J0.
G1 X11.882 Z-1.336
G3 X12.282 Y18.882 Z-1.358 I0. J0.4
X11.882 Y19.282 Z-1.38 I-0.4 J0.
G1 X9.882 Z-1.449
G3 X9.482 Y18.882 Z-1.471 I0. J-0.4
X9.882 Y18.482 Z-1.493 I0.4 J0.
G1 X10.072 Z-1.5
X11.882 F200
G3 X12.282 Y18.882 I0. J0.4
X11.882 Y19.282 I-0.4 J0.
G1 X9.882
G3 X9.482 Y18.882 I0. J-0.4
X9.882 Y18.482 I0.4 J0.
G1 X10.072
G2 X10.222 Y18.382 I0. J-0.162
G3 X10.372 Y18.282 I0.15 J0.063
G1 X11.882 F100
G3 X12.482 Y18.882 I0. J0.6
X11.882 Y19.482 I-0.6 J0.
G1 X9.882
G3 X9.282 Y18.882 I0. J-0.6
X9.882 Y18.282 I0.6 J0.
G1 X10.372
G3 X10.472 Y18.382 I0. J0.1 F200
X10.446 Y18.449 I-0.1 J0.
G1 X10.104 Y18.824
X9.995 Y18.907
X9.826 Y19.217
G3 X9.731 Y19.252 I-0.067 J-0.035
X9.512 Y18.731 Z-1.522 I0.151 J-0.37 F333.3
X9.882 Y18.482 Z-1.538 I0.37 J0.151
G1 X11.882 Z-1.608
G3 X12.282 Y18.882 Z-1.63 I0. J0.4
X11.882 Y19.282 Z-1.652 I-0.4 J0.
G1 X9.882 Z-1.722
G3 X9.482 Y18.882 Z-1.744 I0. J-0.4
X9.882 Y18.482 Z-1.766 I0.4 J0.
G1 X11.882 Z-1.836
G3 X12.282 Y18.882 Z-1.858 I0. J0.4
X11.882 Y19.282 Z-1.88 I-0.4 J0.
G1 X9.882 Z-1.949
G3 X9.482 Y18.882 Z-1.971 I0. J-0.4
X9.882 Y18.482 Z-1.993 I0.4 J0.
G1 X10.072 Z-2.
X11.882 F200
G3 X12.282 Y18.882 I0. J0.4
X11.882 Y19.282 I-0.4 J0.
G1 X9.882
G3 X9.482 Y18.882 I0. J-0.4
X9.882 Y18.482 I0.4 J0.
G1 X10.072
G2 X10.222 Y18.382 I0. J-0.162
G3 X10.372 Y18.282 I0.15 J0.063
G1 X11.882 F100
G3 X12.482 Y18.882 I0. J0.6
X11.882 Y19.482 I-0.6 J0.
G1 X9.882
G3 X9.282 Y18.882 I0. J-0.6
X9.882 Y18.282 I0.6 J0.
G1 X10.372
G3 X10.472 Y18.382 I0. J0.1 F200
X10.428 Y18.465 I-0.1 J0.
G1 X10.048 Y18.714
X9.939 Y18.746
X9.603 Y18.819
G3 X9.513 Y18.762 I-0.016 J-0.073
X9.519 Y18.715 I0.073 J-0.016
X9.882 Y18.482 Z-2.016 I0.363 J0.167 F333.3
G1 X11.882 Z-2.086
G3 X12.282 Y18.882 Z-2.108 I0. J0.4
X11.882 Y19.282 Z-2.13 I-0.4 J0.
G1 X9.882 Z-2.199
G3 X9.482 Y18.882 Z-2.221 I0. J-0.4
