(hole-test)
(Machine)
(  vendor: Stepcraft)
(  model: 600)
(  description: stepcraft uccnc)
(T1  D=1.07 CR=0. - ZMIN=-2.25 - flat end mill)
G90
G0 G53 Z0.

(2D Pocket7)
T1 M6 (flat end mill D=1.07 Solid Carbide-End Mill O1,0mm)
(Fishtail, Diamond toothed)
S20000 M3
G64
G54
G43 H1
G0 X18.677 Y10.449
Z15.
Z5.
G1 Z2.607 F250
X18.65 Y10.436 Z2.533 F125.3
G3 X18.588 Y10.398 Z2.5 I0.232 J-0.452
X18.467 Y9.689 Z2.472 I0.294 J-0.414
X19.176 Y9.569 Z2.444 I0.414 J0.294
X19.296 Y10.278 Z2.416 I-0.294 J0.414
X18.588 Y10.398 Z2.388 I-0.414 J-0.294
X18.467 Y9.689 Z2.361 I0.294 J-0.414
X19.176 Y9.569 Z2.333 I0.414 J0.294
X19.296 Y10.278 Z2.305 I-0.294 J0.414
X18.588 Y10.398 Z2.277 I-0.414 J-0.294
X18.467 Y9.689 Z2.249 I0.294 J-0.414
X19.176 Y9.569 Z2.221 I0.414 J0.294
X19.296 Y10.278 Z2.193 I-0.294 J0.414
X18.588 Y10.398 Z2.165 I-0.414 J-0.294
X18.467 Y9.689 Z2.138 I0.294 J-0.414
X19.176 Y9.569 Z2.11 I0.414 J0.294
X19.296 Y10.278 Z2.082 I-0.294 J0.414
X18.588 Y10.398 Z2.054 I-0.414 J-0.294
X18.467 Y9.689 Z2.026 I0.294 J-0.414
X19.176 Y9.569 Z1.998 I0.414 J0.294
X19.296 Y10.278 Z1.97 I-0.294 J0.414
X18.588 Y10.398 Z1.942 I-0.414 J-0.294
X18.467 Y9.689 Z1.915 I0.294 J-0.414
X19.176 Y9.569 Z1.887 I0.414 J0.294
X19.296 Y10.278 Z1.859 I-0.294 J0.414
X18.588 Y10.398 Z1.831 I-0.414 J-0.294
X18.467 Y9.689 Z1.803 I0.294 J-0.414
X19.176 Y9.569 Z1.775 I0.414 J0.294
X19.296 Y10.278 Z1.747 I-0.294 J0.414
X18.588 Y10.398 Z1.719 I-0.414 J-0.294
X18.467 Y9.689 Z1.692 I0.294 J-0.414
X19.176 Y9.569 Z1.664 I0.414 J0.294
X19.296 Y10.278 Z1.636 I-0.294 J0.414
X18.588 Y10.398 Z1.608 I-0.414 J-0.294
X18.467 Y9.689 Z1.58 I0.294 J-0.414
X19.176 Y9.569 Z1.552 I0.414 J0.294
X19.296 Y10.278 Z1.524 I-0.294 J0.414
X18.588 Y10.398 Z1.496 I-0.414 J-0.294
X18.467 Y9.689 Z1.468 I0.294 J-0.414
X19.176 Y9.569 Z1.441 I0.414 J0.294
X19.296 Y10.278 Z1.413 I-0.294 J0.414
X18.588 Y10.398 Z1.385 I-0.414 J-0.294
X18.467 Y9.689 Z1.357 I0.294 J-0.414
X19.176 Y9.569 Z1.329 I0.414 J0.294
X19.296 Y10.278 Z1.301 I-0.294 J0.414
X18.588 Y10.398 Z1.273 I-0.414 J-0.294
X18.467 Y9.689 Z1.245 I0.294 J-0.414
X19.176 Y9.569 Z1.218 I0.414 J0.294
X19.296 Y10.278 Z1.19 I-0.294 J0.414
X18.588 Y10.398 Z1.162 I-0.414 J-0.294
X18.467 Y9.689 Z1.134 I0.294 J-0.414
X19.176 Y9.569 Z1.106 I0.414 J0.294
X19.296 Y10.278 Z1.078 I-0.294 J0.414
X18.588 Y10.398 Z1.05 I-0.414 J-0.294
X18.467 Y9.689 Z1.022 I0.294 J-0.414
X19.176 Y9.569 Z0.995 I0.414 J0.294
X19.296 Y10.278 Z0.967 I-0.294 J0.414
X18.588 Y10.398 Z0.939 I-0.414 J-0.294
X18.467 Y9.689 Z0.911 I0.294 J-0.414
X19.176 Y9.569 Z0.883 I0.414 J0.294
X19.296 Y10.278 Z0.855 I-0.294 J0.414
X18.588 Y10.398 Z0.827 I-0.414 J-0.294
X18.467 Y9.689 Z0.799 I0.294 J-0.414
X19.176 Y9.569 Z0.771 I0.414 J0.294
X19.296 Y10.278 Z0.744 I-0.294 J0.414
X18.588 Y10.398 Z0.716 I-0.414 J-0.294
X18.467 Y9.689 Z0.688 I0.294 J-0.414
X19.176 Y9.569 Z0.66 I0.414 J0.294
X19.296 Y10.278 Z0.632 I-0.294 J0.414
X18.588 Y10.398 Z0.604 I-0.414 J-0.294
X18.467 Y9.689 Z0.576 I0.294 J-0.414
X19.176 Y9.569 Z0.548 I0.414 J0.294
X19.296 Y10.278 Z0.521 I-0.294 J0.414
X18.588 Y10.398 Z0.493 I-0.414 J-0.294
X18.467 Y9.689 Z0.465 I0.294 J-0.414
X19.176 Y9.569 Z0.437 I0.414 J0.294
X19.296 Y10.278 Z0.409 I-0.294 J0.414
X18.588 Y10.398 Z0.381 I-0.414 J-0.294
X18.467 Y9.689 Z0.353 I0.294 J-0.414
X19.176 Y9.569 Z0.325 I0.414 J0.294
X19.296 Y10.278 Z0.298 I-0.294 J0.414
X18.588 Y10.398 Z0.27 I-0.414 J-0.294
X18.467 Y9.689 Z0.242 I0.294 J-0.414
X19.176 Y9.569 Z0.214 I0.414 J0.294
X19.296 Y10.278 Z0.186 I-0.294 J0.414
X18.588 Y10.398 Z0.158 I-0.414 J-0.294
X18.467 Y9.689 Z0.13 I0.294 J-0.414
X19.176 Y9.569 Z0.102 I0.414 J0.294
X19.296 Y10.278 Z0.075 I-0.294 J0.414
X18.588 Y10.398 Z0.047 I-0.414 J-0.294
X18.467 Y9.689 Z0.019 I0.294 J-0.414
X19.176 Y9.569 Z-0.009 I0.414 J0.294
X19.296 Y10.278 Z-0.037 I-0.294 J0.414
X18.588 Y10.398 Z-0.065 I-0.414 J-0.294
X18.467 Y9.689 Z-0.093 I0.294 J-0.414
X19.176 Y9.569 Z-0.121 I0.414 J0.294
X19.296 Y10.278 Z-0.149 I-0.294 J0.414
X18.588 Y10.398 Z-0.176 I-0.414 J-0.294
X18.467 Y9.689 Z-0.204 I0.294 J-0.414
X19.176 Y9.569 Z-0.232 I0.414 J0.294
X19.296 Y10.278 Z-0.26 I-0.294 J0.414
X18.588 Y10.398 Z-0.288 I-0.414 J-0.294
X18.467 Y9.689 Z-0.316 I0.294 J-0.414
X19.176 Y9.569 Z-0.344 I0.414 J0.294
X19.296 Y10.278 Z-0.372 I-0.294 J0.414
X18.588 Y10.398 Z-0.399 I-0.414 J-0.294
X18.467 Y9.689 Z-0.427 I0.294 J-0.414
X19.176 Y9.569 Z-0.455 I0.414 J0.294
X19.296 Y10.278 Z-0.483 I-0.294 J0.414
X18.882 Y10.492 Z-0.5 I-0.414 J-0.294
X18.772 Y10.382 I0. J-0.11 F100
G1 Y8.382
G3 X18.882 Y8.272 I0.11 J0.
X18.992 Y8.382 I0. J0.11
G1 Y10.382
G3 X18.882 Y10.492 I-0.11 J0.
G2 X18.434 Y10.714 I0. J0.562
G3 X18.046 Y10.767 I-0.221 J-0.167
X17.945 Y10.613 I0.167 J-0.221
X17.917 Y10.382 I0.937 J-0.231
G1 Y8.382
G3 X18.882 Y7.417 I0.965 J0.
X19.847 Y8.382 I0. J0.965
G1 Y10.382
G3 X18.882 Y11.347 I-0.965 J0.
X17.945 Y10.613 I0. J-0.965
G2 X17.881 Y10.553 I-0.078 J0.019
G3 X17.822 Y10.489 I0.013 J-0.071
X17.817 Y10.382 I1.06 J-0.107
G1 Y8.382
G3 X18.882 Y7.317 I1.065 J0.
X19.947 Y8.382 I0. J1.065
G1 Y10.382
G3 X18.882 Y11.447 I-1.065 J0.
X17.822 Y10.489 I0. J-1.065
X17.857 Y10.434 I0.053 J-0.005
G1 X18.567 Y10.173
X18.88 Y9.509
G3 X18.934 Y9.478 I0.049 J0.022
X19.387 Y10.036 Z-0.528 I-0.052 J0.506 F125.3
X18.83 Y10.489 Z-0.556 I-0.506 J-0.052
X18.376 Y9.931 Z-0.584 I0.052 J-0.506
X18.934 Y9.478 Z-0.612 I0.506 J0.052
X19.387 Y10.036 Z-0.639 I-0.052 J0.506
X18.83 Y10.489 Z-0.667 I-0.506 J-0.052
X18.376 Y9.931 Z-0.695 I0.052 J-0.506
X18.934 Y9.478 Z-0.723 I0.506 J0.052
X19.387 Y10.036 Z-0.751 I-0.052 J0.506
X18.83 Y10.489 Z-0.779 I-0.506 J-0.052
X18.376 Y9.931 Z-0.807 I0.052 J-0.506
X18.934 Y9.478 Z-0.835 I0.506 J0.052
X19.387 Y10.036 Z-0.862 I-0.052 J0.506
X18.83 Y10.489 Z-0.89 I-0.506 J-0.052
X18.376 Y9.931 Z-0.918 I0.052 J-0.506
X18.934 Y9.478 Z-0.946 I0.506 J0.052
X19.387 Y10.036 Z-0.974 I-0.052 J0.506
X18.882 Y10.492 Z-1. I-0.506 J-0.052
X18.772 Y10.382 I0. J-0.11 F100
G1 Y8.382
G3 X18.882 Y8.272 I0.11 J0.
X18.992 Y8.382 I0. J0.11
G1 Y10.382
G3 X18.882 Y10.492 I-0.11 J0.
G2 X18.434 Y10.714 I0. J0.562
G3 X18.046 Y10.767 I-0.221 J-0.167
X17.945 Y10.613 I0.167 J-0.221
X17.917 Y10.382 I0.937 J-0.231
G1 Y8.382
G3 X18.882 Y7.417 I0.965 J0.
X19.847 Y8.382 I0. J0.965
G1 Y10.382
G3 X18.882 Y11.347 I-0.965 J0.
X17.945 Y10.613 I0. J-0.965
G2 X17.881 Y10.553 I-0.078 J0.019
G3 X17.822 Y10.489 I0.013 J-0.071
X17.817 Y10.382 I1.06 J-0.107
G1 Y8.382
G3 X18.882 Y7.317 I1.065 J0.
X19.947 Y8.382 I0. J1.065
G1 Y10.382
G3 X18.882 Y11.447 I-1.065 J0.
X17.822 Y10.489 I0. J-1.065
X17.857 Y10.434 I0.053 J-0.005
G1 X18.567 Y10.173
X18.88 Y9.509
G3 X18.934 Y9.478 I0.049 J0.022
X19.387 Y10.036 Z-1.028 I-0.052 J0.506 F125.3
X18.83 Y10.489 Z-1.056 I-0.506 J-0.052
X18.376 Y9.931 Z-1.084 I0.052 J-0.506
X18.934 Y9.478 Z-1.112 I0.506 J0.052
X19.387 Y10.036 Z-1.139 I-0.052 J0.506
X18.83 Y10.489 Z-1.167 I-0.506 J-0.052
X18.376 Y9.931 Z-1.195 I0.052 J-0.506
X18.934 Y9.478 Z-1.223 I0.506 J0.052
X19.387 Y10.036 Z-1.251 I-0.052 J0.506
X18.83 Y10.489 Z-1.279 I-0.506 J-0.052
X18.376 Y9.931 Z-1.307 I0.052 J-0.506
X18.934 Y9.478 Z-1.335 I0.506 J0.052
X19.387 Y10.036 Z-1.362 I-0.052 J0.506
X18.83 Y10.489 Z-1.39 I-0.506 J-0.052
X18.376 Y9.931 Z-1.418 I0.052 J-0.506
X18.934 Y9.478 Z-1.446 I0.506 J0.052
X19.387 Y10.036 Z-1.474 I-0.052 J0.506
X18.882 Y10.492 Z-1.5 I-0.506 J-0.052
X18.772 Y10.382 I0. J-0.11 F100
G1 Y8.382
G3 X18.882 Y8.272 I0.11 J0.
X18.992 Y8.382 I0. J0.11
G1 Y10.382
G3 X18.882 Y10.492 I-0.11 J0.
G2 X18.434 Y10.714 I0. J0.562
G3 X18.046 Y10.767 I-0.221 J-0.167
X17.945 Y10.613 I0.167 J-0.221
X17.917 Y10.382 I0.937 J-0.231
G1 Y8.382
G3 X18.882 Y7.417 I0.965 J0.
X19.847 Y8.382 I0. J0.965
G1 Y10.382
G3 X18.882 Y11.347 I-0.965 J0.
X17.945 Y10.613 I0. J-0.965
G2 X17.881 Y10.553 I-0.078 J0.019
G3 X17.822 Y10.489 I0.013 J-0.071
X17.817 Y10.382 I1.06 J-0.107
G1 Y8.382
G3 X18.882 Y7.317 I1.065 J0.
X19.947 Y8.382 I0. J1.065
G1 Y10.382
G3 X18.882 Y11.447 I-1.065 J0.
X17.822 Y10.489 I0. J-1.065
X17.858 Y10.433 I0.053 J-0.005
G1 X18.572 Y10.174
X18.931 Y9.514
G3 X18.99 Y9.487 I0.047 J0.025
X19.379 Y10.091 Z-1.528 I-0.108 J0.497 F125.3
X18.774 Y10.48 Z-1.556 I-0.497 J-0.108
X18.385 Y9.876 Z-1.584 I0.108 J-0.497
X18.99 Y9.487 Z-1.612 I0.497 J0.108
X19.379 Y10.091 Z-1.639 I-0.108 J0.497
X18.774 Y10.48 Z-1.667 I-0.497 J-0.108
X18.385 Y9.876 Z-1.695 I0.108 J-0.497
X18.99 Y9.487 Z-1.723 I0.497 J0.108
X19.379 Y10.091 Z-1.751 I-0.108 J0.497
X18.882 Y10.492 Z-1.775 I-0.497 J-0.108
X18.772 Y10.382 I0. J-0.11 F100
G1 Y8.382
G3 X18.882 Y8.272 I0.11 J0.
X18.992 Y8.382 I0. J0.11
G1 Y10.382
G3 X18.882 Y10.492 I-0.11 J0.
G2 X18.434 Y10.714 I0. J0.562
G3 X18.046 Y10.767 I-0.221 J-0.167
X17.945 Y10.613 I0.167 J-0.221
X17.917 Y10.382 I0.937 J-0.231
G1 Y8.382
G3 X18.882 Y7.417 I0.965 J0.
X19.847 Y8.382 I0. J0.965
G1 Y10.382
G3 X18.882 Y11.347 I-0.965 J0.
X17.945 Y10.613 I0. J-0.965
G2 X17.881 Y10.553 I-0.078 J0.019
G3 X17.822 Y10.489 I0.013 J-0.071
X17.817 Y10.382 I1.06 J-0.107
G1 Y8.382
G3 X18.882 Y7.317 I1.065 J0.
X19.947 Y8.382 I0. J1.065
G1 Y10.382
G3 X18.882 Y11.447 I-1.065 J0.
X17.822 Y10.489 I0. J-1.065
X17.858 Y10.433 I0.053 J-0.005
G1 X18.572 Y10.174
X18.931 Y9.514
G3 X18.99 Y9.487 I0.047 J0.025
X19.379 Y10.091 Z-1.803 I-0.108 J0.497 F125.3
X18.774 Y10.48 Z-1.831 I-0.497 J-0.108
X18.385 Y9.876 Z-1.859 I0.108 J-0.497
X18.99 Y9.487 Z-1.887 I0.497 J0.108
X19.379 Y10.091 Z-1.914 I-0.108 J0.497
X18.774 Y10.48 Z-1.942 I-0.497 J-0.108
X18.385 Y9.876 Z-1.97 I0.108 J-0.497
X18.99 Y9.487 Z-1.998 I0.497 J0.108
X19.379 Y10.091 Z-2.026 I-0.108 J0.497
X18.882 Y10.492 Z-2.05 I-0.497 J-0.108
X18.772 Y10.382 I0. J-0.11 F100
G1 Y8.382
G3 X18.882 Y8.272 I0.11 J0.
X18.992 Y8.382 I0. J0.11
G1 Y10.382
G3 X18.882 Y10.492 I-0.11 J0.
G2 X18.434 Y10.714 I0. J0.562
G3 X18.046 Y10.767 I-0.221 J-0.167
X17.945 Y10.613 I0.167 J-0.221
X17.917 Y10.382 I0.937 J-0.231
G1 Y8.382
G3 X18.882 Y7.417 I0.965 J0.
X19.847 Y8.382 I0. J0.965
G1 Y10.382
G3 X18.882 Y11.347 I-0.965 J0.
X17.945 Y10.613 I0. J-0.965
G2 X17.881 Y10.553 I-0.078 J0.019
G3 X17.822 Y10.489 I0.013 J-0.071
X17.817 Y10.382 I1.06 J-0.107
G1 Y8.382
G3 X18.882 Y7.317 I1.065 J0.
X19.947 Y8.382 I0. J1.065
G1 Y10.382
G3 X18.882 Y11.447 I-1.065 J0.
X17.822 Y10.489 I0. J-1.065
X17.974 Y10.303 I0.169 J-0.017
X18.018 Y10.305 I0.017 J0.169
G1 X18.202 Y10.334
G2 X18.397 Y10.193 I0.027 J-0.168
X18.392 Y10.121 I-0.168 J-0.027
G3 X18.745 Y9.494 Z-2.078 I0.489 J-0.137 F125.3
X19.371 Y9.847 Z-2.106 I0.137 J0.489
X19.019 Y10.473 Z-2.134 I-0.489 J0.137
X18.392 Y10.121 Z-2.162 I-0.137 J-0.489
X18.745 Y9.494 Z-2.189 I0.489 J-0.137
X19.371 Y9.847 Z-2.217 I0.137 J0.489
X19.019 Y10.473 Z-2.245 I-0.489 J0.137
X18.882 Y10.492 Z-2.25 I-0.137 J-0.489
X18.772 Y10.382 I0. J-0.11 F100
G1 Y8.382
G3 X18.882 Y8.272 I0.11 J0.
X18.992 Y8.382 I0. J0.11
G1 Y10.382
G3 X18.882 Y10.492 I-0.11 J0.
G2 X18.434 Y10.714 I0. J0.562
G3 X18.046 Y10.767 I-0.221 J-0.167
X17.945 Y10.613 I0.167 J-0.221
X17.917 Y10.382 I0.937 J-0.231
G1 Y8.382
G3 X18.882 Y7.417 I0.965 J0.
X19.847 Y8.382 I0. J0.965
G1 Y10.382
G3 X18.882 Y11.347 I-0.965 J0.
X17.945 Y10.613 I0. J-0.965
G2 X17.881 Y10.553 I-0.078 J0.019
G3 X17.822 Y10.489 I0.013 J-0.071
X17.817 Y10.382 I1.06 J-0.107
G1 Y8.382
G3 X18.882 Y7.317 I1.065 J0.
X19.947 Y8.382 I0. J1.065
G1 Y10.382
G3 X18.882 Y11.447 I-1.065 J0.
X17.822 Y10.489 I0. J-1.065
X17.841 Y10.417 Z-2.219 I0.106 J-0.011 F250
X17.862 Y10.395 Z-2.143 I0.088 J0.061
G0 Z5.
X11.949 Y19.086
G1 Z2.607 F250
X11.936 Y19.114 Z2.533 F125.3
G3 X11.898 Y19.176 Z2.5 I-0.452 J-0.232
X11.189 Y19.296 Z2.472 I-0.414 J-0.294
X11.069 Y18.588 Z2.444 I0.294 J-0.414
X11.778 Y18.467 Z2.416 I0.414 J0.294
X11.898 Y19.176 Z2.388 I-0.294 J0.414
X11.189 Y19.296 Z2.361 I-0.414 J-0.294
X11.069 Y18.588 Z2.333 I0.294 J-0.414
X11.778 Y18.467 Z2.305 I0.414 J0.294
X11.898 Y19.176 Z2.277 I-0.294 J0.414
X11.189 Y19.296 Z2.249 I-0.414 J-0.294
X11.069 Y18.588 Z2.221 I0.294 J-0.414
X11.778 Y18.467 Z2.193 I0.414 J0.294
X11.898 Y19.176 Z2.165 I-0.294 J0.414
X11.189 Y19.296 Z2.138 I-0.414 J-0.294
X11.069 Y18.588 Z2.11 I0.294 J-0.414
X11.778 Y18.467 Z2.082 I0.414 J0.294
X11.898 Y19.176 Z2.054 I-0.294 J0.414
X11.189 Y19.296 Z2.026 I-0.414 J-0.294
X11.069 Y18.588 Z1.998 I0.294 J-0.414
X11.778 Y18.467 Z1.97 I0.414 J0.294
X11.898 Y19.176 Z1.942 I-0.294 J0.414
X11.189 Y19.296 Z1.915 I-0.414 J-0.294
X11.069 Y18.588 Z1.887 I0.294 J-0.414
X11.778 Y18.467 Z1.859 I0.414 J0.294
X11.898 Y19.176 Z1.831 I-0.294 J0.414
X11.189 Y19.296 Z1.803 I-0.414 J-0.294
X11.069 Y18.588 Z1.775 I0.294 J-0.414
X11.778 Y18.467 Z1.747 I0.414 J0.294
X11.898 Y19.176 Z1.719 I-0.294 J0.414
X11.189 Y19.296 Z1.692 I-0.414 J-0.294
X11.069 Y18.588 Z1.664 I0.294 J-0.414
X11.778 Y18.467 Z1.636 I0.414 J0.294
X11.898 Y19.176 Z1.608 I-0.294 J0.414
X11.189 Y19.296 Z1.58 I-0.414 J-0.294
X11.069 Y18.588 Z1.552 I0.294 J-0.414
X11.778 Y18.467 Z1.524 I0.414 J0.294
X11.898 Y19.176 Z1.496 I-0.294 J0.414
X11.189 Y19.296 Z1.468 I-0.414 J-0.294
X11.069 Y18.588 Z1.441 I0.294 J-0.414
X11.778 Y18.467 Z1.413 I0.414 J0.294
X11.898 Y19.176 Z1.385 I-0.294 J0.414
X11.189 Y19.296 Z1.357 I-0.414 J-0.294
X11.069 Y18.588 Z1.329 I0.294 J-0.414
X11.778 Y18.467 Z1.301 I0.414 J0.294
X11.898 Y19.176 Z1.273 I-0.294 J0.414
X11.189 Y19.296 Z1.245 I-0.414 J-0.294
X11.069 Y18.588 Z1.218 I0.294 J-0.414
X11.778 Y18.467 Z1.19 I0.414 J0.294
X11.898 Y19.176 Z1.162 I-0.294 J0.414
X11.189 Y19.296 Z1.134 I-0.414 J-0.294
X11.069 Y18.588 Z1.106 I0.294 J-0.414
X11.778 Y18.467 Z1.078 I0.414 J0.294
X11.898 Y19.176 Z1.05 I-0.294 J0.414
X11.189 Y19.296 Z1.022 I-0.414 J-0.294
X11.069 Y18.588 Z0.995 I0.294 J-0.414
X11.778 Y18.467 Z0.967 I0.414 J0.294
X11.898 Y19.176 Z0.939 I-0.294 J0.414
X11.189 Y19.296 Z0.911 I-0.414 J-0.294
X11.069 Y18.588 Z0.883 I0.294 J-0.414
X11.778 Y18.467 Z0.855 I0.414 J0.294
X11.898 Y19.176 Z0.827 I-0.294 J0.414
X11.189 Y19.296 Z0.799 I-0.414 J-0.294
X11.069 Y18.588 Z0.771 I0.294 J-0.414
X11.778 Y18.467 Z0.744 I0.414 J0.294
X11.898 Y19.176 Z0.716 I-0.294 J0.414
X11.189 Y19.296 Z0.688 I-0.414 J-0.294
X11.069 Y18.588 Z0.66 I0.294 J-0.414
X11.778 Y18.467 Z0.632 I0.414 J0.294
X11.898 Y19.176 Z0.604 I-0.294 J0.414
X11.189 Y19.296 Z0.576 I-0.414 J-0.294
X11.069 Y18.588 Z0.548 I0.294 J-0.414
X11.778 Y18.467 Z0.521 I0.414 J0.294
X11.898 Y19.176 Z0.493 I-0.294 J0.414
X11.189 Y19.296 Z0.465 I-0.414 J-0.294
X11.069 Y18.588 Z0.437 I0.294 J-0.414
X11.778 Y18.467 Z0.409 I0.414 J0.294
X11.898 Y19.176 Z0.381 I-0.294 J0.414
X11.189 Y19.296 Z0.353 I-0.414 J-0.294
X11.069 Y18.588 Z0.325 I0.294 J-0.414
X11.778 Y18.467 Z0.298 I0.414 J0.294
X11.898 Y19.176 Z0.27 I-0.294 J0.414
X11.189 Y19.296 Z0.242 I-0.414 J-0.294
X11.069 Y18.588 Z0.214 I0.294 J-0.414
X11.778 Y18.467 Z0.186 I0.414 J0.294
X11.898 Y19.176 Z0.158 I-0.294 J0.414
X11.189 Y19.296 Z0.13 I-0.414 J-0.294
X11.069 Y18.588 Z0.102 I0.294 J-0.414
X11.778 Y18.467 Z0.075 I0.414 J0.294
X11.898 Y19.176 Z0.047 I-0.294 J0.414
X11.189 Y19.296 Z0.019 I-0.414 J-0.294
X11.069 Y18.588 Z-0.009 I0.294 J-0.414
X11.778 Y18.467 Z-0.037 I0.414 J0.294
X11.898 Y19.176 Z-0.065 I-0.294 J0.414
X11.189 Y19.296 Z-0.093 I-0.414 J-0.294
X11.069 Y18.588 Z-0.121 I0.294 J-0.414
X11.778 Y18.467 Z-0.149 I0.414 J0.294
X11.898 Y19.176 Z-0.176 I-0.294 J0.414
X11.189 Y19.296 Z-0.204 I-0.414 J-0.294
X11.069 Y18.588 Z-0.232 I0.294 J-0.414
X11.778 Y18.467 Z-0.26 I0.414 J0.294
X11.898 Y19.176 Z-0.288 I-0.294 J0.414
X11.189 Y19.296 Z-0.316 I-0.414 J-0.294
X11.069 Y18.588 Z-0.344 I0.294 J-0.414
X11.778 Y18.467 Z-0.372 I0.414 J0.294
X11.898 Y19.176 Z-0.399 I-0.294 J0.414
X11.189 Y19.296 Z-0.427 I-0.414 J-0.294
X11.069 Y18.588 Z-0.455 I0.294 J-0.414
X11.778 Y18.467 Z-0.483 I0.414 J0.294
X11.992 Y18.882 Z-0.5 I-0.294 J0.414
X11.882 Y18.992 I-0.11 J0. F100
G1 X9.882
G3 X9.772 Y18.882 I0. J-0.11
X9.882 Y18.772 I0.11 J0.
G1 X11.882
G3 X11.992 Y18.882 I0. J0.11
G2 X12.214 Y19.329 I0.562 J0.
G3 X12.267 Y19.717 I-0.167 J0.221
X12.113 Y19.819 I-0.221 J-0.167
X11.882 Y19.847 I-0.231 J-0.937
G1 X9.882
G3 X8.917 Y18.882 I0. J-0.965
X9.882 Y17.917 I0.965 J0.
G1 X11.882
G3 X12.847 Y18.882 I0. J0.965
X12.113 Y19.819 I-0.965 J0.
G2 X12.053 Y19.882 I0.019 J0.078
G3 X11.989 Y19.941 I-0.071 J-0.013
X11.882 Y19.947 I-0.107 J-1.06
G1 X9.882
G3 X8.817 Y18.882 I0. J-1.065
X9.882 Y17.817 I1.065 J0.
G1 X11.882
G3 X12.947 Y18.882 I0. J1.065
X11.989 Y19.941 I-1.065 J0.
X11.934 Y19.906 I-0.005 J-0.053
G1 X11.673 Y19.197
X11.009 Y18.884
G3 X10.978 Y18.83 I0.022 J-0.049
X11.536 Y18.376 Z-0.528 I0.506 J0.052 F125.3
X11.989 Y18.934 Z-0.556 I-0.052 J0.506
X11.431 Y19.387 Z-0.584 I-0.506 J-0.052
X10.978 Y18.83 Z-0.612 I0.052 J-0.506
X11.536 Y18.376 Z-0.639 I0.506 J0.052
X11.989 Y18.934 Z-0.667 I-0.052 J0.506
X11.431 Y19.387 Z-0.695 I-0.506 J-0.052
X10.978 Y18.83 Z-0.723 I0.052 J-0.506
X11.536 Y18.376 Z-0.751 I0.506 J0.052
X11.989 Y18.934 Z-0.779 I-0.052 J0.506
X11.431 Y19.387 Z-0.807 I-0.506 J-0.052
X10.978 Y18.83 Z-0.835 I0.052 J-0.506
X11.536 Y18.376 Z-0.862 I0.506 J0.052
X11.989 Y18.934 Z-0.89 I-0.052 J0.506
X11.431 Y19.387 Z-0.918 I-0.506 J-0.052
X10.978 Y18.83 Z-0.946 I0.052 J-0.506
X11.536 Y18.376 Z-0.974 I0.506 J0.052
X11.992 Y18.882 Z-1. I-0.052 J0.506
X11.882 Y18.992 I-0.11 J0. F100
G1 X9.882
G3 X9.772 Y18.882 I0. J-0.11
X9.882 Y18.772 I0.11 J0.
G1 X11.882
G3 X11.992 Y18.882 I0. J0.11
G2 X12.214 Y19.329 I0.562 J0.
G3 X12.267 Y19.717 I-0.167 J0.221
X12.113 Y19.819 I-0.221 J-0.167
X11.882 Y19.847 I-0.231 J-0.937
G1 X9.882
G3 X8.917 Y18.882 I0. J-0.965
X9.882 Y17.917 I0.965 J0.
G1 X11.882
G3 X12.847 Y18.882 I0. J0.965
X12.113 Y19.819 I-0.965 J0.
G2 X12.053 Y19.882 I0.019 J0.078
G3 X11.989 Y19.941 I-0.071 J-0.013
X11.882 Y19.947 I-0.107 J-1.06
G1 X9.882
G3 X8.817 Y18.882 I0. J-1.065
X9.882 Y17.817 I1.065 J0.
G1 X11.882
G3 X12.947 Y18.882 I0. J1.065
X11.989 Y19.941 I-1.065 J0.
X11.934 Y19.906 I-0.005 J-0.053
G1 X11.673 Y19.197
X11.009 Y18.884
G3 X10.978 Y18.83 I0.022 J-0.049
X11.536 Y18.376 Z-1.028 I0.506 J0.052 F125.3
X11.989 Y18.934 Z-1.056 I-0.052 J0.506
X11.431 Y19.387 Z-1.084 I-0.506 J-0.052
X10.978 Y18.83 Z-1.112 I0.052 J-0.506
X11.536 Y18.376 Z-1.139 I0.506 J0.052
X11.989 Y18.934 Z-1.167 I-0.052 J0.506
X11.431 Y19.387 Z-1.195 I-0.506 J-0.052
X10.978 Y18.83 Z-1.223 I0.052 J-0.506
X11.536 Y18.376 Z-1.251 I0.506 J0.052
X11.989 Y18.934 Z-1.279 I-0.052 J0.506
X11.431 Y19.387 Z-1.307 I-0.506 J-0.052
X10.978 Y18.83 Z-1.335 I0.052 J-0.506
X11.536 Y18.376 Z-1.362 I0.506 J0.052
X11.989 Y18.934 Z-1.39 I-0.052 J0.506
X11.431 Y19.387 Z-1.418 I-0.506 J-0.052
X10.978 Y18.83 Z-1.446 I0.052 J-0.506
X11.536 Y18.376 Z-1.474 I0.506 J0.052
X11.992 Y18.882 Z-1.5 I-0.052 J0.506
X11.882 Y18.992 I-0.11 J0. F100
G1 X9.882
G3 X9.772 Y18.882 I0. J-0.11
X9.882 Y18.772 I0.11 J0.
G1 X11.882
G3 X11.992 Y18.882 I0. J0.11
G2 X12.214 Y19.329 I0.562 J0.
G3 X12.267 Y19.717 I-0.167 J0.221
X12.113 Y19.819 I-0.221 J-0.167
X11.882 Y19.847 I-0.231 J-0.937
G1 X9.882
G3 X8.917 Y18.882 I0. J-0.965
X9.882 Y17.917 I0.965 J0.
G1 X11.882
G3 X12.847 Y18.882 I0. J0.965
X12.113 Y19.819 I-0.965 J0.
G2 X12.053 Y19.882 I0.019 J0.078
G3 X11.989 Y19.941 I-0.071 J-0.013
X11.882 Y19.947 I-0.107 J-1.06
G1 X9.882
G3 X8.817 Y18.882 I0. J-1.065
X9.882 Y17.817 I1.065 J0.
G1 X11.882
G3 X12.947 Y18.882 I0. J1.065
X11.989 Y19.941 I-1.065 J0.
X11.933 Y19.906 I-0.005 J-0.053
G1 X11.674 Y19.191
X11.014 Y18.833
G3 X10.987 Y18.774 I0.025 J-0.047
X11.591 Y18.385 Z-1.528 I0.497 J0.108 F125.3
X11.98 Y18.99 Z-1.556 I-0.108 J0.497
X11.376 Y19.379 Z-1.584 I-0.497 J-0.108
X10.987 Y18.774 Z-1.612 I0.108 J-0.497
X11.591 Y18.385 Z-1.639 I0.497 J0.108
X11.98 Y18.99 Z-1.667 I-0.108 J0.497
X11.376 Y19.379 Z-1.695 I-0.497 J-0.108
X10.987 Y18.774 Z-1.723 I0.108 J-0.497
X11.591 Y18.385 Z-1.751 I0.497 J0.108
X11.992 Y18.882 Z-1.775 I-0.108 J0.497
X11.882 Y18.992 I-0.11 J0. F100
G1 X9.882
G3 X9.772 Y18.882 I0. J-0.11
X9.882 Y18.772 I0.11 J0.
G1 X11.882
G3 X11.992 Y18.882 I0. J0.11
G2 X12.214 Y19.329 I0.562 J0.
G3 X12.267 Y19.717 I-0.167 J0.221
X12.113 Y19.819 I-0.221 J-0.167
X11.882 Y19.847 I-0.231 J-0.937
G1 X9.882
G3 X8.917 Y18.882 I0. J-0.965
X9.882 Y17.917 I0.965 J0.
G1 X11.882
G3 X12.847 Y18.882 I0. J0.965
X12.113 Y19.819 I-0.965 J0.
G2 X12.053 Y19.882 I0.019 J0.078
G3 X11.989 Y19.941 I-0.071 J-0.013
X11.882 Y19.947 I-0.107 J-1.06
G1 X9.882
G3 X8.817 Y18.882 I0. J-1.065
X9.882 Y17.817 I1.065 J0.
G1 X11.882
G3 X12.947 Y18.882 I0. J1.065
X11.989 Y19.941 I-1.065 J0.
X11.933 Y19.906 I-0.005 J-0.053
G1 X11.674 Y19.191
X11.014 Y18.833
G3 X10.987 Y18.774 I0.025 J-0.047
X11.591 Y18.385 Z-1.803 I0.497 J0.108 F125.3
X11.98 Y18.99 Z-1.831 I-0.108 J0.497
X11.376 Y19.379 Z-1.859 I-0.497 J-0.108
X10.987 Y18.774 Z-1.887 I0.108 J-0.497
X11.591 Y18.385 Z-1.914 I0.497 J0.108
X11.98 Y18.99 Z-1.942 I-0.108 J0.497
X11.376 Y19.379 Z-1.97 I-0.497 J-0.108
X10.987 Y18.774 Z-1.998 I0.108 J-0.497
X11.591 Y18.385 Z-2.026 I0.497 J0.108
X11.992 Y18.882 Z-2.05 I-0.108 J0.497
X11.882 Y18.992 I-0.11 J0. F100
G1 X9.882
G3 X9.772 Y18.882 I0. J-0.11
X9.882 Y18.772 I0.11 J0.
G1 X11.882
G3 X11.992 Y18.882 I0. J0.11
G2 X12.214 Y19.329 I0.562 J0.
G3 X12.267 Y19.717 I-0.167 J0.221
X12.113 Y19.819 I-0.221 J-0.167
X11.882 Y19.847 I-0.231 J-0.937
G1 X9.882
G3 X8.917 Y18.882 I0. J-0.965
X9.882 Y17.917 I0.965 J0.
G1 X11.882
G3 X12.847 Y18.882 I0. J0.965
X12.113 Y19.819 I-0.965 J0.
G2 X12.053 Y19.882 I0.019 J0.078
G3 X11.989 Y19.941 I-0.071 J-0.013
X11.882 Y19.947 I-0.107 J-1.06
G1 X9.882
G3 X8.817 Y18.882 I0. J-1.065
X9.882 Y17.817 I1.065 J0.
G1 X11.882
G3 X12.947 Y18.882 I0. J1.065
X11.989 Y19.941 I-1.065 J0.
X11.803 Y19.79 I-0.017 J-0.169
X11.805 Y19.746 I0.169 J-0.017
G1 X11.834 Y19.562
G2 X11.693 Y19.367 I-0.168 J-0.027
X11.621 Y19.371 I-0.027 J0.168
G3 X10.994 Y19.019 Z-2.078 I-0.137 J-0.489 F125.3
X11.347 Y18.392 Z-2.106 I0.489 J-0.137
X11.973 Y18.745 Z-2.134 I0.137 J0.489
X11.621 Y19.371 Z-2.162 I-0.489 J0.137
X10.994 Y19.019 Z-2.189 I-0.137 J-0.489
X11.347 Y18.392 Z-2.217 I0.489 J-0.137
X11.973 Y18.745 Z-2.245 I0.137 J0.489
X11.992 Y18.882 Z-2.25 I-0.489 J0.137
X11.882 Y18.992 I-0.11 J0. F100
G1 X9.882
G3 X9.772 Y18.882 I0. J-0.11
X9.882 Y18.772 I0.11 J0.
G1 X11.882
G3 X11.992 Y18.882 I0. J0.11
G2 X12.214 Y19.329 I0.562 J0.
G3 X12.267 Y19.717 I-0.167 J0.221
X12.113 Y19.819 I-0.221 J-0.167
X11.882 Y19.847 I-0.231 J-0.937
G1 X9.882
G3 X8.917 Y18.882 I0. J-0.965
X9.882 Y17.917 I0.965 J0.
G1 X11.882
G3 X12.847 Y18.882 I0. J0.965
X12.113 Y19.819 I-0.965 J0.
G2 X12.053 Y19.882 I0.019 J0.078
G3 X11.989 Y19.941 I-0.071 J-0.013
X11.882 Y19.947 I-0.107 J-1.06
G1 X9.882
G3 X8.817 Y18.882 I0. J-1.065
X9.882 Y17.817 I1.065 J0.
G1 X11.882
G3 X12.947 Y18.882 I0. J1.065
X11.989 Y19.941 I-1.065 J0.
X11.917 Y19.923 Z-2.219 I-0.011 J-0.106 F250
X11.895 Y19.902 Z-2.143 I0.061 J-0.088
G0 Z15.
M5
G53 Z0.
M30
