(pocket-test)
(Machine)
(  vendor: Stepcraft)
(  model: 600)
(  description: stepcraft uccnc)
(T1  D=2. CR=0. - ZMIN=-1.5 - flat end mill)
G90
G0 G53 Z0.

(VTX pocket)
T1 M6 (flat end mill D=2. Solid Carbide-End Mill O2,0mm)
(Fishtail, Diamond toothed)
S16000 M3
G64
G54
G43 H1
G0 X-11.897 Y-41.319
Z15.
Z5.
G1 Z2.7 F120
G3 X-11.885 Y-41.341 Z2.602 I0.846 J0.433 F60
X-11.849 Y-41.402 Z2.529 I0.834 J0.455
X-11.793 Y-41.48 Z2.5 I0.798 J0.516
X-10.457 Y-41.627 Z2.448 I0.741 J0.594
X-10.31 Y-40.292 Z2.396 I-0.594 J0.741
X-11.646 Y-40.145 Z2.344 I-0.741 J-0.594
X-11.793 Y-41.48 Z2.292 I0.594 J-0.741
X-10.457 Y-41.627 Z2.239 I0.741 J0.594
X-10.31 Y-40.292 Z2.187 I-0.594 J0.741
X-11.646 Y-40.145 Z2.135 I-0.741 J-0.594
X-11.793 Y-41.48 Z2.083 I0.594 J-0.741
X-10.457 Y-41.627 Z2.031 I0.741 J0.594
X-10.31 Y-40.292 Z1.979 I-0.594 J0.741
X-11.646 Y-40.145 Z1.927 I-0.741 J-0.594
X-11.793 Y-41.48 Z1.875 I0.594 J-0.741
X-10.457 Y-41.627 Z1.823 I0.741 J0.594
X-10.31 Y-40.292 Z1.77 I-0.594 J0.741
X-11.646 Y-40.145 Z1.718 I-0.741 J-0.594
X-11.793 Y-41.48 Z1.666 I0.594 J-0.741
X-10.457 Y-41.627 Z1.614 I0.741 J0.594
X-10.31 Y-40.292 Z1.562 I-0.594 J0.741
X-11.646 Y-40.145 Z1.51 I-0.741 J-0.594
X-11.793 Y-41.48 Z1.458 I0.594 J-0.741
X-10.457 Y-41.627 Z1.406 I0.741 J0.594
X-10.31 Y-40.292 Z1.354 I-0.594 J0.741
X-11.646 Y-40.145 Z1.301 I-0.741 J-0.594
X-11.793 Y-41.48 Z1.249 I0.594 J-0.741
X-10.457 Y-41.627 Z1.197 I0.741 J0.594
X-10.31 Y-40.292 Z1.145 I-0.594 J0.741
X-11.646 Y-40.145 Z1.093 I-0.741 J-0.594
X-11.793 Y-41.48 Z1.041 I0.594 J-0.741
X-10.457 Y-41.627 Z0.989 I0.741 J0.594
X-10.31 Y-40.292 Z0.937 I-0.594 J0.741
X-11.646 Y-40.145 Z0.885 I-0.741 J-0.594
X-11.793 Y-41.48 Z0.832 I0.594 J-0.741
X-10.457 Y-41.627 Z0.78 I0.741 J0.594
X-10.31 Y-40.292 Z0.728 I-0.594 J0.741
X-11.646 Y-40.145 Z0.676 I-0.741 J-0.594
X-11.793 Y-41.48 Z0.624 I0.594 J-0.741
X-10.457 Y-41.627 Z0.572 I0.741 J0.594
X-10.31 Y-40.292 Z0.52 I-0.594 J0.741
X-11.646 Y-40.145 Z0.468 I-0.741 J-0.594
X-11.793 Y-41.48 Z0.416 I0.594 J-0.741
X-10.457 Y-41.627 Z0.363 I0.741 J0.594
X-10.31 Y-40.292 Z0.311 I-0.594 J0.741
X-11.646 Y-40.145 Z0.259 I-0.741 J-0.594
X-11.793 Y-41.48 Z0.207 I0.594 J-0.741
X-10.457 Y-41.627 Z0.155 I0.741 J0.594
X-10.31 Y-40.292 Z0.103 I-0.594 J0.741
X-11.646 Y-40.145 Z0.051 I-0.741 J-0.594
X-11.793 Y-41.48 Z-0.001 I0.594 J-0.741
X-10.457 Y-41.627 Z-0.053 I0.741 J0.594
X-10.31 Y-40.292 Z-0.106 I-0.594 J0.741
X-11.646 Y-40.145 Z-0.158 I-0.741 J-0.594
X-11.793 Y-41.48 Z-0.21 I0.594 J-0.741
X-10.457 Y-41.627 Z-0.262 I0.741 J0.594
X-10.31 Y-40.292 Z-0.314 I-0.594 J0.741
X-11.646 Y-40.145 Z-0.366 I-0.741 J-0.594
X-11.793 Y-41.48 Z-0.418 I0.594 J-0.741
X-10.457 Y-41.627 Z-0.47 I0.741 J0.594
X-10.102 Y-40.886 Z-0.5 I-0.594 J0.741
G1 Y-40.85 F240
G3 X-10.231 Y-40.432 I-0.739 J0.
G2 X-11.257 Y-38.559 I8.799 J6.034
G3 X-11.451 Y-38.48 I-0.136 J-0.058
X-11.528 Y-38.557 I0.058 J-0.136
G2 X-11.769 Y-39.063 I-9.754 J4.322
G3 X-11.814 Y-39.25 I0.369 J-0.187
G1 Y-59.065
G3 X-11.684 Y-59.483 I0.739 J0.
G2 X-11.108 Y-60.424 I-8.799 J-6.034
G3 X-10.876 Y-60.493 I0.15 J0.082
X-10.807 Y-60.424 I-0.082 J0.15
G2 X-10.231 Y-59.483 I9.375 J-5.093
G3 X-10.102 Y-59.065 I-0.61 J0.418
G1 Y-40.886
G2 X-9.718 Y-40.095 I1.007 J0.
G3 X-9.559 Y-39.231 I-0.413 J0.523
G2 X-10.932 Y-34.235 I8.338 J4.979
X-10.91 Y-33.383 I16.137 J0.
G3 X-10.887 Y-32.531 I-16.114 J0.852
X-11.206 Y-32.212 I-0.319 J0.
G1 X-11.509
G3 X-11.828 Y-32.531 I0. J-0.319
X-11.805 Y-33.383 I16.137 J0.
G2 X-11.783 Y-34.235 I-16.114 J-0.852
X-12.072 Y-36.466 I-8.761 J0.
X-12.878 Y-38.566 I-9.983 J2.629
G3 X-13.028 Y-39.182 I1.196 J-0.616
G1 Y-59.072
G3 X-12.689 Y-60.165 I1.93 J0.
G2 X-11.375 Y-62.978 I-7.794 J-5.352
G3 X-10.841 Y-63.279 I0.418 J0.116
X-10.54 Y-62.978 I-0.116 J0.418
G2 X-9.226 Y-60.165 I9.107 J-2.54
G3 X-8.887 Y-59.072 I-1.591 J1.093
G1 Y-40.843
G3 X-9.226 Y-39.75 I-1.93 J0.
G2 X-9.559 Y-39.231 I8.005 J5.497
X-9.5 Y-38.331 I0.682 J0.407
G3 X-9.367 Y-37.44 I-0.711 J0.562
G2 X-9.968 Y-34.235 I8.12 J3.179
X-9.957 Y-32.894 I88.527 J0.
X-9.881 Y-31.555 I15.919 J-0.241
G3 X-9.952 Y-31.34 I-0.279 J0.028
X-10.159 Y-31.247 I-0.208 J-0.188
G1 X-12.556
G3 X-12.764 Y-31.34 I0. J-0.28
X-12.835 Y-31.555 I0.208 J-0.188
G2 X-12.809 Y-34.897 I-18.175 J-1.812
X-13.729 Y-38.11 I-8.59 J0.722
G3 X-13.993 Y-39.203 I2.131 J-1.093
G1 Y-59.445
G3 X-13.654 Y-60.472 I1.728 J0.
G2 X-12.14 Y-63.942 I-6.828 J-5.045
G3 X-11.748 Y-64.268 I0.393 J0.074
G1 X-10.168
G3 X-9.775 Y-63.942 I0. J0.4
G2 X-8.261 Y-60.472 I8.342 J-1.575
G3 X-7.923 Y-59.445 I-1.39 J1.027
G1 Y-40.47
G3 X-8.261 Y-39.443 I-1.728 J0.
G2 X-9.367 Y-37.44 I7.013 J5.182
X-9.015 Y-36.032 I1.166 J0.456
G3 X-8.449 Y-34.695 I-1.055 J1.235
G2 X-8.463 Y-34.235 I7.331 J0.46
X-8.416 Y-32.114 I47.966 J0.
X-8.006 Y-30.032 I7.063 J-0.313
G3 X-8.136 Y-29.756 I-0.203 J0.073
X-8.209 Y-29.743 I-0.073 J-0.203
G1 X-13.86
G3 X-14.324 Y-30.075 I0. J-0.49
G2 X-14.441 Y-30.396 I-7.747 J2.649
G3 X-14.473 Y-30.838 I0.703 J-0.274
G2 X-14.267 Y-32.53 I-8.018 J-1.836
X-14.252 Y-34.235 I-97.074 J-1.705
X-14.501 Y-36.004 I-6.398 J0.
X-15.191 Y-37.653 I-7.447 J2.144
G3 X-15.497 Y-38.825 I2.089 J-1.172
G1 Y-60.078
G3 X-15.16 Y-60.993 I1.413 J0.
G2 X-13.497 Y-65.455 I-5.322 J-4.525
G3 X-13.177 Y-65.772 I0.32 J0.003
G1 X-8.738
G3 X-8.418 Y-65.455 I0. J0.32
G2 X-6.755 Y-60.993 I6.985 J-0.063
G3 X-6.418 Y-60.078 I-1.076 J0.915
G1 Y-39.838
G3 X-6.755 Y-38.923 I-1.413 J0.
G2 X-8.026 Y-36.731 I5.423 J4.61
X-8.449 Y-34.695 I6.909 J2.496
X-7.731 Y-33.517 I1.201 J0.075
G3 X-6.972 Y-32.365 I-0.508 J1.16
G2 X-6.805 Y-31.143 I4.795 J-0.032
X-6.357 Y-29.96 I6.274 J-1.701
G3 X-6.289 Y-29.243 I-0.903 J0.447
G2 X-6.439 Y-28.575 I6.443 J1.79
G3 X-6.82 Y-28.252 I-0.381 J-0.064
G1 X-15.095
G3 X-15.477 Y-28.575 I0. J-0.387
G2 X-15.913 Y-30.056 I-6.39 J1.076
G3 X-15.977 Y-30.969 I1.285 J-0.549
G2 X-15.752 Y-32.594 I-6.315 J-1.701
X-15.743 Y-34.235 I-142.06 J-1.641
X-15.996 Y-35.814 I-5.049 J0.
X-16.692 Y-37.255 I-5.778 J1.903
G3 X-16.988 Y-38.242 I1.5 J-0.987
G1 Y-60.787
G3 X-16.654 Y-61.576 I1.1 J0.
G2 X-15.399 Y-63.373 I-4.034 J-4.154
X-14.943 Y-65.518 I-4.813 J-2.144
X-14.966 Y-66.231 I-11.418 J0.
G3 X-14.988 Y-66.943 I11.396 J-0.713
X-14.668 Y-67.263 I0.319 J0.
G1 X-7.247
G3 X-6.927 Y-66.943 I0. J0.319
X-6.95 Y-66.231 I-11.418 J0.
G2 X-6.972 Y-65.518 I11.396 J0.713
X-6.516 Y-63.373 I5.269 J0.
X-5.261 Y-61.576 I5.289 J-2.356
G3 X-4.927 Y-60.787 I-0.766 J0.789
G1 Y-39.128
G3 X-5.261 Y-38.339 I-1.1 J0.
G2 X-6.533 Y-36.46 I3.884 J3.998
X-6.972 Y-34.235 I5.414 J2.226
G1 Y-32.398
G2 Y-32.365 I4.795 J0.
X-5.994 Y-31.107 I1.31 J-0.009
G3 X-4.691 Y-30.189 I-0.576 J2.202
G2 X-4.624 Y-30.094 I3.681 J-2.514
G3 X-4.558 Y-29.471 I-0.513 J0.37
G2 X-4.873 Y-28.505 I4.908 J2.139
X-4.985 Y-27.495 I4.498 J1.01
X-4.978 Y-27.254 I3.861 J0.
G3 X-4.97 Y-27.013 I-3.854 J0.241
X-5.29 Y-26.694 I-0.319 J0.
G1 X-16.63
G3 X-16.945 Y-27.009 I0. J-0.315
X-16.937 Y-27.252 I3.893 J0.
G2 X-16.93 Y-27.495 I-3.886 J-0.243
X-17.124 Y-28.841 I-4.763 J0.
X-17.677 Y-30.082 I-4.922 J1.449
G3 X-17.715 Y-30.734 I0.586 J-0.361
G2 X-17.317 Y-32.462 I-3.862 J-1.8
X-17.301 Y-34.235 I-103.414 J-1.773
X-17.554 Y-35.565 I-3.628 J0.
X-18.241 Y-36.733 I-4.054 J1.598
G3 X-18.546 Y-37.586 I1.039 J-0.854
G1 Y-61.666
G3 X-18.218 Y-62.298 I0.773 J0.
G2 X-16.967 Y-63.698 I-2.384 J-3.39
X-16.501 Y-65.518 I-3.324 J-1.819
G3 X-16.492 Y-67.029 I121.792 J0.
G2 X-16.679 Y-68.529 I-5.568 J-0.069
G3 X-16.514 Y-68.814 I0.225 J-0.06
X-16.454 Y-68.821 I0.06 J0.225
G1 X-5.462
G3 X-5.229 Y-68.589 I0. J0.233
X-5.237 Y-68.529 I-0.233 J0.
G2 X-5.423 Y-67.029 I5.382 J1.431
G3 X-5.414 Y-65.518 I-121.783 J1.511
G2 X-4.948 Y-63.698 I3.789 J0.
X-3.697 Y-62.298 I3.636 J-1.99
G3 X-3.369 Y-61.666 I-0.444 J0.632
G1 Y-38.249
G3 X-3.697 Y-37.617 I-0.773 J0.
G2 X-4.968 Y-36.136 I2.281 J3.244
X-5.414 Y-34.235 I3.833 J1.901
G1 Y-32.398
G2 X-5.201 Y-31.184 I3.562 J0.
X-4.691 Y-30.189 I4.191 J-1.519
X-3.781 Y-29.877 I0.664 J-0.453
G3 X-3.129 Y-29.544 I0.159 J0.492
X-3.169 Y-29.134 I-0.492 J0.159
G2 X-3.349 Y-28.763 I3.388 J1.874
X-3.605 Y-27.495 I3.01 J1.268
X-3.583 Y-26.549 I19.897 J0.
G3 X-3.56 Y-25.603 I-19.874 J0.946
X-3.88 Y-25.284 I-0.319 J0.
G1 X-18.039
G3 X-18.355 Y-25.599 I0. J-0.315
X-18.332 Y-26.547 I19.98 J0.
G2 X-18.31 Y-27.495 I-19.958 J-0.948
X-18.649 Y-28.96 I-3.332 J0.
X-19.563 Y-30.152 I-3.416 J1.671
G3 X-19.652 Y-30.346 I0.172 J-0.197
X-19.568 Y-30.542 I0.262 J-0.004
G2 X-18.753 Y-32.299 I-1.725 J-1.868
X-18.711 Y-34.235 I-44.359 J-1.936
X-18.976 Y-35.32 I-2.354 J0.
X-19.68 Y-36.188 I-2.468 J1.282
G3 X-19.956 Y-36.771 I0.478 J-0.583
G1 Y-62.688
G3 X-19.64 Y-63.136 I0.475 J0.
G2 X-18.397 Y-64.052 I-0.885 J-2.502
X-17.911 Y-65.518 I-1.967 J-1.465
G1 Y-67.518
G2 X-18.465 Y-69.075 I-2.467 J0.
X-19.858 Y-69.966 I-2.045 J1.665
G3 X-19.956 Y-70.092 I0.032 J-0.126
X-19.921 Y-70.19 I0.13 J-0.009
X-19.826 Y-70.231 I0.095 J0.089
G1 X-2.089
G3 X-1.959 Y-70.101 I0. J0.13
X-2.057 Y-69.966 I-0.13 J0.009
G2 X-3.45 Y-69.075 I0.652 J2.555
X-4.004 Y-67.518 I1.914 J1.558
G1 Y-65.518
G2 X-3.518 Y-64.052 I2.453 J0.
X-2.276 Y-63.136 I2.128 J-1.585
G3 X-1.959 Y-62.688 I-0.158 J0.448
G1 Y-37.227
G3 X-2.276 Y-36.779 I-0.475 J0.
G2 X-3.544 Y-35.782 I0.84 J2.373
X-4.004 Y-34.235 I2.371 J1.547
G1 Y-32.398
G2 X-3.647 Y-31.136 I2.41 J0.
X-2.711 Y-30.218 I2.306 J-1.417
G3 X-2.626 Y-29.894 I-0.12 J0.205
X-2.655 Y-29.855 I-0.205 J-0.12
G2 X-3.169 Y-29.134 I2.874 J2.595
X-2.868 Y-27.766 I0.928 J0.513
G3 X-2.234 Y-26.516 I-0.915 J1.25
G1 Y-24.495
G2 X-2.167 Y-23.958 I2.2 J0.
G1 X-19.748
G2 X-19.681 Y-24.495 I-2.133 J-0.538
G1 Y-27.495
G2 X-21.283 Y-29.612 I-2.2 J0.
G1 Y-31.198
G2 X-20.083 Y-32.398 I0. J-1.2
G1 Y-34.235
G2 X-20.456 Y-35.105 I-1.2 J0.
X-21.344 Y-35.433 I-0.827 J0.87
X-21.283 Y-35.812 I-1.139 J-0.379
G1 Y-64.103
G2 X-21.306 Y-64.341 I-1.2 J0.
X-21.068 Y-64.318 I0.238 J-1.176
G1 X-20.483
G2 X-19.283 Y-65.518 I0. J-1.2
G1 Y-67.518
G2 X-20.483 Y-68.718 I-1.2 J0.
G1 X-21.283
Y-71.558
X-0.633
Y-68.718
X-1.433
G2 X-2.633 Y-67.518 I0. J1.2
G1 Y-65.518
G2 X-1.433 Y-64.318 I1.2 J0.
G1 X-0.847
G2 X-0.609 Y-64.341 I0. J-1.2
X-0.633 Y-64.103 I1.176 J0.238
G1 Y-35.812
G2 X-0.609 Y-35.574 I1.2 J0.
X-0.847 Y-35.598 I-0.238 J1.176
G1 X-1.433
G2 X-2.633 Y-34.398 I0. J1.2
G1 Y-32.398
G2 X-1.433 Y-31.198 I1.2 J0.
G1 X-0.633
Y-29.612
G2 X-2.234 Y-27.495 I0.599 J2.117
G1 Y-26.516
G2 X-2.134 Y-26.366 I0.162 J0.
G3 X-2.034 Y-26.216 I-0.063 J0.15
G1 Y-24.495 F100
G2 X-1.893 Y-23.758 I2. J0.
G1 X-20.022
G2 X-19.881 Y-24.495 I-1.859 J-0.738
G1 Y-27.495
G2 X-21.483 Y-29.455 I-2. J0.
Y-29.495 I-2. J-0.04
G1 Y-31.398
X-21.283
G2 X-20.283 Y-32.398 I0. J-1.
G1 Y-34.235
G2 X-21.283 Y-35.235 I-1. J0.
X-21.775 Y-35.105 I0. J1.
X-21.483 Y-35.812 I-0.707 J-0.707
G1 Y-64.103
G2 X-21.772 Y-64.807 I-1. J0.
X-21.068 Y-64.518 I0.704 J-0.71
G1 X-20.483
G2 X-19.483 Y-65.518 I0. J-1.
G1 Y-67.518
G2 X-20.483 Y-68.518 I-1. J0.
G1 X-21.483
Y-71.758
X-0.433
Y-68.518
X-1.433
G2 X-2.433 Y-67.518 I0. J1.
G1 Y-65.518
G2 X-1.433 Y-64.518 I1. J0.
G1 X-0.847
G2 X-0.142 Y-64.808 I0. J-1.
X-0.433 Y-64.103 I0.709 J0.705
G1 Y-35.812
G2 X-0.142 Y-35.107 I1. J0.
X-0.847 Y-35.398 I-0.705 J0.709
G1 X-1.433
G2 X-2.433 Y-34.398 I0. J1.
G1 Y-32.398
G2 X-1.433 Y-31.398 I1. J0.
G1 X-0.433
Y-29.495
G2 X-0.432 Y-29.455 I2. J0.
X-2.034 Y-27.495 I0.398 J1.96
G1 Y-26.216
G3 X-2.984 Y-25.266 Z-0.535 I-0.95 J0. F60
X-3.897 Y-25.955 Z-0.564 I0. J-0.95
G1 X-8.238 Y-41.147 Z-0.936
G2 X-9.413 Y-41.799 Z-0.971 I-0.913 J0.261
X-10.102 Y-40.886 Z-1. I0.261 J0.913
G1 Y-40.85 F240
G3 X-10.231 Y-40.432 I-0.739 J0.
G2 X-11.257 Y-38.559 I8.799 J6.034
G3 X-11.451 Y-38.48 I-0.136 J-0.058
X-11.528 Y-38.557 I0.058 J-0.136
G2 X-11.769 Y-39.063 I-9.754 J4.322
G3 X-11.814 Y-39.25 I0.369 J-0.187
G1 Y-59.065
G3 X-11.684 Y-59.483 I0.739 J0.
G2 X-11.108 Y-60.424 I-8.799 J-6.034
G3 X-10.876 Y-60.493 I0.15 J0.082
X-10.807 Y-60.424 I-0.082 J0.15
G2 X-10.231 Y-59.483 I9.375 J-5.093
G3 X-10.102 Y-59.065 I-0.61 J0.418
G1 Y-40.886
G2 X-9.718 Y-40.095 I1.007 J0.
G3 X-9.559 Y-39.231 I-0.413 J0.523
G2 X-10.932 Y-34.235 I8.338 J4.979
X-10.91 Y-33.383 I16.137 J0.
G3 X-10.887 Y-32.531 I-16.114 J0.852
X-11.206 Y-32.212 I-0.319 J0.
G1 X-11.509
G3 X-11.828 Y-32.531 I0. J-0.319
X-11.805 Y-33.383 I16.137 J0.
G2 X-11.783 Y-34.235 I-16.114 J-0.852
X-12.072 Y-36.466 I-8.761 J0.
X-12.878 Y-38.566 I-9.983 J2.629
G3 X-13.028 Y-39.182 I1.196 J-0.616
G1 Y-59.072
G3 X-12.689 Y-60.165 I1.93 J0.
G2 X-11.375 Y-62.978 I-7.794 J-5.352
G3 X-10.841 Y-63.279 I0.418 J0.116
X-10.54 Y-62.978 I-0.116 J0.418
G2 X-9.226 Y-60.165 I9.107 J-2.54
G3 X-8.887 Y-59.072 I-1.591 J1.093
G1 Y-40.843
G3 X-9.226 Y-39.75 I-1.93 J0.
G2 X-9.559 Y-39.231 I8.005 J5.497
X-9.5 Y-38.331 I0.682 J0.407
G3 X-9.367 Y-37.44 I-0.711 J0.562
G2 X-9.968 Y-34.235 I8.12 J3.179
X-9.957 Y-32.894 I88.527 J0.
X-9.881 Y-31.555 I15.919 J-0.241
G3 X-9.952 Y-31.34 I-0.279 J0.028
X-10.159 Y-31.247 I-0.208 J-0.188
G1 X-12.556
G3 X-12.764 Y-31.34 I0. J-0.28
X-12.835 Y-31.555 I0.208 J-0.188
G2 X-12.809 Y-34.897 I-18.175 J-1.812
X-13.729 Y-38.11 I-8.59 J0.722
G3 X-13.993 Y-39.203 I2.131 J-1.093
G1 Y-59.445
G3 X-13.654 Y-60.472 I1.728 J0.
G2 X-12.14 Y-63.942 I-6.828 J-5.045
G3 X-11.748 Y-64.268 I0.393 J0.074
G1 X-10.168
G3 X-9.775 Y-63.942 I0. J0.4
G2 X-8.261 Y-60.472 I8.342 J-1.575
G3 X-7.923 Y-59.445 I-1.39 J1.027
G1 Y-40.47
G3 X-8.261 Y-39.443 I-1.728 J0.
G2 X-9.367 Y-37.44 I7.013 J5.182
X-9.015 Y-36.032 I1.166 J0.456
G3 X-8.449 Y-34.695 I-1.055 J1.235
G2 X-8.463 Y-34.235 I7.331 J0.46
X-8.416 Y-32.114 I47.966 J0.
X-8.006 Y-30.032 I7.063 J-0.313
G3 X-8.136 Y-29.756 I-0.203 J0.073
X-8.209 Y-29.743 I-0.073 J-0.203
G1 X-13.86
G3 X-14.324 Y-30.075 I0. J-0.49
G2 X-14.441 Y-30.396 I-7.747 J2.649
G3 X-14.473 Y-30.838 I0.703 J-0.274
G2 X-14.267 Y-32.53 I-8.018 J-1.836
X-14.252 Y-34.235 I-97.074 J-1.705
X-14.501 Y-36.004 I-6.398 J0.
X-15.191 Y-37.653 I-7.447 J2.144
G3 X-15.497 Y-38.825 I2.089 J-1.172
G1 Y-60.078
G3 X-15.16 Y-60.993 I1.413 J0.
G2 X-13.497 Y-65.455 I-5.322 J-4.525
G3 X-13.177 Y-65.772 I0.32 J0.003
G1 X-8.738
G3 X-8.418 Y-65.455 I0. J0.32
G2 X-6.755 Y-60.993 I6.985 J-0.063
G3 X-6.418 Y-60.078 I-1.076 J0.915
G1 Y-39.838
G3 X-6.755 Y-38.923 I-1.413 J0.
G2 X-8.026 Y-36.731 I5.423 J4.61
X-8.449 Y-34.695 I6.909 J2.496
X-7.731 Y-33.517 I1.201 J0.075
G3 X-6.972 Y-32.365 I-0.508 J1.16
G2 X-6.805 Y-31.143 I4.795 J-0.032
X-6.357 Y-29.96 I6.274 J-1.701
G3 X-6.289 Y-29.243 I-0.903 J0.447
G2 X-6.439 Y-28.575 I6.443 J1.79
G3 X-6.82 Y-28.252 I-0.381 J-0.064
G1 X-15.095
G3 X-15.477 Y-28.575 I0. J-0.387
G2 X-15.913 Y-30.056 I-6.39 J1.076
G3 X-15.977 Y-30.969 I1.285 J-0.549
G2 X-15.752 Y-32.594 I-6.315 J-1.701
X-15.743 Y-34.235 I-142.06 J-1.641
X-15.996 Y-35.814 I-5.049 J0.
X-16.692 Y-37.255 I-5.778 J1.903
G3 X-16.988 Y-38.242 I1.5 J-0.987
G1 Y-60.787
G3 X-16.654 Y-61.576 I1.1 J0.
G2 X-15.399 Y-63.373 I-4.034 J-4.154
X-14.943 Y-65.518 I-4.813 J-2.144
X-14.966 Y-66.231 I-11.418 J0.
G3 X-14.988 Y-66.943 I11.396 J-0.713
X-14.668 Y-67.263 I0.319 J0.
G1 X-7.247
G3 X-6.927 Y-66.943 I0. J0.319
X-6.95 Y-66.231 I-11.418 J0.
G2 X-6.972 Y-65.518 I11.396 J0.713
X-6.516 Y-63.373 I5.269 J0.
X-5.261 Y-61.576 I5.289 J-2.356
G3 X-4.927 Y-60.787 I-0.766 J0.789
G1 Y-39.128
G3 X-5.261 Y-38.339 I-1.1 J0.
G2 X-6.533 Y-36.46 I3.884 J3.998
X-6.972 Y-34.235 I5.414 J2.226
G1 Y-32.398
G2 Y-32.365 I4.795 J0.
X-5.994 Y-31.107 I1.31 J-0.009
G3 X-4.691 Y-30.189 I-0.576 J2.202
G2 X-4.624 Y-30.094 I3.681 J-2.514
G3 X-4.558 Y-29.471 I-0.513 J0.37
G2 X-4.873 Y-28.505 I4.908 J2.139
X-4.985 Y-27.495 I4.498 J1.01
X-4.978 Y-27.254 I3.861 J0.
G3 X-4.97 Y-27.013 I-3.854 J0.241
X-5.29 Y-26.694 I-0.319 J0.
G1 X-16.63
G3 X-16.945 Y-27.009 I0. J-0.315
X-16.937 Y-27.252 I3.893 J0.
G2 X-16.93 Y-27.495 I-3.886 J-0.243
X-17.124 Y-28.841 I-4.763 J0.
X-17.677 Y-30.082 I-4.922 J1.449
G3 X-17.715 Y-30.734 I0.586 J-0.361
G2 X-17.317 Y-32.462 I-3.862 J-1.8
X-17.301 Y-34.235 I-103.414 J-1.773
X-17.554 Y-35.565 I-3.628 J0.
X-18.241 Y-36.733 I-4.054 J1.598
G3 X-18.546 Y-37.586 I1.039 J-0.854
G1 Y-61.666
G3 X-18.218 Y-62.298 I0.773 J0.
G2 X-16.967 Y-63.698 I-2.384 J-3.39
X-16.501 Y-65.518 I-3.324 J-1.819
G3 X-16.492 Y-67.029 I121.792 J0.
G2 X-16.679 Y-68.529 I-5.568 J-0.069
G3 X-16.514 Y-68.814 I0.225 J-0.06
X-16.454 Y-68.821 I0.06 J0.225
G1 X-5.462
G3 X-5.229 Y-68.589 I0. J0.233
X-5.237 Y-68.529 I-0.233 J0.
G2 X-5.423 Y-67.029 I5.382 J1.431
G3 X-5.414 Y-65.518 I-121.783 J1.511
G2 X-4.948 Y-63.698 I3.789 J0.
X-3.697 Y-62.298 I3.636 J-1.99
G3 X-3.369 Y-61.666 I-0.444 J0.632
G1 Y-38.249
G3 X-3.697 Y-37.617 I-0.773 J0.
G2 X-4.968 Y-36.136 I2.281 J3.244
X-5.414 Y-34.235 I3.833 J1.901
G1 Y-32.398
G2 X-5.201 Y-31.184 I3.562 J0.
X-4.691 Y-30.189 I4.191 J-1.519
X-3.781 Y-29.877 I0.664 J-0.453
G3 X-3.129 Y-29.544 I0.159 J0.492
X-3.169 Y-29.134 I-0.492 J0.159
G2 X-3.349 Y-28.763 I3.388 J1.874
X-3.605 Y-27.495 I3.01 J1.268
X-3.583 Y-26.549 I19.897 J0.
G3 X-3.56 Y-25.603 I-19.874 J0.946
X-3.88 Y-25.284 I-0.319 J0.
G1 X-18.039
G3 X-18.355 Y-25.599 I0. J-0.315
X-18.332 Y-26.547 I19.98 J0.
G2 X-18.31 Y-27.495 I-19.958 J-0.948
X-18.649 Y-28.96 I-3.332 J0.
X-19.563 Y-30.152 I-3.416 J1.671
G3 X-19.652 Y-30.346 I0.172 J-0.197
X-19.568 Y-30.542 I0.262 J-0.004
G2 X-18.753 Y-32.299 I-1.725 J-1.868
X-18.711 Y-34.235 I-44.359 J-1.936
X-18.976 Y-35.32 I-2.354 J0.
X-19.68 Y-36.188 I-2.468 J1.282
G3 X-19.956 Y-36.771 I0.478 J-0.583
G1 Y-62.688
G3 X-19.64 Y-63.136 I0.475 J0.
G2 X-18.397 Y-64.052 I-0.885 J-2.502
X-17.911 Y-65.518 I-1.967 J-1.465
G1 Y-67.518
G2 X-18.465 Y-69.075 I-2.467 J0.
X-19.858 Y-69.966 I-2.045 J1.665
G3 X-19.956 Y-70.092 I0.032 J-0.126
X-19.921 Y-70.19 I0.13 J-0.009
X-19.826 Y-70.231 I0.095 J0.089
G1 X-2.089
G3 X-1.959 Y-70.101 I0. J0.13
X-2.057 Y-69.966 I-0.13 J0.009
G2 X-3.45 Y-69.075 I0.652 J2.555
X-4.004 Y-67.518 I1.914 J1.558
G1 Y-65.518
G2 X-3.518 Y-64.052 I2.453 J0.
X-2.276 Y-63.136 I2.128 J-1.585
G3 X-1.959 Y-62.688 I-0.158 J0.448
G1 Y-37.227
G3 X-2.276 Y-36.779 I-0.475 J0.
G2 X-3.544 Y-35.782 I0.84 J2.373
X-4.004 Y-34.235 I2.371 J1.547
G1 Y-32.398
G2 X-3.647 Y-31.136 I2.41 J0.
X-2.711 Y-30.218 I2.306 J-1.417
G3 X-2.626 Y-29.894 I-0.12 J0.205
X-2.655 Y-29.855 I-0.205 J-0.12
G2 X-3.169 Y-29.134 I2.874 J2.595
X-2.868 Y-27.766 I0.928 J0.513
G3 X-2.234 Y-26.516 I-0.915 J1.25
G1 Y-24.495
G2 X-2.167 Y-23.958 I2.2 J0.
G1 X-19.748
G2 X-19.681 Y-24.495 I-2.133 J-0.538
G1 Y-27.495
G2 X-21.283 Y-29.612 I-2.2 J0.
G1 Y-31.198
G2 X-20.083 Y-32.398 I0. J-1.2
G1 Y-34.235
G2 X-20.456 Y-35.105 I-1.2 J0.
X-21.344 Y-35.433 I-0.827 J0.87
X-21.283 Y-35.812 I-1.139 J-0.379
G1 Y-64.103
G2 X-21.306 Y-64.341 I-1.2 J0.
X-21.068 Y-64.318 I0.238 J-1.176
G1 X-20.483
G2 X-19.283 Y-65.518 I0. J-1.2
G1 Y-67.518
G2 X-20.483 Y-68.718 I-1.2 J0.
G1 X-21.283
Y-71.558
X-0.633
Y-68.718
X-1.433
G2 X-2.633 Y-67.518 I0. J1.2
G1 Y-65.518
G2 X-1.433 Y-64.318 I1.2 J0.
G1 X-0.847
G2 X-0.609 Y-64.341 I0. J-1.2
X-0.633 Y-64.103 I1.176 J0.238
G1 Y-35.812
G2 X-0.609 Y-35.574 I1.2 J0.
X-0.847 Y-35.598 I-0.238 J1.176
G1 X-1.433
G2 X-2.633 Y-34.398 I0. J1.2
G1 Y-32.398
G2 X-1.433 Y-31.198 I1.2 J0.
G1 X-0.633
Y-29.612
G2 X-2.234 Y-27.495 I0.599 J2.117
G1 Y-26.516
G2 X-2.134 Y-26.366 I0.162 J0.
G3 X-2.034 Y-26.216 I-0.063 J0.15
G1 Y-24.495 F100
G2 X-1.893 Y-23.758 I2. J0.
G1 X-20.022
G2 X-19.881 Y-24.495 I-1.859 J-0.738
G1 Y-27.495
G2 X-21.483 Y-29.455 I-2. J0.
Y-29.495 I-2. J-0.04
G1 Y-31.398
X-21.283
G2 X-20.283 Y-32.398 I0. J-1.
G1 Y-34.235
G2 X-21.283 Y-35.235 I-1. J0.
X-21.775 Y-35.105 I0. J1.
X-21.483 Y-35.812 I-0.707 J-0.707
G1 Y-64.103
G2 X-21.772 Y-64.807 I-1. J0.
X-21.068 Y-64.518 I0.704 J-0.71
G1 X-20.483
G2 X-19.483 Y-65.518 I0. J-1.
G1 Y-67.518
G2 X-20.483 Y-68.518 I-1. J0.
G1 X-21.483
Y-71.758
X-0.433
Y-68.518
X-1.433
G2 X-2.433 Y-67.518 I0. J1.
G1 Y-65.518
G2 X-1.433 Y-64.518 I1. J0.
G1 X-0.847
G2 X-0.142 Y-64.808 I0. J-1.
X-0.433 Y-64.103 I0.709 J0.705
G1 Y-35.812
G2 X-0.142 Y-35.107 I1. J0.
X-0.847 Y-35.398 I-0.705 J0.709
G1 X-1.433
G2 X-2.433 Y-34.398 I0. J1.
G1 Y-32.398
G2 X-1.433 Y-31.398 I1. J0.
G1 X-0.433
Y-29.495
G2 X-0.432 Y-29.455 I2. J0.
X-2.034 Y-27.495 I0.398 J1.96
G1 Y-26.216
G3 X-2.984 Y-25.266 Z-1.035 I-0.95 J0. F60
X-3.897 Y-25.955 Z-1.064 I0. J-0.95
G1 X-8.238 Y-41.147 Z-1.436
G2 X-9.413 Y-41.799 Z-1.471 I-0.913 J0.261
X-10.102 Y-40.886 Z-1.5 I0.261 J0.913
G1 Y-40.85 F240
G3 X-10.231 Y-40.432 I-0.739 J0.
G2 X-11.257 Y-38.559 I8.799 J6.034
G3 X-11.451 Y-38.48 I-0.136 J-0.058
X-11.528 Y-38.557 I0.058 J-0.136
G2 X-11.769 Y-39.063 I-9.754 J4.322
G3 X-11.814 Y-39.25 I0.369 J-0.187
G1 Y-59.065
G3 X-11.684 Y-59.483 I0.739 J0.
G2 X-11.108 Y-60.424 I-8.799 J-6.034
G3 X-10.876 Y-60.493 I0.15 J0.082
X-10.807 Y-60.424 I-0.082 J0.15
G2 X-10.231 Y-59.483 I9.375 J-5.093
G3 X-10.102 Y-59.065 I-0.61 J0.418
G1 Y-40.886
G2 X-9.718 Y-40.095 I1.007 J0.
G3 X-9.559 Y-39.231 I-0.413 J0.523
G2 X-10.932 Y-34.235 I8.338 J4.979
X-10.91 Y-33.383 I16.137 J0.
G3 X-10.887 Y-32.531 I-16.114 J0.852
X-11.206 Y-32.212 I-0.319 J0.
G1 X-11.509
G3 X-11.828 Y-32.531 I0. J-0.319
X-11.805 Y-33.383 I16.137 J0.
G2 X-11.783 Y-34.235 I-16.114 J-0.852
X-12.072 Y-36.466 I-8.761 J0.
X-12.878 Y-38.566 I-9.983 J2.629
G3 X-13.028 Y-39.182 I1.196 J-0.616
G1 Y-59.072
G3 X-12.689 Y-60.165 I1.93 J0.
G2 X-11.375 Y-62.978 I-7.794 J-5.352
G3 X-10.841 Y-63.279 I0.418 J0.116
X-10.54 Y-62.978 I-0.116 J0.418
G2 X-9.226 Y-60.165 I9.107 J-2.54
G3 X-8.887 Y-59.072 I-1.591 J1.093
G1 Y-40.843
G3 X-9.226 Y-39.75 I-1.93 J0.
G2 X-9.559 Y-39.231 I8.005 J5.497
X-9.5 Y-38.331 I0.682 J0.407
G3 X-9.367 Y-37.44 I-0.711 J0.562
G2 X-9.968 Y-34.235 I8.12 J3.179
X-9.957 Y-32.894 I88.527 J0.
X-9.881 Y-31.555 I15.919 J-0.241
G3 X-9.952 Y-31.34 I-0.279 J0.028
X-10.159 Y-31.247 I-0.208 J-0.188
G1 X-12.556
G3 X-12.764 Y-31.34 I0. J-0.28
X-12.835 Y-31.555 I0.208 J-0.188
G2 X-12.809 Y-34.897 I-18.175 J-1.812
X-13.729 Y-38.11 I-8.59 J0.722
G3 X-13.993 Y-39.203 I2.131 J-1.093
G1 Y-59.445
G3 X-13.654 Y-60.472 I1.728 J0.
G2 X-12.14 Y-63.942 I-6.828 J-5.045
G3 X-11.748 Y-64.268 I0.393 J0.074
G1 X-10.168
G3 X-9.775 Y-63.942 I0. J0.4
G2 X-8.261 Y-60.472 I8.342 J-1.575
G3 X-7.923 Y-59.445 I-1.39 J1.027
G1 Y-40.47
G3 X-8.261 Y-39.443 I-1.728 J0.
G2 X-9.367 Y-37.44 I7.013 J5.182
X-9.015 Y-36.032 I1.166 J0.456
G3 X-8.449 Y-34.695 I-1.055 J1.235
G2 X-8.463 Y-34.235 I7.331 J0.46
X-8.416 Y-32.114 I47.966 J0.
X-8.006 Y-30.032 I7.063 J-0.313
G3 X-8.136 Y-29.756 I-0.203 J0.073
X-8.209 Y-29.743 I-0.073 J-0.203
G1 X-13.86
G3 X-14.324 Y-30.075 I0. J-0.49
G2 X-14.441 Y-30.396 I-7.747 J2.649
G3 X-14.473 Y-30.838 I0.703 J-0.274
G2 X-14.267 Y-32.53 I-8.018 J-1.836
X-14.252 Y-34.235 I-97.074 J-1.705
X-14.501 Y-36.004 I-6.398 J0.
X-15.191 Y-37.653 I-7.447 J2.144
G3 X-15.497 Y-38.825 I2.089 J-1.172
G1 Y-60.078
G3 X-15.16 Y-60.993 I1.413 J0.
G2 X-13.497 Y-65.455 I-5.322 J-4.525
G3 X-13.177 Y-65.772 I0.32 J0.003
G1 X-8.738
G3 X-8.418 Y-65.455 I0. J0.32
G2 X-6.755 Y-60.993 I6.985 J-0.063
G3 X-6.418 Y-60.078 I-1.076 J0.915
G1 Y-39.838
G3 X-6.755 Y-38.923 I-1.413 J0.
G2 X-8.026 Y-36.731 I5.423 J4.61
X-8.449 Y-34.695 I6.909 J2.496
X-7.731 Y-33.517 I1.201 J0.075
G3 X-6.972 Y-32.365 I-0.508 J1.16
G2 X-6.805 Y-31.143 I4.795 J-0.032
X-6.357 Y-29.96 I6.274 J-1.701
G3 X-6.289 Y-29.243 I-0.903 J0.447
G2 X-6.439 Y-28.575 I6.443 J1.79
G3 X-6.82 Y-28.252 I-0.381 J-0.064
G1 X-15.095
G3 X-15.477 Y-28.575 I0. J-0.387
G2 X-15.913 Y-30.056 I-6.39 J1.076
G3 X-15.977 Y-30.969 I1.285 J-0.549
G2 X-15.752 Y-32.594 I-6.315 J-1.701
X-15.743 Y-34.235 I-142.06 J-1.641
X-15.996 Y-35.814 I-5.049 J0.
X-16.692 Y-37.255 I-5.778 J1.903
G3 X-16.988 Y-38.242 I1.5 J-0.987
G1 Y-60.787
G3 X-16.654 Y-61.576 I1.1 J0.
G2 X-15.399 Y-63.373 I-4.034 J-4.154
X-14.943 Y-65.518 I-4.813 J-2.144
X-14.966 Y-66.231 I-11.418 J0.
G3 X-14.988 Y-66.943 I11.396 J-0.713
X-14.668 Y-67.263 I0.319 J0.
G1 X-7.247
G3 X-6.927 Y-66.943 I0. J0.319
X-6.95 Y-66.231 I-11.418 J0.
G2 X-6.972 Y-65.518 I11.396 J0.713
X-6.516 Y-63.373 I5.269 J0.
X-5.261 Y-61.576 I5.289 J-2.356
G3 X-4.927 Y-60.787 I-0.766 J0.789
G1 Y-39.128
G3 X-5.261 Y-38.339 I-1.1 J0.
G2 X-6.533 Y-36.46 I3.884 J3.998
X-6.972 Y-34.235 I5.414 J2.226
G1 Y-32.398
G2 Y-32.365 I4.795 J0.
X-5.994 Y-31.107 I1.31 J-0.009
G3 X-4.691 Y-30.189 I-0.576 J2.202
G2 X-4.624 Y-30.094 I3.681 J-2.514
G3 X-4.558 Y-29.471 I-0.513 J0.37
G2 X-4.873 Y-28.505 I4.908 J2.139
X-4.985 Y-27.495 I4.498 J1.01
X-4.978 Y-27.254 I3.861 J0.
G3 X-4.97 Y-27.013 I-3.854 J0.241
X-5.29 Y-26.694 I-0.319 J0.
G1 X-16.63
G3 X-16.945 Y-27.009 I0. J-0.315
X-16.937 Y-27.252 I3.893 J0.
G2 X-16.93 Y-27.495 I-3.886 J-0.243
X-17.124 Y-28.841 I-4.763 J0.
X-17.677 Y-30.082 I-4.922 J1.449
G3 X-17.715 Y-30.734 I0.586 J-0.361
G2 X-17.317 Y-32.462 I-3.862 J-1.8
X-17.301 Y-34.235 I-103.414 J-1.773
X-17.554 Y-35.565 I-3.628 J0.
X-18.241 Y-36.733 I-4.054 J1.598
G3 X-18.546 Y-37.586 I1.039 J-0.854
G1 Y-61.666
G3 X-18.218 Y-62.298 I0.773 J0.
G2 X-16.967 Y-63.698 I-2.384 J-3.39
X-16.501 Y-65.518 I-3.324 J-1.819
G3 X-16.492 Y-67.029 I121.792 J0.
G2 X-16.679 Y-68.529 I-5.568 J-0.069
G3 X-16.514 Y-68.814 I0.225 J-0.06
X-16.454 Y-68.821 I0.06 J0.225
G1 X-5.462
G3 X-5.229 Y-68.589 I0. J0.233
X-5.237 Y-68.529 I-0.233 J0.
G2 X-5.423 Y-67.029 I5.382 J1.431
G3 X-5.414 Y-65.518 I-121.783 J1.511
G2 X-4.948 Y-63.698 I3.789 J0.
X-3.697 Y-62.298 I3.636 J-1.99
G3 X-3.369 Y-61.666 I-0.444 J0.632
G1 Y-38.249
G3 X-3.697 Y-37.617 I-0.773 J0.
G2 X-4.968 Y-36.136 I2.281 J3.244
X-5.414 Y-34.235 I3.833 J1.901
G1 Y-32.398
G2 X-5.201 Y-31.184 I3.562 J0.
X-4.691 Y-30.189 I4.191 J-1.519
X-3.781 Y-29.877 I0.664 J-0.453
G3 X-3.129 Y-29.544 I0.159 J0.492
X-3.169 Y-29.134 I-0.492 J0.159
G2 X-3.349 Y-28.763 I3.388 J1.874
X-3.605 Y-27.495 I3.01 J1.268
X-3.583 Y-26.549 I19.897 J0.
G3 X-3.56 Y-25.603 I-19.874 J0.946
X-3.88 Y-25.284 I-0.319 J0.
G1 X-18.039
G3 X-18.355 Y-25.599 I0. J-0.315
X-18.332 Y-26.547 I19.98 J0.
G2 X-18.31 Y-27.495 I-19.958 J-0.948
X-18.649 Y-28.96 I-3.332 J0.
X-19.563 Y-30.152 I-3.416 J1.671
G3 X-19.652 Y-30.346 I0.172 J-0.197
X-19.568 Y-30.542 I0.262 J-0.004
G2 X-18.753 Y-32.299 I-1.725 J-1.868
X-18.711 Y-34.235 I-44.359 J-1.936
X-18.976 Y-35.32 I-2.354 J0.
X-19.68 Y-36.188 I-2.468 J1.282
G3 X-19.956 Y-36.771 I0.478 J-0.583
G1 Y-62.688
G3 X-19.64 Y-63.136 I0.475 J0.
G2 X-18.397 Y-64.052 I-0.885 J-2.502
X-17.911 Y-65.518 I-1.967 J-1.465
G1 Y-67.518
G2 X-18.465 Y-69.075 I-2.467 J0.
X-19.858 Y-69.966 I-2.045 J1.665
G3 X-19.956 Y-70.092 I0.032 J-0.126
X-19.921 Y-70.19 I0.13 J-0.009
X-19.826 Y-70.231 I0.095 J0.089
G1 X-2.089
G3 X-1.959 Y-70.101 I0. J0.13
X-2.057 Y-69.966 I-0.13 J0.009
G2 X-3.45 Y-69.075 I0.652 J2.555
X-4.004 Y-67.518 I1.914 J1.558
G1 Y-65.518
G2 X-3.518 Y-64.052 I2.453 J0.
X-2.276 Y-63.136 I2.128 J-1.585
G3 X-1.959 Y-62.688 I-0.158 J0.448
G1 Y-37.227
G3 X-2.276 Y-36.779 I-0.475 J0.
G2 X-3.544 Y-35.782 I0.84 J2.373
X-4.004 Y-34.235 I2.371 J1.547
G1 Y-32.398
G2 X-3.647 Y-31.136 I2.41 J0.
X-2.711 Y-30.218 I2.306 J-1.417
G3 X-2.626 Y-29.894 I-0.12 J0.205
X-2.655 Y-29.855 I-0.205 J-0.12
G2 X-3.169 Y-29.134 I2.874 J2.595
X-2.868 Y-27.766 I0.928 J0.513
G3 X-2.234 Y-26.516 I-0.915 J1.25
G1 Y-24.495
G2 X-2.167 Y-23.958 I2.2 J0.
G1 X-19.748
G2 X-19.681 Y-24.495 I-2.133 J-0.538
G1 Y-27.495
G2 X-21.283 Y-29.612 I-2.2 J0.
G1 Y-31.198
G2 X-20.083 Y-32.398 I0. J-1.2
G1 Y-34.235
G2 X-20.456 Y-35.105 I-1.2 J0.
X-21.344 Y-35.433 I-0.827 J0.87
X-21.283 Y-35.812 I-1.139 J-0.379
G1 Y-64.103
G2 X-21.306 Y-64.341 I-1.2 J0.
X-21.068 Y-64.318 I0.238 J-1.176
G1 X-20.483
G2 X-19.283 Y-65.518 I0. J-1.2
G1 Y-67.518
G2 X-20.483 Y-68.718 I-1.2 J0.
G1 X-21.283
Y-71.558
X-0.633
Y-68.718
X-1.433
G2 X-2.633 Y-67.518 I0. J1.2
G1 Y-65.518
G2 X-1.433 Y-64.318 I1.2 J0.
G1 X-0.847
G2 X-0.609 Y-64.341 I0. J-1.2
X-0.633 Y-64.103 I1.176 J0.238
G1 Y-35.812
G2 X-0.609 Y-35.574 I1.2 J0.
X-0.847 Y-35.598 I-0.238 J1.176
G1 X-1.433
G2 X-2.633 Y-34.398 I0. J1.2
G1 Y-32.398
G2 X-1.433 Y-31.198 I1.2 J0.
G1 X-0.633
Y-29.612
G2 X-2.234 Y-27.495 I0.599 J2.117
G1 Y-26.516
G2 X-2.134 Y-26.366 I0.162 J0.
G3 X-2.034 Y-26.216 I-0.063 J0.15
G1 Y-24.495 F100
G2 X-1.893 Y-23.758 I2. J0.
G1 X-20.022
G2 X-19.881 Y-24.495 I-1.859 J-0.738
G1 Y-27.495
G2 X-21.483 Y-29.455 I-2. J0.
Y-29.495 I-2. J-0.04
G1 Y-31.398
X-21.283
G2 X-20.283 Y-32.398 I0. J-1.
G1 Y-34.235
G2 X-21.283 Y-35.235 I-1. J0.
X-21.775 Y-35.105 I0. J1.
X-21.483 Y-35.812 I-0.707 J-0.707
G1 Y-64.103
G2 X-21.772 Y-64.807 I-1. J0.
X-21.068 Y-64.518 I0.704 J-0.71
G1 X-20.483
G2 X-19.483 Y-65.518 I0. J-1.
G1 Y-67.518
G2 X-20.483 Y-68.518 I-1. J0.
G1 X-21.483
Y-71.758
X-0.433
Y-68.518
X-1.433
G2 X-2.433 Y-67.518 I0. J1.
G1 Y-65.518
G2 X-1.433 Y-64.518 I1. J0.
G1 X-0.847
G2 X-0.142 Y-64.808 I0. J-1.
X-0.433 Y-64.103 I0.709 J0.705
G1 Y-35.812
G2 X-0.142 Y-35.107 I1. J0.
X-0.847 Y-35.398 I-0.705 J0.709
G1 X-1.433
G2 X-2.433 Y-34.398 I0. J1.
G1 Y-32.398
G2 X-1.433 Y-31.398 I1. J0.
G1 X-0.433
Y-29.495
G2 X-0.432 Y-29.455 I2. J0.
X-2.034 Y-27.495 I0.398 J1.96
G1 Y-26.216
G3 X-2.059 Y-26.12 Z-1.473 I-0.2 J0. F480
X-2.104 Y-26.064 Z-1.4 I-0.176 J-0.096
X-2.126 Y-26.048 Z-1.3 I-0.13 J-0.152
G0 Z15.
M5
G53 Z0.
M30
